; G-Code generated by Simplify3D(R) Version 3.0.2
; 11月 14, 2017 at 6:43:33 下午
; Settings Summary
;   processName,Process1
;   applyToModels,XY左电机固定件
;   profileName,I3
;   profileVersion,2017-07-16 15:44:41
;   baseProfile,Default
;   printMaterial,PLA
;   printQuality,Medium
;   printExtruders,
;   extruderName,Extruder 1,Primary Extruder
;   extruderToolheadNumber,0,0
;   extruderDiameter,0.4,0.4
;   extruderAutoWidth,0,0
;   extruderWidth,0.4,0.4
;   extrusionMultiplier,0.9,0.9
;   extruderUseRetract,1,1
;   extruderRetractionDistance,3,3
;   extruderExtraRestartDistance,0,0
;   extruderRetractionZLift,0,0
;   extruderRetractionSpeed,1800,1800
;   extruderUseCoasting,0,0
;   extruderCoastingDistance,0.2,0.2
;   extruderUseWipe,0,0
;   extruderWipeDistance,5,5
;   primaryExtruder,0
;   layerHeight,0.2
;   topSolidLayers,3
;   bottomSolidLayers,3
;   perimeterOutlines,1
;   printPerimetersInsideOut,1
;   startPointOption,2
;   startPointOriginX,0
;   startPointOriginY,0
;   startPointOriginZ,300
;   sequentialIslands,0
;   spiralVaseMode,0
;   firstLayerHeightPercentage,80
;   firstLayerWidthPercentage,100
;   firstLayerUnderspeed,0.5
;   useRaft,0
;   raftExtruder,0
;   raftLayers,3
;   raftOffset,3
;   raftSeparationDistance,0.14
;   raftInfill,85
;   disableRaftBaseLayers,0
;   useSkirt,1
;   skirtExtruder,0
;   skirtLayers,1
;   skirtOutlines,2
;   skirtOffset,2
;   usePrimePillar,0
;   primePillarExtruder,999
;   primePillarWidth,12
;   primePillarLocation,7
;   primePillarSpeedMultiplier,1
;   useOozeShield,0
;   oozeShieldExtruder,999
;   oozeShieldOffset,2
;   oozeShieldOutlines,1
;   oozeShieldSidewallShape,1
;   oozeShieldSidewallAngle,30
;   oozeShieldSpeedMultiplier,1
;   infillExtruder,0
;   internalInfillPattern,Rectilinear
;   externalInfillPattern,Rectilinear
;   infillPercentage,90
;   outlineOverlapPercentage,25
;   infillExtrusionWidthPercentage,125
;   minInfillLength,5
;   infillLayerInterval,1
;   infillAngles,45,-45
;   overlapInfillAngles,0
;   generateSupport,1
;   supportExtruder,0
;   supportInfillPercentage,30
;   supportExtraInflation,0
;   denseSupportLayers,0
;   denseSupportInfillPercentage,70
;   supportLayerInterval,1
;   supportHorizontalPartOffset,0.3
;   supportUpperSeparationLayers,1
;   supportLowerSeparationLayers,1
;   supportType,0
;   supportGridSpacing,4
;   maxOverhangAngle,45
;   supportAngles,0
;   temperatureName,Extruder 1 Temperature,Heated Bed
;   temperatureNumber,0,0
;   temperatureSetpointCount,1,1
;   temperatureSetpointLayers,1,1
;   temperatureSetpointTemperatures,200,70
;   temperatureStabilizeAtStartup,1,1
;   temperatureHeatedBed,0,1
;   temperatureRelayBetweenLayers,0,0
;   temperatureRelayBetweenLoops,0,0
;   fanLayers,1,2
;   fanSpeeds,0,100
;   blipFanToFullPower,0
;   adjustSpeedForCooling,1
;   minSpeedLayerTime,15
;   minCoolingSpeedSlowdown,20
;   increaseFanForCooling,0
;   minFanLayerTime,45
;   maxCoolingFanSpeed,100
;   increaseFanForBridging,0
;   bridgingFanSpeed,100
;   use5D,1
;   relativeEdistances,0
;   allowEaxisZeroing,1
;   independentExtruderAxes,0
;   includeM10123,0
;   stickySupport,1
;   applyToolheadOffsets,0
;   gcodeXoffset,0
;   gcodeYoffset,0
;   gcodeZoffset,0
;   overrideMachineDefinition,1
;   machineTypeOverride,0
;   strokeXoverride,185
;   strokeYoverride,190
;   strokeZoverride,300
;   originOffsetXoverride,0
;   originOffsetYoverride,0
;   originOffsetZoverride,0
;   homeXdirOverride,-1
;   homeYdirOverride,-1
;   homeZdirOverride,-1
;   flipXoverride,1
;   flipYoverride,-1
;   flipZoverride,1
;   toolheadOffsets,0,0|0,0|0,0|0,0|0,0|0,0
;   overrideFirmwareConfiguration,1
;   firmwareTypeOverride,RepRap (Marlin/Repetier/Sprinter)
;   GPXconfigOverride,r2
;   baudRateOverride,250000
;   overridePrinterModels,0
;   printerModelsOverride
;   startingGcode,G28 ; home all axes
;   layerChangeGcode,
;   retractionGcode,
;   toolChangeGcode,
;   endingGcode,M104 S0 ; turn off extruder,M140 S0 ; turn off bed,M84 ; disable motors
;   createX3G,0
;   celebration,0
;   celebrationSong,Random Song
;   createMB5G,0
;   postProcessing,
;   defaultSpeed,3000
;   outlineUnderspeed,0.5
;   solidInfillUnderspeed,0.8
;   supportUnderspeed,0.8
;   rapidXYspeed,4800
;   rapidZspeed,1000
;   minBridgingArea,50
;   bridgingExtraInflation,0
;   bridgingExtrusionMultiplier,1
;   bridgingSpeedMultiplier,1
;   filamentDiameter,1.73
;   filamentPricePerKg,46
;   filamentDensity,1.25
;   useMinPrintHeight,0
;   minPrintHeight,0
;   useMaxPrintHeight,0
;   maxPrintHeight,0
;   useDiaphragm,0
;   diaphragmLayerInterval,20
;   robustSlicing,1
;   mergeAllIntoSolid,0
;   onlyRetractWhenCrossingOutline,1
;   retractBetweenLayers,1
;   useRetractionMinTravel,0
;   retractionMinTravel,3
;   retractWhileWiping,0
;   onlyWipeOutlines,1
;   avoidCrossingOutline,0
;   maxMovementDetourFactor,3
;   toolChangeRetractionDistance,12
;   toolChangeExtraRestartDistance,-0.5
;   toolChangeRetractionSpeed,600
;   allowThinWallGapFill,1
;   thinWallAllowedOverlapPercentage,10
;   horizontalSizeCompensation,0
G90
M82
M106 S0
M140 S70
M190 S70
M104 S200 T0
M109 S200 T0
G28 ; home all axes
G92 E0
G1 E-3.0000 F1800
G1 Z0.160 F1000
; layer 1, Z = 0.16
T0
; tool H0.200 W0.400
; skirt
G1 X64.332 Y82.491 F4800
G1 E0.0000 F540
G92 E0
G1 X64.552 Y82.400 E0.0073 F1500
G1 X68.900 Y82.400 E0.1405
G1 X68.900 Y79.052 E0.2430
G1 X68.991 Y78.832 E0.2503
G1 X70.332 Y77.491 E0.3084
G1 X70.552 Y77.400 E0.3157
G1 X91.900 Y77.400 E0.9696
G1 X91.900 Y59.052 E1.5316
G1 X91.991 Y58.832 E1.5389
G1 X93.332 Y57.491 E1.5970
G1 X93.552 Y57.400 E1.6043
G1 X100.448 Y57.400 E1.8155
G1 X100.668 Y57.491 E1.8228
G1 X102.009 Y58.832 E1.8809
G1 X102.100 Y59.052 E1.8882
G1 X102.100 Y77.400 E2.4502
G1 X104.448 Y77.400 E2.5221
G1 X104.668 Y77.491 E2.5294
G1 X106.009 Y78.832 E2.5875
G1 X106.100 Y79.052 E2.5948
G1 X106.100 Y79.400 E2.6054
G1 X112.900 Y79.400 E2.8137
G1 X112.900 Y79.052 E2.8244
G1 X112.991 Y78.832 E2.8317
G1 X114.332 Y77.491 E2.8897
G1 X114.552 Y77.400 E2.8970
G1 X120.448 Y77.400 E3.0776
G1 X120.668 Y77.491 E3.0849
G1 X122.009 Y78.832 E3.1430
G1 X122.100 Y79.052 E3.1503
G1 X122.100 Y112.448 E4.1732
G1 X122.009 Y112.668 E4.1805
G1 X120.668 Y114.009 E4.2386
G1 X120.448 Y114.100 E4.2459
G1 X115.600 Y114.100 E4.3944
G1 X115.600 Y127.948 E4.8186
G1 X115.509 Y128.168 E4.8259
G1 X114.168 Y129.509 E4.8839
G1 X113.948 Y129.600 E4.8912
G1 X100.100 Y129.600 E5.3154
G1 X100.100 Y130.948 E5.3567
G1 X100.009 Y131.168 E5.3640
G1 X98.668 Y132.509 E5.4221
G1 X98.448 Y132.600 E5.4294
G1 X64.552 Y132.600 E6.4676
G1 X64.332 Y132.509 E6.4749
G1 X62.991 Y131.168 E6.5330
G1 X62.900 Y130.948 E6.5403
G1 X62.900 Y84.052 E7.9767
G1 X62.991 Y83.832 E7.9840
G1 X64.332 Y82.491 E8.0421
G1 X64.558 Y82.830 F4800
G92 E0
G1 X64.632 Y82.800 E0.0024 F1500
G1 X69.300 Y82.800 E0.1454
G1 X69.300 Y79.132 E0.2578
G1 X69.330 Y79.058 E0.2602
G1 X70.558 Y77.830 E0.3134
G1 X70.632 Y77.800 E0.3158
G1 X92.300 Y77.800 E0.9795
G1 X92.300 Y59.132 E1.5514
G1 X92.330 Y59.058 E1.5538
G1 X93.558 Y57.830 E1.6070
G1 X93.632 Y57.800 E1.6094
G1 X100.368 Y57.800 E1.8158
G1 X100.442 Y57.830 E1.8182
G1 X101.670 Y59.058 E1.8714
G1 X101.700 Y59.132 E1.8738
G1 X101.700 Y77.800 E2.4456
G1 X104.368 Y77.800 E2.5274
G1 X104.442 Y77.830 E2.5298
G1 X105.670 Y79.058 E2.5830
G1 X105.700 Y79.132 E2.5854
G1 X105.700 Y79.800 E2.6059
G1 X113.300 Y79.800 E2.8387
G1 X113.300 Y79.132 E2.8591
G1 X113.330 Y79.058 E2.8616
G1 X114.558 Y77.830 E2.9148
G1 X114.632 Y77.800 E2.9172
G1 X120.368 Y77.800 E3.0929
G1 X120.442 Y77.830 E3.0954
G1 X121.670 Y79.058 E3.1485
G1 X121.700 Y79.132 E3.1510
G1 X121.700 Y112.368 E4.1690
G1 X121.670 Y112.442 E4.1715
G1 X120.442 Y113.670 E4.2246
G1 X120.368 Y113.700 E4.2271
G1 X115.200 Y113.700 E4.3854
G1 X115.200 Y127.868 E4.8194
G1 X115.170 Y127.942 E4.8218
G1 X113.942 Y129.170 E4.8750
G1 X113.868 Y129.200 E4.8774
G1 X99.700 Y129.200 E5.3114
G1 X99.700 Y130.868 E5.3625
G1 X99.670 Y130.942 E5.3649
G1 X98.442 Y132.170 E5.4181
G1 X98.368 Y132.200 E5.4205
G1 X64.632 Y132.200 E6.4539
G1 X64.558 Y132.170 E6.4563
G1 X63.330 Y130.942 E6.5095
G1 X63.300 Y130.868 E6.5120
G1 X63.300 Y84.132 E7.9435
G1 X63.330 Y84.058 E7.9460
G1 X64.558 Y82.830 E7.9991
G92 E0
G1 E-3.0000 F1800
; outer perimeter
G1 X65.700 Y85.200 F4800
G1 E0.0000 F1800
G92 E0
G1 X71.700 Y85.200 E0.1838 F750
G1 X71.700 Y80.200 E0.3369
G1 X94.700 Y80.200 E1.0414
G1 X94.700 Y60.200 E1.6540
G1 X99.300 Y60.200 E1.7949
G1 X99.300 Y80.200 E2.4075
G1 X103.300 Y80.200 E2.5301
G1 X103.300 Y82.200 E2.5913
G1 X115.700 Y82.200 E2.9711
G1 X115.700 Y80.200 E3.0324
G1 X119.300 Y80.200 E3.1427
G1 X119.300 Y111.300 E4.0953
G1 X112.800 Y111.300 E4.2944
G1 X112.800 Y126.800 E4.7691
G1 X97.300 Y126.800 E5.2439
G1 X97.300 Y129.800 E5.3358
G1 X65.700 Y129.800 E6.3037
G1 X65.700 Y85.200 E7.6698
; outer perimeter
G1 X70.180 Y91.366 F4800
G92 E0
G1 X70.013 Y91.517 E0.0069 F750
G1 X69.866 Y91.680 E0.0136
G1 X69.634 Y92.035 E0.0266
G1 X69.480 Y92.422 E0.0393
G1 X69.408 Y92.809 E0.0514
G1 X69.400 Y93.004 E0.0574
G1 X69.435 Y93.386 E0.0691
G1 X69.547 Y93.774 E0.0815
G1 X69.740 Y94.147 E0.0944
G1 X69.869 Y94.324 E0.1011
G1 X70.019 Y94.489 E0.1079
G1 X70.346 Y94.755 E0.1208
G1 X70.542 Y94.869 E0.1278
G1 X70.922 Y95.020 E0.1403
G1 X71.314 Y95.093 E0.1525
G1 X71.701 Y95.091 E0.1644
G1 X72.079 Y95.020 E0.1761
G1 X72.465 Y94.866 E0.1889
G1 X72.820 Y94.634 E0.2019
G1 X72.985 Y94.485 E0.2087
G1 X73.135 Y94.318 E0.2156
G1 X73.366 Y93.965 E0.2285
G1 X73.520 Y93.577 E0.2413
G1 X73.592 Y93.189 E0.2533
G1 X73.592 Y92.810 E0.2650
G1 X73.519 Y92.420 E0.2771
G1 X73.366 Y92.035 E0.2898
G1 X73.134 Y91.680 E0.3028
G1 X72.985 Y91.515 E0.3096
G1 X72.814 Y91.362 E0.3166
G1 X72.464 Y91.133 E0.3294
G1 X72.079 Y90.980 E0.3421
G1 X71.689 Y90.908 E0.3543
G1 X71.310 Y90.908 E0.3659
G1 X70.921 Y90.980 E0.3780
G1 X70.533 Y91.135 E0.3908
G1 X70.180 Y91.366 E0.4037
G92 E0
G1 E-3.0000 F1800
; outer perimeter
G1 X78.476 Y99.086 F4800
G1 E0.0000 F1800
G92 E0
G1 X78.002 Y99.538 E0.0201 F750
G1 X77.552 Y100.014 E0.0401
G1 X77.128 Y100.511 E0.0602
G1 X76.741 Y101.014 E0.0796
G1 X76.371 Y101.549 E0.0995
G1 X76.022 Y102.114 E0.1199
G1 X75.713 Y102.678 E0.1395
G1 X75.435 Y103.252 E0.1591
G1 X75.188 Y103.834 E0.1785
G1 X74.972 Y104.423 E0.1976
G1 X74.788 Y105.014 E0.2166
G1 X74.634 Y105.607 E0.2354
G1 X74.510 Y106.200 E0.2539
G1 X74.416 Y106.791 E0.2723
G1 X74.351 Y107.358 E0.2898
G1 X74.312 Y107.952 E0.3080
G1 X74.300 Y108.520 E0.3254
G1 X74.313 Y109.073 E0.3423
G1 X74.353 Y109.653 E0.3601
G1 X74.420 Y110.238 E0.3782
G1 X74.515 Y110.828 E0.3965
G1 X74.636 Y111.402 E0.4145
G1 X74.796 Y112.014 E0.4338
G1 X74.982 Y112.606 E0.4528
G1 X75.200 Y113.194 E0.4720
G1 X75.448 Y113.777 E0.4914
G1 X75.728 Y114.351 E0.5110
G1 X76.039 Y114.914 E0.5307
G1 X76.379 Y115.463 E0.5505
G1 X76.749 Y115.998 E0.5704
G1 X77.148 Y116.514 E0.5904
G1 X77.586 Y117.024 E0.6110
G1 X78.038 Y117.498 E0.6310
G1 X78.513 Y117.948 E0.6511
G1 X79.011 Y118.372 E0.6711
G1 X79.514 Y118.759 E0.6906
G1 X80.064 Y119.138 E0.7110
G1 X80.614 Y119.478 E0.7308
G1 X81.178 Y119.787 E0.7505
G1 X81.752 Y120.065 E0.7701
G1 X82.334 Y120.312 E0.7894
G1 X82.923 Y120.528 E0.8086
G1 X83.514 Y120.712 E0.8276
G1 X84.107 Y120.866 E0.8464
G1 X84.700 Y120.990 E0.8649
G1 X85.291 Y121.084 E0.8833
G1 X85.877 Y121.150 E0.9013
G1 X86.437 Y121.188 E0.9185
G1 X87.020 Y121.200 E0.9364
G1 X87.573 Y121.187 E0.9533
G1 X88.153 Y121.148 E0.9711
G1 X88.738 Y121.080 E0.9892
G1 X89.328 Y120.985 E1.0075
G1 X89.920 Y120.860 E1.0260
G1 X90.514 Y120.704 E1.0448
G1 X91.106 Y120.518 E1.0638
G1 X91.694 Y120.300 E1.0830
G1 X92.277 Y120.052 E1.1024
G1 X92.851 Y119.772 E1.1220
G1 X93.414 Y119.461 E1.1417
G1 X93.963 Y119.121 E1.1615
G1 X94.498 Y118.751 E1.1814
G1 X95.014 Y118.352 E1.2014
G1 X95.524 Y117.914 E1.2220
G1 X95.998 Y117.462 E1.2420
G1 X96.448 Y116.986 E1.2621
G1 X96.872 Y116.489 E1.2821
G1 X97.259 Y115.986 E1.3016
G1 X97.638 Y115.436 E1.3220
G1 X97.978 Y114.886 E1.3418
G1 X98.287 Y114.322 E1.3615
G1 X98.565 Y113.748 E1.3810
G1 X98.812 Y113.166 E1.4004
G1 X99.028 Y112.577 E1.4196
G1 X99.212 Y111.986 E1.4386
G1 X99.366 Y111.393 E1.4573
G1 X99.490 Y110.800 E1.4759
G1 X99.584 Y110.209 E1.4942
G1 X99.650 Y109.623 E1.5123
G1 X99.688 Y109.048 E1.5300
G1 X99.700 Y108.480 E1.5473
G1 X99.687 Y107.927 E1.5643
G1 X99.647 Y107.347 E1.5821
G1 X99.580 Y106.762 E1.6001
G1 X99.485 Y106.172 E1.6184
G1 X99.360 Y105.580 E1.6370
G1 X99.204 Y104.986 E1.6558
G1 X99.018 Y104.394 E1.6748
G1 X98.800 Y103.806 E1.6940
G1 X98.552 Y103.223 E1.7134
G1 X98.272 Y102.649 E1.7330
G1 X97.961 Y102.086 E1.7527
G1 X97.621 Y101.537 E1.7725
G1 X97.251 Y101.002 E1.7924
G1 X96.852 Y100.486 E1.8124
G1 X96.414 Y99.976 E1.8329
G1 X95.962 Y99.502 E1.8530
G1 X95.486 Y99.052 E1.8731
G1 X94.989 Y98.628 E1.8931
G1 X94.486 Y98.241 E1.9125
G1 X93.936 Y97.862 E1.9330
G1 X93.386 Y97.522 E1.9528
G1 X92.822 Y97.213 E1.9725
G1 X92.248 Y96.935 E1.9920
G1 X91.666 Y96.688 E2.0114
G1 X91.077 Y96.472 E2.0306
G1 X90.486 Y96.288 E2.0496
G1 X89.893 Y96.134 E2.0683
G1 X89.300 Y96.010 E2.0869
G1 X88.709 Y95.916 E2.1052
G1 X88.123 Y95.850 E2.1233
G1 X87.548 Y95.812 E2.1409
G1 X86.980 Y95.800 E2.1583
G1 X86.427 Y95.813 E2.1753
G1 X85.847 Y95.853 E2.1931
G1 X85.262 Y95.920 E2.2111
G1 X84.672 Y96.015 E2.2294
G1 X84.080 Y96.140 E2.2480
G1 X83.486 Y96.296 E2.2668
G1 X82.894 Y96.482 E2.2858
G1 X82.306 Y96.700 E2.3050
G1 X81.723 Y96.948 E2.3244
G1 X81.149 Y97.228 E2.3439
G1 X80.586 Y97.539 E2.3636
G1 X80.037 Y97.879 E2.3834
G1 X79.502 Y98.249 E2.4034
G1 X78.986 Y98.648 E2.4233
G1 X78.476 Y99.086 E2.4439
G92 E0
G1 E-3.0000 F1800
; outer perimeter
G1 X100.480 Y92.421 F4800
G1 E0.0000 F1800
G92 E0
G1 X100.408 Y92.810 E0.0121 F750
G1 X100.408 Y93.187 E0.0236
G1 X100.435 Y93.387 E0.0298
G1 X100.547 Y93.774 E0.0422
G1 X100.738 Y94.143 E0.0549
G1 X100.869 Y94.323 E0.0617
G1 X101.014 Y94.484 E0.0684
G1 X101.176 Y94.631 E0.0751
G1 X101.355 Y94.761 E0.0818
G1 X101.725 Y94.953 E0.0946
G1 X102.117 Y95.066 E0.1071
G1 X102.499 Y95.101 E0.1189
G1 X102.882 Y95.066 E0.1306
G1 X103.274 Y94.953 E0.1431
G1 X103.643 Y94.762 E0.1558
G1 X103.822 Y94.632 E0.1626
G1 X103.985 Y94.485 E0.1693
G1 X104.134 Y94.320 E0.1762
G1 X104.366 Y93.966 E0.1891
G1 X104.520 Y93.579 E0.2019
G1 X104.592 Y93.189 E0.2140
G1 X104.592 Y92.811 E0.2256
G1 X104.520 Y92.424 E0.2377
G1 X104.366 Y92.035 E0.2505
G1 X104.134 Y91.680 E0.2635
G1 X103.987 Y91.516 E0.2702
G1 X103.821 Y91.367 E0.2770
G1 X103.467 Y91.135 E0.2900
G1 X103.079 Y90.981 E0.3028
G1 X102.689 Y90.908 E0.3149
G1 X102.312 Y90.908 E0.3265
G1 X101.924 Y90.980 E0.3386
G1 X101.537 Y91.133 E0.3513
G1 X101.180 Y91.366 E0.3644
G1 X101.016 Y91.514 E0.3712
G1 X100.871 Y91.674 E0.3778
G1 X100.743 Y91.850 E0.3845
G1 X100.632 Y92.040 E0.3912
G1 X100.480 Y92.421 E0.4038
; outer perimeter
G1 X101.011 Y122.518 F4800
G92 E0
G1 X100.741 Y122.850 E0.0131 F750
G1 X100.546 Y123.228 E0.0261
G1 X100.434 Y123.617 E0.0385
G1 X100.399 Y124.002 E0.0504
G1 X100.434 Y124.383 E0.0621
G1 X100.547 Y124.774 E0.0745
G1 X100.739 Y125.145 E0.0874
G1 X100.870 Y125.324 E0.0941
G1 X101.015 Y125.485 E0.1008
G1 X101.176 Y125.631 E0.1074
G1 X101.355 Y125.761 E0.1142
G1 X101.726 Y125.953 E0.1270
G1 X102.119 Y126.066 E0.1395
G1 X102.501 Y126.101 E0.1513
G1 X102.895 Y126.063 E0.1634
G1 X103.274 Y125.953 E0.1755
G1 X103.645 Y125.761 E0.1883
G1 X103.824 Y125.631 E0.1951
G1 X103.986 Y125.484 E0.2018
G1 X104.136 Y125.318 E0.2086
G1 X104.367 Y124.964 E0.2216
G1 X104.520 Y124.579 E0.2343
G1 X104.592 Y124.189 E0.2464
G1 X104.592 Y123.805 E0.2582
G1 X104.520 Y123.421 E0.2701
G1 X104.366 Y123.035 E0.2829
G1 X104.134 Y122.680 E0.2958
G1 X103.985 Y122.515 E0.3027
G1 X103.820 Y122.366 E0.3095
G1 X103.465 Y122.134 E0.3224
G1 X103.078 Y121.980 E0.3352
G1 X102.689 Y121.908 E0.3473
G1 X102.310 Y121.908 E0.3589
G1 X101.926 Y121.979 E0.3709
G1 X101.723 Y122.049 E0.3775
G1 X101.353 Y122.240 E0.3902
G1 X101.176 Y122.369 E0.3969
G1 X101.011 Y122.518 E0.4038
; outer perimeter
G1 X71.312 Y121.908 F4800
G92 E0
G1 X70.922 Y121.980 E0.0122 F750
G1 X70.535 Y122.134 E0.0249
G1 X70.180 Y122.366 E0.0379
G1 X70.014 Y122.516 E0.0447
