; G-Code generated by Simplify3D(R) Version 3.0.2
; 11月 14, 2017 at 6:42:21 下午
; Settings Summary
;   processName,Process1
;   applyToModels,XY直线轴承固定件1
;   profileName,I3
;   profileVersion,2017-07-16 15:44:41
;   baseProfile,Default
;   printMaterial,PLA
;   printQuality,Medium
;   printExtruders,
;   extruderName,Extruder 1,Primary Extruder
;   extruderToolheadNumber,0,0
;   extruderDiameter,0.4,0.4
;   extruderAutoWidth,0,0
;   extruderWidth,0.4,0.4
;   extrusionMultiplier,0.9,0.9
;   extruderUseRetract,1,1
;   extruderRetractionDistance,3,3
;   extruderExtraRestartDistance,0,0
;   extruderRetractionZLift,0,0
;   extruderRetractionSpeed,1800,1800
;   extruderUseCoasting,0,0
;   extruderCoastingDistance,0.2,0.2
;   extruderUseWipe,0,0
;   extruderWipeDistance,5,5
;   primaryExtruder,0
;   layerHeight,0.2
;   topSolidLayers,3
;   bottomSolidLayers,3
;   perimeterOutlines,1
;   printPerimetersInsideOut,1
;   startPointOption,2
;   startPointOriginX,0
;   startPointOriginY,0
;   startPointOriginZ,300
;   sequentialIslands,0
;   spiralVaseMode,0
;   firstLayerHeightPercentage,80
;   firstLayerWidthPercentage,100
;   firstLayerUnderspeed,0.5
;   useRaft,0
;   raftExtruder,0
;   raftLayers,3
;   raftOffset,3
;   raftSeparationDistance,0.14
;   raftInfill,85
;   disableRaftBaseLayers,0
;   useSkirt,1
;   skirtExtruder,0
;   skirtLayers,1
;   skirtOutlines,2
;   skirtOffset,2
;   usePrimePillar,0
;   primePillarExtruder,999
;   primePillarWidth,12
;   primePillarLocation,7
;   primePillarSpeedMultiplier,1
;   useOozeShield,0
;   oozeShieldExtruder,999
;   oozeShieldOffset,2
;   oozeShieldOutlines,1
;   oozeShieldSidewallShape,1
;   oozeShieldSidewallAngle,30
;   oozeShieldSpeedMultiplier,1
;   infillExtruder,0
;   internalInfillPattern,Rectilinear
;   externalInfillPattern,Rectilinear
;   infillPercentage,90
;   outlineOverlapPercentage,25
;   infillExtrusionWidthPercentage,125
;   minInfillLength,5
;   infillLayerInterval,1
;   infillAngles,45,-45
;   overlapInfillAngles,0
;   generateSupport,1
;   supportExtruder,0
;   supportInfillPercentage,30
;   supportExtraInflation,0
;   denseSupportLayers,0
;   denseSupportInfillPercentage,70
;   supportLayerInterval,1
;   supportHorizontalPartOffset,0.3
;   supportUpperSeparationLayers,1
;   supportLowerSeparationLayers,1
;   supportType,0
;   supportGridSpacing,4
;   maxOverhangAngle,45
;   supportAngles,0
;   temperatureName,Extruder 1 Temperature,Heated Bed
;   temperatureNumber,0,0
;   temperatureSetpointCount,1,1
;   temperatureSetpointLayers,1,1
;   temperatureSetpointTemperatures,200,70
;   temperatureStabilizeAtStartup,1,1
;   temperatureHeatedBed,0,1
;   temperatureRelayBetweenLayers,0,0
;   temperatureRelayBetweenLoops,0,0
;   fanLayers,1,2
;   fanSpeeds,0,100
;   blipFanToFullPower,0
;   adjustSpeedForCooling,1
;   minSpeedLayerTime,15
;   minCoolingSpeedSlowdown,20
;   increaseFanForCooling,0
;   minFanLayerTime,45
;   maxCoolingFanSpeed,100
;   increaseFanForBridging,0
;   bridgingFanSpeed,100
;   use5D,1
;   relativeEdistances,0
;   allowEaxisZeroing,1
;   independentExtruderAxes,0
;   includeM10123,0
;   stickySupport,1
;   applyToolheadOffsets,0
;   gcodeXoffset,0
;   gcodeYoffset,0
;   gcodeZoffset,0
;   overrideMachineDefinition,1
;   machineTypeOverride,0
;   strokeXoverride,185
;   strokeYoverride,190
;   strokeZoverride,300
;   originOffsetXoverride,0
;   originOffsetYoverride,0
;   originOffsetZoverride,0
;   homeXdirOverride,-1
;   homeYdirOverride,-1
;   homeZdirOverride,-1
;   flipXoverride,1
;   flipYoverride,-1
;   flipZoverride,1
;   toolheadOffsets,0,0|0,0|0,0|0,0|0,0|0,0
;   overrideFirmwareConfiguration,1
;   firmwareTypeOverride,RepRap (Marlin/Repetier/Sprinter)
;   GPXconfigOverride,r2
;   baudRateOverride,250000
;   overridePrinterModels,0
;   printerModelsOverride
;   startingGcode,G28 ; home all axes
;   layerChangeGcode,
;   retractionGcode,
;   toolChangeGcode,
;   endingGcode,M104 S0 ; turn off extruder,M140 S0 ; turn off bed,M84 ; disable motors
;   createX3G,0
;   celebration,0
;   celebrationSong,Random Song
;   createMB5G,0
;   postProcessing,
;   defaultSpeed,3000
;   outlineUnderspeed,0.5
;   solidInfillUnderspeed,0.8
;   supportUnderspeed,0.8
;   rapidXYspeed,4800
;   rapidZspeed,1000
;   minBridgingArea,50
;   bridgingExtraInflation,0
;   bridgingExtrusionMultiplier,1
;   bridgingSpeedMultiplier,1
;   filamentDiameter,1.73
;   filamentPricePerKg,46
;   filamentDensity,1.25
;   useMinPrintHeight,0
;   minPrintHeight,0
;   useMaxPrintHeight,0
;   maxPrintHeight,0
;   useDiaphragm,0
;   diaphragmLayerInterval,20
;   robustSlicing,1
;   mergeAllIntoSolid,0
;   onlyRetractWhenCrossingOutline,1
;   retractBetweenLayers,1
;   useRetractionMinTravel,0
;   retractionMinTravel,3
;   retractWhileWiping,0
;   onlyWipeOutlines,1
;   avoidCrossingOutline,0
;   maxMovementDetourFactor,3
;   toolChangeRetractionDistance,12
;   toolChangeExtraRestartDistance,-0.5
;   toolChangeRetractionSpeed,600
;   allowThinWallGapFill,1
;   thinWallAllowedOverlapPercentage,10
;   horizontalSizeCompensation,0
G90
M82
M106 S0
M140 S70
M190 S70
M104 S200 T0
M109 S200 T0
G28 ; home all axes
G92 E0
G1 E-3.0000 F1800
G1 Z0.160 F1000
; layer 1, Z = 0.16
T0
; tool H0.200 W0.400
; skirt
G1 X73.985 Y78.338 F4800
G1 E0.0000 F540
G92 E0
G1 X74.083 Y78.273 E0.0036 F1500
G1 X74.927 Y77.923 E0.0316
G1 X75.043 Y77.900 E0.0352
G1 X109.957 Y77.900 E1.1047
G1 X110.073 Y77.923 E1.1083
G1 X110.917 Y78.273 E1.1363
G1 X111.015 Y78.338 E1.1399
G1 X114.662 Y81.985 E1.2978
G1 X114.727 Y82.083 E1.3014
G1 X115.077 Y82.927 E1.3294
G1 X115.100 Y83.043 E1.3331
G1 X115.100 Y90.451 E1.5600
G1 X115.009 Y90.672 E1.5673
G1 X113.667 Y92.012 E1.6254
G1 X113.447 Y92.103 E1.6327
G1 X109.001 Y92.101 E1.7688
G1 X108.781 Y92.009 E1.7762
G1 X107.441 Y90.669 E1.8342
G1 X107.350 Y90.449 E1.8415
G1 X107.350 Y89.878 E1.8590
G1 X104.305 Y89.876 E1.9522
G1 X77.650 Y89.880 E2.7687
G1 X77.650 Y90.449 E2.7861
G1 X77.559 Y90.669 E2.7934
G1 X76.219 Y92.009 E2.8515
G1 X75.999 Y92.101 E2.8588
G1 X71.553 Y92.103 E2.9949
G1 X71.333 Y92.012 E3.0023
G1 X69.991 Y90.671 E3.0603
G1 X69.900 Y90.451 E3.0676
G1 X69.900 Y83.043 E3.2945
G1 X69.923 Y82.927 E3.2982
G1 X70.273 Y82.083 E3.3262
G1 X70.338 Y81.985 E3.3298
G1 X73.985 Y78.338 E3.4877
G92 E0
G1 E-3.0000 F1800
G1 X76.000 Y97.898 F4800
G1 E0.0000 F1800
G92 E0
G1 X76.220 Y97.990 E0.0073 F1500
G1 X77.559 Y99.330 E0.0653
G1 X77.650 Y99.550 E0.0726
G1 X77.650 Y100.123 E0.0902
G1 X80.687 Y100.124 E0.1832
G1 X107.350 Y100.123 E0.9999
G1 X107.350 Y99.551 E1.0174
G1 X107.441 Y99.331 E1.0247
G1 X108.781 Y97.991 E1.0827
G1 X109.001 Y97.899 E1.0900
G1 X113.447 Y97.897 E1.2262
G1 X113.667 Y97.988 E1.2335
G1 X115.009 Y99.329 E1.2916
G1 X115.100 Y99.549 E1.2989
G1 X115.100 Y106.957 E1.5258
G1 X115.077 Y107.073 E1.5294
G1 X114.727 Y107.917 E1.5574
G1 X114.662 Y108.015 E1.5610
G1 X111.015 Y111.662 E1.7190
G1 X110.917 Y111.727 E1.7226
G1 X110.073 Y112.077 E1.7506
G1 X109.957 Y112.100 E1.7542
G1 X75.043 Y112.100 E2.8236
G1 X74.927 Y112.077 E2.8273
G1 X74.083 Y111.727 E2.8553
G1 X73.985 Y111.662 E2.8589
G1 X70.338 Y108.015 E3.0168
G1 X70.273 Y107.917 E3.0204
G1 X69.923 Y107.073 E3.0484
G1 X69.900 Y106.957 E3.0521
G1 X69.900 Y99.547 E3.2790
G1 X69.991 Y99.326 E3.2864
G1 X71.333 Y97.985 E3.3445
G1 X71.554 Y97.894 E3.3518
G1 X76.000 Y97.898 E3.4879
G1 X75.920 Y98.298 F4800
G92 E0
G1 X75.993 Y98.329 E0.0024 F1500
G1 X77.220 Y99.556 E0.0556
G1 X77.250 Y99.630 E0.0580
G1 X77.250 Y100.523 E0.0854
G1 X80.687 Y100.524 E0.1906
G1 X107.750 Y100.523 E1.0196
G1 X107.750 Y99.631 E1.0469
G1 X107.780 Y99.557 E1.0493
G1 X109.008 Y98.330 E1.1025
G1 X109.081 Y98.299 E1.1050
G1 X113.367 Y98.297 E1.2362
G1 X113.441 Y98.328 E1.2387
G1 X114.670 Y99.555 E1.2919
G1 X114.700 Y99.629 E1.2943
G1 X114.700 Y106.918 E1.5176
G1 X114.692 Y106.956 E1.5188
G1 X114.373 Y107.728 E1.5444
G1 X114.351 Y107.760 E1.5456
G1 X110.760 Y111.351 E1.7011
G1 X110.728 Y111.373 E1.7023
G1 X109.956 Y111.692 E1.7279
G1 X109.918 Y111.700 E1.7291
G1 X75.082 Y111.700 E2.7961
G1 X75.044 Y111.692 E2.7973
G1 X74.272 Y111.373 E2.8229
G1 X74.240 Y111.351 E2.8241
G1 X70.649 Y107.760 E2.9796
G1 X70.627 Y107.728 E2.9808
G1 X70.308 Y106.956 E3.0064
G1 X70.300 Y106.918 E3.0076
G1 X70.300 Y99.626 E3.2309
G1 X70.330 Y99.553 E3.2334
G1 X71.560 Y98.324 E3.2866
G1 X71.633 Y98.294 E3.2890
G1 X75.920 Y98.298 E3.4203
G1 X75.919 Y91.701 F4800
G92 E0
G1 X71.633 Y91.703 E0.1313 F1500
G1 X71.559 Y91.673 E0.1337
G1 X70.330 Y90.445 E0.1869
G1 X70.300 Y90.371 E0.1894
G1 X70.300 Y83.082 E0.4126
G1 X70.308 Y83.044 E0.4138
G1 X70.627 Y82.272 E0.4394
G1 X70.649 Y82.240 E0.4406
G1 X74.240 Y78.649 E0.5962
G1 X74.272 Y78.627 E0.5974
G1 X75.044 Y78.308 E0.6229
G1 X75.082 Y78.300 E0.6241
G1 X109.918 Y78.300 E1.6912
G1 X109.956 Y78.308 E1.6924
G1 X110.728 Y78.627 E1.7179
G1 X110.760 Y78.649 E1.7191
G1 X114.351 Y82.240 E1.8747
G1 X114.373 Y82.272 E1.8759
G1 X114.692 Y83.044 E1.9015
G1 X114.700 Y83.082 E1.9027
G1 X114.700 Y90.371 E2.1259
G1 X114.670 Y90.445 E2.1284
G1 X113.441 Y91.673 E2.1816
G1 X113.367 Y91.703 E2.1840
G1 X109.081 Y91.701 E2.3153
G1 X109.007 Y91.670 E2.3177
G1 X107.780 Y90.443 E2.3709
G1 X107.750 Y90.369 E2.3733
G1 X107.750 Y89.479 E2.4006
G1 X104.305 Y89.476 E2.5061
G1 X77.250 Y89.480 E3.3348
G1 X77.250 Y90.369 E3.3621
G1 X77.220 Y90.443 E3.3645
G1 X75.993 Y91.670 E3.4177
G1 X75.919 Y91.701 E3.4201
G92 E0
G1 E-3.0000 F1800
; outer perimeter
G1 X74.850 Y89.301 F4800
G1 E0.0000 F1800
G92 E0
G1 X72.700 Y89.303 E0.0659 F750
G1 X72.700 Y83.583 E0.2411
G1 X75.583 Y80.700 E0.3659
G1 X109.417 Y80.700 E1.4023
G1 X112.300 Y83.583 E1.5272
G1 X112.300 Y89.303 E1.7024
G1 X110.150 Y89.302 E1.7682
G1 X110.150 Y87.080 E1.8363
G1 X104.307 Y87.076 E2.0152
G1 X74.850 Y87.080 E2.9175
G1 X74.850 Y89.301 E2.9855
G92 E0
G1 E-3.0000 F1800
; outer perimeter
G1 X76.867 Y85.561 F4800
G1 E0.0000 F1800
G92 E0
G1 X77.227 Y85.601 E0.0111 F750
G1 X77.594 Y85.569 E0.0224
G1 X77.958 Y85.460 E0.0340
G1 X78.275 Y85.292 E0.0450
G1 X78.552 Y85.065 E0.0560
G1 X78.781 Y84.790 E0.0670
G1 X78.953 Y84.475 E0.0779
G1 X79.061 Y84.133 E0.0889
G1 X79.101 Y83.773 E0.1000
G1 X79.069 Y83.406 E0.1113
G1 X78.960 Y83.042 E0.1229
G1 X78.792 Y82.725 E0.1339
G1 X78.565 Y82.448 E0.1449
G1 X78.290 Y82.219 E0.1559
G1 X77.975 Y82.047 E0.1668
G1 X77.633 Y81.939 E0.1778
G1 X77.273 Y81.899 E0.1889
G1 X76.906 Y81.931 E0.2002
G1 X76.542 Y82.040 E0.2118
G1 X76.225 Y82.208 E0.2228
G1 X75.948 Y82.435 E0.2338
G1 X75.730 Y82.696 E0.2442
G1 X75.547 Y83.024 E0.2557
G1 X75.439 Y83.367 E0.2667
G1 X75.399 Y83.727 E0.2778
G1 X75.431 Y84.094 E0.2891
G1 X75.540 Y84.458 E0.3008
G1 X75.708 Y84.775 E0.3117
G1 X75.935 Y85.052 E0.3227
G1 X76.210 Y85.281 E0.3337
G1 X76.525 Y85.453 E0.3447
G1 X76.867 Y85.561 E0.3557
; outer perimeter
G1 X105.976 Y84.279 F4800
G92 E0
G1 X106.111 Y84.610 E0.0110 F750
G1 X106.308 Y84.910 E0.0219
G1 X106.558 Y85.166 E0.0329
G1 X106.857 Y85.371 E0.0440
G1 X107.196 Y85.516 E0.0553
G1 X107.568 Y85.592 E0.0669
G1 X107.927 Y85.592 E0.0779
G1 X108.279 Y85.524 E0.0889
G1 X108.610 Y85.389 E0.0999
G1 X108.910 Y85.192 E0.1109
G1 X109.166 Y84.942 E0.1218
G1 X109.371 Y84.643 E0.1329
G1 X109.516 Y84.304 E0.1442
G1 X109.592 Y83.932 E0.1559
G1 X109.592 Y83.573 E0.1669
G1 X109.524 Y83.221 E0.1778
G1 X109.389 Y82.890 E0.1888
G1 X109.192 Y82.590 E0.1998
G1 X108.942 Y82.334 E0.2108
G1 X108.643 Y82.129 E0.2219
G1 X108.304 Y81.984 E0.2331
G1 X107.932 Y81.908 E0.2448
G1 X107.573 Y81.908 E0.2558
G1 X107.221 Y81.976 E0.2667
G1 X106.890 Y82.111 E0.2777
G1 X106.590 Y82.308 E0.2887
G1 X106.334 Y82.558 E0.2997
G1 X106.129 Y82.857 E0.3108
G1 X105.984 Y83.196 E0.3221
G1 X105.908 Y83.568 E0.3337
G1 X105.908 Y83.927 E0.3447
G1 X105.976 Y84.279 E0.3557
G92 E0
G1 E-3.0000 F1800
; solid layer
G1 X106.813 Y81.819 F4800
G1 E0.0000 F1800
G92 E0
G1 X107.631 Y81.000 E0.0355 F1200
G1 X108.197 Y81.000 E0.0528
G1 X107.590 Y81.608 E0.0791
G1 X107.962 Y81.608 E0.0905
G1 X108.122 Y81.641 E0.0955
G1 X108.763 Y81.000 E0.1233
G1 X109.293 Y81.000 E0.1395
G1 X109.311 Y81.018 E0.1403
G1 X108.561 Y81.767 E0.1727
G1 X108.788 Y81.864 E0.1803
G1 X108.931 Y81.963 E0.1856
G1 X109.594 Y81.301 E0.2143
G1 X109.876 Y81.583 E0.2266
G1 X109.245 Y82.215 E0.2539
G1 X109.427 Y82.401 E0.2619
G1 X109.505 Y82.520 E0.2663
G1 X110.159 Y81.866 E0.2946
G1 X110.442 Y82.149 E0.3068
G1 X109.709 Y82.882 E0.3386
G1 X109.813 Y83.135 E0.3470
G1 X109.847 Y83.310 E0.3524
G1 X110.725 Y82.432 E0.3904
G1 X111.008 Y82.715 E0.4027
G1 X109.892 Y83.830 E0.4510
G1 X111.509 Y89.002 F4800
G92 E0
G1 X112.000 Y88.511 E0.0213 F1200
G1 X112.000 Y87.945 E0.0386
G1 X110.943 Y89.002 E0.0844
G1 X110.450 Y89.002 E0.0995
G1 X110.450 Y88.929 E0.1017
G1 X112.000 Y87.379 E0.1689
G1 X112.000 Y86.814 E0.1862
G1 X110.450 Y88.364 E0.2533
G1 X110.450 Y87.798 E0.2707
G1 X112.000 Y86.248 E0.3378
G1 X112.000 Y85.682 E0.3551
G1 X110.450 Y87.232 E0.4223
G1 X110.450 Y86.781 E0.4361
G1 X110.336 Y86.780 E0.4396
G1 X112.000 Y85.117 E0.5117
G1 X112.000 Y84.551 E0.5290
G1 X109.771 Y86.780 E0.6255
G1 X109.206 Y86.780 E0.6429
G1 X112.000 Y83.985 E0.7639
G1 X112.000 Y83.707 E0.7724
G1 X111.856 Y83.563 E0.7787
G1 X108.640 Y86.779 E0.9180
G1 X108.075 Y86.779 E0.9353
G1 X111.573 Y83.281 E1.0868
G1 X111.291 Y82.998 E1.0991
G1 X109.737 Y84.552 E1.1664
G1 X109.636 Y84.788 E1.1743
G1 X109.397 Y85.136 E1.1872
G1 X109.099 Y85.427 E1.1999
G1 X108.751 Y85.656 E1.2127
G1 X108.552 Y85.737 E1.2193
G1 X107.510 Y86.778 E1.2644
G1 X106.944 Y86.778 E1.2817
G1 X107.830 Y85.892 E1.3201
G1 X107.538 Y85.892 E1.3291
G1 X107.311 Y85.846 E1.3361
G1 X106.379 Y86.778 E1.3765
G1 X105.814 Y86.777 E1.3938
G1 X106.883 Y85.709 E1.4401
G1 X106.712 Y85.636 E1.4458
G1 X106.521 Y85.505 E1.4529
G1 X105.249 Y86.777 E1.5080
G1 X104.683 Y86.777 E1.5253
G1 X106.215 Y85.245 E1.5917
G1 X106.073 Y85.099 E1.5979
G1 X105.963 Y84.931 E1.6041
G1 X104.118 Y86.776 E1.6840
G1 X103.552 Y86.776 E1.7013
G1 X105.767 Y84.561 E1.7973
G1 X105.687 Y84.365 E1.8038
G1 X105.640 Y84.123 E1.8113
G1 X102.986 Y86.776 E1.9263
G1 X102.421 Y86.777 E1.9436
G1 X105.608 Y83.589 E2.0817
G1 X105.608 Y83.537 E2.0833
G1 X105.696 Y83.106 E2.0968
G1 X105.823 Y82.808 E2.1067
G1 X101.855 Y86.777 E2.2786
G1 X101.289 Y86.777 E2.2959
G1 X107.066 Y81.000 E2.5462
G1 X106.500 Y81.000 E2.5635
G1 X100.723 Y86.777 E2.8137
G1 X100.158 Y86.777 E2.8310
G1 X105.934 Y81.000 E3.0813
G1 X105.369 Y81.000 E3.0986
G1 X99.592 Y86.777 E3.3489
G1 X99.026 Y86.777 E3.3662
G1 X104.803 Y81.000 E3.6164
G1 X104.237 Y81.000 E3.6338
G1 X98.460 Y86.777 E3.8840
G1 X97.894 Y86.777 E3.9013
G1 X103.672 Y81.000 E4.1516
G1 X103.106 Y81.000 E4.1689
G1 X97.329 Y86.777 E4.4192
G1 X96.763 Y86.777 E4.4365
G1 X102.540 Y81.000 E4.6868
G1 X101.975 Y81.000 E4.7041
G1 X96.197 Y86.777 E4.9543
G1 X95.631 Y86.777 E4.9717
G1 X101.409 Y81.000 E5.2219
G1 X100.843 Y81.000 E5.2393
G1 X95.066 Y86.778 E5.4895
G1 X94.500 Y86.778 E5.5069
G1 X100.277 Y81.000 E5.7571
G1 X99.712 Y81.000 E5.7745
G1 X93.934 Y86.778 E6.0247
G1 X93.368 Y86.778 E6.0421
G1 X99.146 Y81.000 E6.2923
G1 X98.580 Y81.000 E6.3097
G1 X92.803 Y86.778 E6.5599
G1 X92.237 Y86.778 E6.5773
G1 X98.015 Y81.000 E6.8276
G1 X97.449 Y81.000 E6.8449
G1 X91.671 Y86.778 E7.0952
G1 X91.105 Y86.778 E7.1125
G1 X96.883 Y81.000 E7.3628
G1 X96.318 Y81.000 E7.3801
G1 X90.540 Y86.778 E7.6304
G1 X89.974 Y86.778 E7.6478
G1 X95.752 Y81.000 E7.8980
G1 X95.186 Y81.000 E7.9154
G1 X89.408 Y86.778 E8.1657
G1 X88.842 Y86.778 E8.1830
G1 X94.621 Y81.000 E8.4333
G1 X94.055 Y81.000 E8.4506
G1 X88.277 Y86.778 E8.7009
G1 X87.711 Y86.778 E8.7183
G1 X93.489 Y81.000 E8.9686
G1 X92.924 Y81.000 E8.9859
G1 X87.145 Y86.779 E9.2362
G1 X86.579 Y86.779 E9.2536
G1 X92.358 Y81.000 E9.5039
G1 X91.792 Y81.000 E9.5212
G1 X86.013 Y86.779 E9.7715
G1 X85.448 Y86.779 E9.7889
G1 X91.227 Y81.000 E10.0392
G1 X90.661 Y81.000 E10.0565
G1 X84.882 Y86.779 E10.3068
G1 X84.316 Y86.779 E10.3242
G1 X90.095 Y81.000 E10.5745
G1 X89.529 Y81.000 E10.5918
G1 X83.750 Y86.779 E10.8421
G1 X83.185 Y86.779 E10.8595
G1 X88.964 Y81.000 E11.1098
G1 X88.398 Y81.000 E11.1271
G1 X82.619 Y86.779 E11.3775
G1 X82.053 Y86.779 E11.3948
G1 X87.832 Y81.000 E11.6452
