; G-Code generated by Simplify3D(R) Version 3.0.2
; 11月 14, 2017 at 6:44:10 下午
; Settings Summary
;   processName,Process1
;   applyToModels,Z电机件1
;   profileName,I3
;   profileVersion,2017-07-16 15:44:41
;   baseProfile,Default
;   printMaterial,PLA
;   printQuality,Medium
;   printExtruders,
;   extruderName,Extruder 1,Primary Extruder
;   extruderToolheadNumber,0,0
;   extruderDiameter,0.4,0.4
;   extruderAutoWidth,0,0
;   extruderWidth,0.4,0.4
;   extrusionMultiplier,0.9,0.9
;   extruderUseRetract,1,1
;   extruderRetractionDistance,3,3
;   extruderExtraRestartDistance,0,0
;   extruderRetractionZLift,0,0
;   extruderRetractionSpeed,1800,1800
;   extruderUseCoasting,0,0
;   extruderCoastingDistance,0.2,0.2
;   extruderUseWipe,0,0
;   extruderWipeDistance,5,5
;   primaryExtruder,0
;   layerHeight,0.2
;   topSolidLayers,3
;   bottomSolidLayers,3
;   perimeterOutlines,1
;   printPerimetersInsideOut,1
;   startPointOption,2
;   startPointOriginX,0
;   startPointOriginY,0
;   startPointOriginZ,300
;   sequentialIslands,0
;   spiralVaseMode,0
;   firstLayerHeightPercentage,80
;   firstLayerWidthPercentage,100
;   firstLayerUnderspeed,0.5
;   useRaft,0
;   raftExtruder,0
;   raftLayers,3
;   raftOffset,3
;   raftSeparationDistance,0.14
;   raftInfill,85
;   disableRaftBaseLayers,0
;   useSkirt,1
;   skirtExtruder,0
;   skirtLayers,1
;   skirtOutlines,2
;   skirtOffset,2
;   usePrimePillar,0
;   primePillarExtruder,999
;   primePillarWidth,12
;   primePillarLocation,7
;   primePillarSpeedMultiplier,1
;   useOozeShield,0
;   oozeShieldExtruder,999
;   oozeShieldOffset,2
;   oozeShieldOutlines,1
;   oozeShieldSidewallShape,1
;   oozeShieldSidewallAngle,30
;   oozeShieldSpeedMultiplier,1
;   infillExtruder,0
;   internalInfillPattern,Rectilinear
;   externalInfillPattern,Rectilinear
;   infillPercentage,90
;   outlineOverlapPercentage,25
;   infillExtrusionWidthPercentage,125
;   minInfillLength,5
;   infillLayerInterval,1
;   infillAngles,45,-45
;   overlapInfillAngles,0
;   generateSupport,1
;   supportExtruder,0
;   supportInfillPercentage,30
;   supportExtraInflation,0
;   denseSupportLayers,0
;   denseSupportInfillPercentage,70
;   supportLayerInterval,1
;   supportHorizontalPartOffset,0.3
;   supportUpperSeparationLayers,1
;   supportLowerSeparationLayers,1
;   supportType,0
;   supportGridSpacing,4
;   maxOverhangAngle,45
;   supportAngles,0
;   temperatureName,Extruder 1 Temperature,Heated Bed
;   temperatureNumber,0,0
;   temperatureSetpointCount,1,1
;   temperatureSetpointLayers,1,1
;   temperatureSetpointTemperatures,200,70
;   temperatureStabilizeAtStartup,1,1
;   temperatureHeatedBed,0,1
;   temperatureRelayBetweenLayers,0,0
;   temperatureRelayBetweenLoops,0,0
;   fanLayers,1,2
;   fanSpeeds,0,100
;   blipFanToFullPower,0
;   adjustSpeedForCooling,1
;   minSpeedLayerTime,15
;   minCoolingSpeedSlowdown,20
;   increaseFanForCooling,0
;   minFanLayerTime,45
;   maxCoolingFanSpeed,100
;   increaseFanForBridging,0
;   bridgingFanSpeed,100
;   use5D,1
;   relativeEdistances,0
;   allowEaxisZeroing,1
;   independentExtruderAxes,0
;   includeM10123,0
;   stickySupport,1
;   applyToolheadOffsets,0
;   gcodeXoffset,0
;   gcodeYoffset,0
;   gcodeZoffset,0
;   overrideMachineDefinition,1
;   machineTypeOverride,0
;   strokeXoverride,185
;   strokeYoverride,190
;   strokeZoverride,300
;   originOffsetXoverride,0
;   originOffsetYoverride,0
;   originOffsetZoverride,0
;   homeXdirOverride,-1
;   homeYdirOverride,-1
;   homeZdirOverride,-1
;   flipXoverride,1
;   flipYoverride,-1
;   flipZoverride,1
;   toolheadOffsets,0,0|0,0|0,0|0,0|0,0|0,0
;   overrideFirmwareConfiguration,1
;   firmwareTypeOverride,RepRap (Marlin/Repetier/Sprinter)
;   GPXconfigOverride,r2
;   baudRateOverride,250000
;   overridePrinterModels,0
;   printerModelsOverride
;   startingGcode,G28 ; home all axes
;   layerChangeGcode,
;   retractionGcode,
;   toolChangeGcode,
;   endingGcode,M104 S0 ; turn off extruder,M140 S0 ; turn off bed,M84 ; disable motors
;   createX3G,0
;   celebration,0
;   celebrationSong,Random Song
;   createMB5G,0
;   postProcessing,
;   defaultSpeed,3000
;   outlineUnderspeed,0.5
;   solidInfillUnderspeed,0.8
;   supportUnderspeed,0.8
;   rapidXYspeed,4800
;   rapidZspeed,1000
;   minBridgingArea,50
;   bridgingExtraInflation,0
;   bridgingExtrusionMultiplier,1
;   bridgingSpeedMultiplier,1
;   filamentDiameter,1.73
;   filamentPricePerKg,46
;   filamentDensity,1.25
;   useMinPrintHeight,0
;   minPrintHeight,0
;   useMaxPrintHeight,0
;   maxPrintHeight,0
;   useDiaphragm,0
;   diaphragmLayerInterval,20
;   robustSlicing,1
;   mergeAllIntoSolid,0
;   onlyRetractWhenCrossingOutline,1
;   retractBetweenLayers,1
;   useRetractionMinTravel,0
;   retractionMinTravel,3
;   retractWhileWiping,0
;   onlyWipeOutlines,1
;   avoidCrossingOutline,0
;   maxMovementDetourFactor,3
;   toolChangeRetractionDistance,12
;   toolChangeExtraRestartDistance,-0.5
;   toolChangeRetractionSpeed,600
;   allowThinWallGapFill,1
;   thinWallAllowedOverlapPercentage,10
;   horizontalSizeCompensation,0
G90
M82
M106 S0
M140 S70
M190 S70
M104 S200 T0
M109 S200 T0
G28 ; home all axes
G92 E0
G1 E-3.0000 F1800
G1 Z0.160 F1000
; layer 1, Z = 0.16
T0
; tool H0.200 W0.400
; skirt
G1 X64.991 Y61.832 F4800
G1 E0.0000 F540
G92 E0
G1 X66.332 Y60.491 E0.0581 F1500
G1 X66.552 Y60.400 E0.0654
G1 X118.448 Y60.400 E1.6549
G1 X118.668 Y60.491 E1.6623
G1 X120.009 Y61.832 E1.7203
G1 X120.100 Y62.052 E1.7276
G1 X120.100 Y127.948 E3.7460
G1 X120.009 Y128.168 E3.7533
G1 X118.668 Y129.509 E3.8114
G1 X118.448 Y129.600 E3.8187
G1 X66.552 Y129.600 E5.4083
G1 X66.332 Y129.509 E5.4156
G1 X64.991 Y128.168 E5.4737
G1 X64.900 Y127.948 E5.4810
G1 X64.900 Y62.052 E7.4994
G1 X64.991 Y61.832 E7.5067
G1 X65.330 Y62.058 F4800
G92 E0
G1 X66.558 Y60.830 E0.0532 F1500
G1 X66.632 Y60.800 E0.0556
G1 X118.368 Y60.800 E1.6403
G1 X118.442 Y60.830 E1.6428
G1 X119.670 Y62.058 E1.6959
G1 X119.700 Y62.132 E1.6984
G1 X119.700 Y127.868 E3.7119
G1 X119.670 Y127.942 E3.7143
G1 X118.442 Y129.170 E3.7675
G1 X118.368 Y129.200 E3.7700
G1 X66.632 Y129.200 E5.3547
G1 X66.558 Y129.170 E5.3571
G1 X65.330 Y127.942 E5.4103
G1 X65.300 Y127.868 E5.4127
G1 X65.300 Y62.132 E7.4262
G1 X65.330 Y62.058 E7.4287
G92 E0
G1 E-3.0000 F1800
; outer perimeter
G1 X67.700 Y63.200 F4800
G1 E0.0000 F1800
G92 E0
G1 X117.300 Y63.200 E1.5193 F750
G1 X117.300 Y126.800 E3.4673
G1 X67.700 Y126.800 E4.9866
G1 X67.700 Y63.200 E6.9347
; outer perimeter
G1 X81.755 Y68.439 F4800
G92 E0
G1 X81.755 Y78.839 E0.3186 F750
G1 X87.755 Y78.839 E0.5023
G1 X87.755 Y68.439 E0.8209
G1 X81.755 Y68.439 E1.0047
; outer perimeter
G1 X97.245 Y68.439 F4800
G92 E0
G1 X97.245 Y78.839 E0.3186 F750
G1 X103.245 Y78.839 E0.5023
G1 X103.245 Y68.439 E0.8209
G1 X97.245 Y68.439 E1.0047
G92 E0
G1 E-3.0000 F1800
; outer perimeter
G1 X106.365 Y89.132 F4800
G1 E0.0000 F1800
G92 E0
G1 X106.223 Y89.481 E0.0115 F750
G1 X106.155 Y89.851 E0.0231
G1 X106.162 Y90.219 E0.0343
G1 X106.237 Y90.565 E0.0452
G1 X106.368 Y90.873 E0.0554
G1 X106.565 Y91.169 E0.0663
G1 X106.822 Y91.427 E0.0775
G1 X107.132 Y91.635 E0.0889
G1 X107.481 Y91.777 E0.1005
G1 X107.851 Y91.845 E0.1120
G1 X108.219 Y91.838 E0.1233
G1 X108.565 Y91.763 E0.1341
G1 X108.873 Y91.632 E0.1443
G1 X109.169 Y91.435 E0.1552
G1 X109.427 Y91.178 E0.1664
G1 X109.635 Y90.868 E0.1778
G1 X109.777 Y90.519 E0.1894
G1 X109.845 Y90.149 E0.2009
G1 X109.838 Y89.781 E0.2122
G1 X109.763 Y89.435 E0.2230
G1 X109.632 Y89.127 E0.2333
G1 X109.435 Y88.831 E0.2441
G1 X109.178 Y88.573 E0.2553
G1 X108.868 Y88.365 E0.2667
G1 X108.519 Y88.223 E0.2783
G1 X108.149 Y88.155 E0.2898
G1 X107.781 Y88.162 E0.3011
G1 X107.435 Y88.237 E0.3119
G1 X107.127 Y88.368 E0.3222
G1 X106.831 Y88.565 E0.3330
G1 X106.573 Y88.822 E0.3442
G1 X106.365 Y89.132 E0.3557
G92 E0
G1 E-3.0000 F1800
; outer perimeter
G1 X85.564 Y94.861 F4800
G1 E0.0000 F1800
G92 E0
G1 X85.014 Y95.241 E0.0205 F750
G1 X84.511 Y95.628 E0.0399
G1 X84.013 Y96.052 E0.0599
G1 X83.538 Y96.502 E0.0800
G1 X83.086 Y96.976 E0.1000
G1 X82.660 Y97.472 E0.1201
G1 X82.260 Y97.988 E0.1401
G1 X81.879 Y98.537 E0.1605
G1 X81.539 Y99.086 E0.1803
G1 X81.228 Y99.649 E0.2000
G1 X80.948 Y100.223 E0.2196
G1 X80.700 Y100.806 E0.2390
G1 X80.482 Y101.394 E0.2582
G1 X80.296 Y101.986 E0.2772
G1 X80.136 Y102.598 E0.2966
G1 X80.015 Y103.172 E0.3146
G1 X79.923 Y103.744 E0.3323
G1 X79.855 Y104.329 E0.3503
G1 X79.814 Y104.908 E0.3681
G1 X79.800 Y105.480 E0.3856
G1 X79.812 Y106.062 E0.4035
G1 X79.850 Y106.623 E0.4207
G1 X79.914 Y107.190 E0.4382
G1 X80.007 Y107.782 E0.4565
G1 X80.130 Y108.376 E0.4751
G1 X80.283 Y108.969 E0.4938
G1 X80.467 Y109.560 E0.5128
G1 X80.682 Y110.149 E0.5320
G1 X80.928 Y110.731 E0.5514
G1 X81.205 Y111.306 E0.5709
G1 X81.514 Y111.870 E0.5906
G1 X81.852 Y112.421 E0.6104
G1 X82.241 Y112.986 E0.6314
G1 X82.628 Y113.489 E0.6509
G1 X83.052 Y113.986 E0.6709
G1 X83.502 Y114.462 E0.6910
G1 X83.976 Y114.914 E0.7110
G1 X84.472 Y115.340 E0.7311
G1 X84.988 Y115.740 E0.7510
G1 X85.537 Y116.121 E0.7715
G1 X86.086 Y116.461 E0.7913
G1 X86.649 Y116.772 E0.8110
G1 X87.223 Y117.052 E0.8305
G1 X87.806 Y117.300 E0.8500
G1 X88.394 Y117.518 E0.8692
G1 X88.986 Y117.704 E0.8882
G1 X89.580 Y117.860 E0.9070
G1 X90.172 Y117.985 E0.9255
G1 X90.744 Y118.077 E0.9433
G1 X91.328 Y118.145 E0.9613
G1 X91.908 Y118.186 E0.9791
G1 X92.480 Y118.200 E0.9966
G1 X93.062 Y118.188 E1.0144
G1 X93.623 Y118.150 E1.0317
G1 X94.190 Y118.086 E1.0491
G1 X94.782 Y117.993 E1.0675
G1 X95.376 Y117.870 E1.0861
G1 X95.969 Y117.717 E1.1048
G1 X96.560 Y117.533 E1.1238
G1 X97.149 Y117.318 E1.1430
G1 X97.731 Y117.072 E1.1624
G1 X98.306 Y116.795 E1.1819
G1 X98.870 Y116.486 E1.2016
G1 X99.421 Y116.148 E1.2214
G1 X99.986 Y115.759 E1.2424
G1 X100.489 Y115.372 E1.2618
G1 X100.986 Y114.948 E1.2819
G1 X101.462 Y114.498 E1.3019
G1 X101.914 Y114.024 E1.3220
G1 X102.340 Y113.528 E1.3420
G1 X102.740 Y113.012 E1.3620
G1 X103.121 Y112.463 E1.3825
G1 X103.461 Y111.914 E1.4023
G1 X103.772 Y111.351 E1.4220
G1 X104.052 Y110.777 E1.4415
G1 X104.300 Y110.194 E1.4609
G1 X104.518 Y109.606 E1.4801
G1 X104.704 Y109.014 E1.4992
G1 X104.860 Y108.420 E1.5179
G1 X104.985 Y107.828 E1.5365
G1 X105.077 Y107.256 E1.5542
G1 X105.145 Y106.672 E1.5723
G1 X105.186 Y106.092 E1.5900
G1 X105.200 Y105.520 E1.6076
G1 X105.188 Y104.952 E1.6250
G1 X105.150 Y104.377 E1.6426
G1 X105.086 Y103.810 E1.6601
G1 X104.993 Y103.218 E1.6784
G1 X104.870 Y102.624 E1.6970
G1 X104.717 Y102.031 E1.7158
G1 X104.533 Y101.440 E1.7348
G1 X104.318 Y100.851 E1.7540
G1 X104.072 Y100.269 E1.7733
G1 X103.795 Y99.694 E1.7929
G1 X103.486 Y99.130 E1.8126
G1 X103.139 Y98.564 E1.8329
G1 X102.759 Y98.014 E1.8534
G1 X102.372 Y97.511 E1.8728
G1 X101.948 Y97.014 E1.8928
G1 X101.498 Y96.538 E1.9129
G1 X101.024 Y96.086 E1.9330
G1 X100.528 Y95.660 E1.9530
G1 X100.012 Y95.260 E1.9730
G1 X99.463 Y94.879 E1.9934
G1 X98.914 Y94.539 E2.0132
G1 X98.351 Y94.228 E2.0329
G1 X97.777 Y93.948 E2.0525
G1 X97.194 Y93.700 E2.0719
G1 X96.606 Y93.482 E2.0911
G1 X96.014 Y93.296 E2.1101
G1 X95.420 Y93.140 E2.1289
G1 X94.828 Y93.015 E2.1475
G1 X94.256 Y92.923 E2.1652
G1 X93.672 Y92.855 E2.1832
G1 X93.092 Y92.814 E2.2010
G1 X92.520 Y92.800 E2.2185
G1 X91.952 Y92.812 E2.2359
G1 X91.377 Y92.850 E2.2536
G1 X90.810 Y92.914 E2.2711
G1 X90.218 Y93.007 E2.2894
G1 X89.624 Y93.130 E2.3080
G1 X89.031 Y93.283 E2.3268
G1 X88.440 Y93.467 E2.3457
G1 X87.851 Y93.682 E2.3649
G1 X87.269 Y93.928 E2.3843
G1 X86.694 Y94.205 E2.4038
G1 X86.130 Y94.514 E2.4235
G1 X85.564 Y94.861 E2.4439
G92 E0
G1 E-3.0000 F1800
; outer perimeter
G1 X76.341 Y88.270 F4800
G1 E0.0000 F1800
G92 E0
G1 X76.024 Y88.427 E0.0108 F750
G1 X75.757 Y88.629 E0.0211
G1 X75.518 Y88.891 E0.0320
G1 X75.329 Y89.204 E0.0431
G1 X75.203 Y89.555 E0.0546
G1 X75.150 Y89.928 E0.0661
G1 X75.174 Y90.304 E0.0776
G1 X75.270 Y90.659 E0.0889
G1 X75.427 Y90.976 E0.0997
G1 X75.629 Y91.243 E0.1100
G1 X75.891 Y91.482 E0.1209
G1 X76.204 Y91.671 E0.1320
G1 X76.555 Y91.797 E0.1435
G1 X76.928 Y91.850 E0.1550
G1 X77.304 Y91.826 E0.1665
G1 X77.659 Y91.730 E0.1778
G1 X77.976 Y91.573 E0.1887
G1 X78.243 Y91.371 E0.1989
G1 X78.482 Y91.109 E0.2098
G1 X78.671 Y90.796 E0.2210
G1 X78.797 Y90.445 E0.2324
G1 X78.850 Y90.072 E0.2439
G1 X78.826 Y89.696 E0.2555
G1 X78.730 Y89.341 E0.2667
G1 X78.573 Y89.024 E0.2776
G1 X78.371 Y88.757 E0.2878
G1 X78.109 Y88.518 E0.2987
G1 X77.796 Y88.329 E0.3099
G1 X77.445 Y88.203 E0.3213
G1 X77.072 Y88.150 E0.3329
G1 X76.696 Y88.174 E0.3444
G1 X76.341 Y88.270 E0.3557
G92 E0
G1 E-3.0000 F1800
; outer perimeter
G1 X76.607 Y119.191 F4800
G1 E0.0000 F1800
G92 E0
G1 X76.257 Y119.305 E0.0113 F750
G1 X75.948 Y119.477 E0.0221
G1 X75.691 Y119.692 E0.0324
G1 X75.465 Y119.966 E0.0432
G1 X75.292 Y120.287 E0.0544
G1 X75.183 Y120.644 E0.0659
G1 X75.149 Y121.019 E0.0774
G1 X75.191 Y121.393 E0.0889
G1 X75.305 Y121.743 E0.1002
G1 X75.477 Y122.052 E0.1110
G1 X75.692 Y122.309 E0.1213
G1 X75.966 Y122.535 E0.1322
G1 X76.287 Y122.708 E0.1433
G1 X76.644 Y122.817 E0.1548
G1 X77.019 Y122.851 E0.1663
G1 X77.393 Y122.809 E0.1778
G1 X77.743 Y122.695 E0.1891
G1 X78.052 Y122.523 E0.1999
G1 X78.309 Y122.308 E0.2102
G1 X78.535 Y122.034 E0.2211
G1 X78.708 Y121.713 E0.2322
G1 X78.817 Y121.356 E0.2437
G1 X78.851 Y120.981 E0.2552
G1 X78.809 Y120.607 E0.2667
G1 X78.695 Y120.257 E0.2780
G1 X78.523 Y119.948 E0.2888
G1 X78.308 Y119.691 E0.2991
G1 X78.034 Y119.465 E0.3100
G1 X77.713 Y119.292 E0.3212
G1 X77.356 Y119.183 E0.3326
G1 X76.981 Y119.149 E0.3441
G1 X76.607 Y119.191 E0.3557
; outer perimeter
G1 X107.048 Y119.413 F4800
G92 E0
G1 X106.762 Y119.624 E0.0109 F750
G1 X106.516 Y119.893 E0.0220
G1 X106.324 Y120.213 E0.0335
G1 X106.200 Y120.569 E0.0450
G1 X106.150 Y120.942 E0.0565
G1 X106.175 Y121.309 E0.0678
G1 X106.267 Y121.650 E0.0787
G1 X106.413 Y121.952 E0.0889
G1 X106.624 Y122.238 E0.0998
G1 X106.893 Y122.484 E0.1110
G1 X107.213 Y122.676 E0.1224
G1 X107.569 Y122.800 E0.1339
G1 X107.942 Y122.850 E0.1455
G1 X108.309 Y122.825 E0.1567
G1 X108.650 Y122.733 E0.1676
G1 X108.952 Y122.587 E0.1778
G1 X109.238 Y122.376 E0.1887
G1 X109.484 Y122.107 E0.1999
G1 X109.676 Y121.787 E0.2113
G1 X109.800 Y121.431 E0.2229
G1 X109.850 Y121.058 E0.2344
G1 X109.825 Y120.691 E0.2457
G1 X109.733 Y120.350 E0.2565
G1 X109.587 Y120.048 E0.2667
G1 X109.376 Y119.762 E0.2776
G1 X109.107 Y119.516 E0.2888
G1 X108.787 Y119.324 E0.3002
G1 X108.431 Y119.200 E0.3118
G1 X108.058 Y119.150 E0.3233
G1 X107.691 Y119.175 E0.3346
G1 X107.350 Y119.267 E0.3454
G1 X107.048 Y119.413 E0.3557
; solid layer
G1 X106.585 Y119.382 F4800
G92 E0
G1 X117.000 Y108.967 E0.4512 F1200
G1 X117.000 Y109.532 E0.4685
G1 X107.656 Y118.877 E0.8733
G1 X108.068 Y118.849 E0.8859
G1 X108.228 Y118.870 E0.8909
G1 X117.000 Y110.098 E1.2709
G1 X117.000 Y110.664 E1.2882
G1 X108.691 Y118.973 E1.6481
G1 X108.915 Y119.051 E1.6554
G1 X109.079 Y119.150 E1.6613
G1 X117.000 Y111.229 E2.0044
G1 X117.000 Y111.795 E2.0217
G1 X109.409 Y119.386 E2.3505
G1 X109.600 Y119.561 E2.3585
G1 X109.685 Y119.676 E2.3628
G1 X117.000 Y112.361 E2.6797
G1 X117.000 Y112.926 E2.6970
G1 X109.907 Y120.020 E3.0043
G1 X110.015 Y120.244 E3.0119
G1 X110.065 Y120.428 E3.0177
G1 X117.000 Y113.492 E3.3182
G1 X117.000 Y114.058 E3.3355
G1 X110.141 Y120.917 E3.6326
G1 X117.000 Y125.937 F4800
G92 E0
G1 X116.437 Y126.500 E0.0244 F1200
G1 X115.872 Y126.500 E0.0417
G1 X117.000 Y125.372 E0.0906
G1 X117.000 Y124.806 E0.1079
G1 X115.306 Y126.500 E0.1813
G1 X114.740 Y126.500 E0.1986
G1 X117.000 Y124.240 E0.2965
G1 X117.000 Y123.674 E0.3138
G1 X114.174 Y126.500 E0.4362
G1 X113.609 Y126.500 E0.4536
G1 X117.000 Y123.109 E0.6005
G1 X117.000 Y122.543 E0.6178
G1 X113.043 Y126.500 E0.7892
G1 X112.477 Y126.500 E0.8065
G1 X117.000 Y121.977 E1.0024
G1 X117.000 Y121.412 E1.0198
G1 X111.912 Y126.500 E1.2402
G1 X111.346 Y126.500 E1.2575
G1 X117.000 Y120.846 E1.5024
G1 X117.000 Y120.280 E1.5198
G1 X110.780 Y126.500 E1.7892
G1 X110.215 Y126.500 E1.8065
G1 X117.000 Y119.715 E2.1004
G1 X117.000 Y119.149 E2.1178
G1 X109.649 Y126.500 E2.4362
G1 X109.083 Y126.500 E2.4535
G1 X117.000 Y118.583 E2.7964
G1 X117.000 Y118.018 E2.8138
G1 X108.518 Y126.500 E3.1812
G1 X107.952 Y126.500 E3.1985
