; G-Code generated by Simplify3D(R) Version 3.0.2
; 11月 14, 2017 at 6:59:57 下午
; Settings Summary
;   processName,Process1
;   applyToModels,快速接头固定件
;   profileName,I3
;   profileVersion,2017-07-16 15:44:41
;   baseProfile,Default
;   printMaterial,PLA
;   printQuality,Medium
;   printExtruders,
;   extruderName,Extruder 1,Primary Extruder
;   extruderToolheadNumber,0,0
;   extruderDiameter,0.4,0.4
;   extruderAutoWidth,0,0
;   extruderWidth,0.4,0.4
;   extrusionMultiplier,0.9,0.9
;   extruderUseRetract,1,1
;   extruderRetractionDistance,3,3
;   extruderExtraRestartDistance,0,0
;   extruderRetractionZLift,0,0
;   extruderRetractionSpeed,1800,1800
;   extruderUseCoasting,0,0
;   extruderCoastingDistance,0.2,0.2
;   extruderUseWipe,0,0
;   extruderWipeDistance,5,5
;   primaryExtruder,0
;   layerHeight,0.2
;   topSolidLayers,3
;   bottomSolidLayers,3
;   perimeterOutlines,1
;   printPerimetersInsideOut,1
;   startPointOption,2
;   startPointOriginX,0
;   startPointOriginY,0
;   startPointOriginZ,300
;   sequentialIslands,0
;   spiralVaseMode,0
;   firstLayerHeightPercentage,80
;   firstLayerWidthPercentage,100
;   firstLayerUnderspeed,0.5
;   useRaft,0
;   raftExtruder,0
;   raftLayers,3
;   raftOffset,3
;   raftSeparationDistance,0.14
;   raftInfill,85
;   disableRaftBaseLayers,0
;   useSkirt,1
;   skirtExtruder,0
;   skirtLayers,1
;   skirtOutlines,2
;   skirtOffset,2
;   usePrimePillar,0
;   primePillarExtruder,999
;   primePillarWidth,12
;   primePillarLocation,7
;   primePillarSpeedMultiplier,1
;   useOozeShield,0
;   oozeShieldExtruder,999
;   oozeShieldOffset,2
;   oozeShieldOutlines,1
;   oozeShieldSidewallShape,1
;   oozeShieldSidewallAngle,30
;   oozeShieldSpeedMultiplier,1
;   infillExtruder,0
;   internalInfillPattern,Rectilinear
;   externalInfillPattern,Rectilinear
;   infillPercentage,90
;   outlineOverlapPercentage,25
;   infillExtrusionWidthPercentage,125
;   minInfillLength,5
;   infillLayerInterval,1
;   infillAngles,45,-45
;   overlapInfillAngles,0
;   generateSupport,1
;   supportExtruder,0
;   supportInfillPercentage,30
;   supportExtraInflation,0
;   denseSupportLayers,0
;   denseSupportInfillPercentage,70
;   supportLayerInterval,1
;   supportHorizontalPartOffset,0.3
;   supportUpperSeparationLayers,1
;   supportLowerSeparationLayers,1
;   supportType,0
;   supportGridSpacing,4
;   maxOverhangAngle,45
;   supportAngles,0
;   temperatureName,Extruder 1 Temperature,Heated Bed
;   temperatureNumber,0,0
;   temperatureSetpointCount,1,1
;   temperatureSetpointLayers,1,1
;   temperatureSetpointTemperatures,200,70
;   temperatureStabilizeAtStartup,1,1
;   temperatureHeatedBed,0,1
;   temperatureRelayBetweenLayers,0,0
;   temperatureRelayBetweenLoops,0,0
;   fanLayers,1,2
;   fanSpeeds,0,100
;   blipFanToFullPower,0
;   adjustSpeedForCooling,1
;   minSpeedLayerTime,15
;   minCoolingSpeedSlowdown,20
;   increaseFanForCooling,0
;   minFanLayerTime,45
;   maxCoolingFanSpeed,100
;   increaseFanForBridging,0
;   bridgingFanSpeed,100
;   use5D,1
;   relativeEdistances,0
;   allowEaxisZeroing,1
;   independentExtruderAxes,0
;   includeM10123,0
;   stickySupport,1
;   applyToolheadOffsets,0
;   gcodeXoffset,0
;   gcodeYoffset,0
;   gcodeZoffset,0
;   overrideMachineDefinition,1
;   machineTypeOverride,0
;   strokeXoverride,185
;   strokeYoverride,190
;   strokeZoverride,300
;   originOffsetXoverride,0
;   originOffsetYoverride,0
;   originOffsetZoverride,0
;   homeXdirOverride,-1
;   homeYdirOverride,-1
;   homeZdirOverride,-1
;   flipXoverride,1
;   flipYoverride,-1
;   flipZoverride,1
;   toolheadOffsets,0,0|0,0|0,0|0,0|0,0|0,0
;   overrideFirmwareConfiguration,1
;   firmwareTypeOverride,RepRap (Marlin/Repetier/Sprinter)
;   GPXconfigOverride,r2
;   baudRateOverride,250000
;   overridePrinterModels,0
;   printerModelsOverride
;   startingGcode,G28 ; home all axes
;   layerChangeGcode,
;   retractionGcode,
;   toolChangeGcode,
;   endingGcode,M104 S0 ; turn off extruder,M140 S0 ; turn off bed,M84 ; disable motors
;   createX3G,0
;   celebration,0
;   celebrationSong,Random Song
;   createMB5G,0
;   postProcessing,
;   defaultSpeed,3000
;   outlineUnderspeed,0.5
;   solidInfillUnderspeed,0.8
;   supportUnderspeed,0.8
;   rapidXYspeed,4800
;   rapidZspeed,1000
;   minBridgingArea,50
;   bridgingExtraInflation,0
;   bridgingExtrusionMultiplier,1
;   bridgingSpeedMultiplier,1
;   filamentDiameter,1.73
;   filamentPricePerKg,46
;   filamentDensity,1.25
;   useMinPrintHeight,0
;   minPrintHeight,0
;   useMaxPrintHeight,0
;   maxPrintHeight,0
;   useDiaphragm,0
;   diaphragmLayerInterval,20
;   robustSlicing,1
;   mergeAllIntoSolid,0
;   onlyRetractWhenCrossingOutline,1
;   retractBetweenLayers,1
;   useRetractionMinTravel,0
;   retractionMinTravel,3
;   retractWhileWiping,0
;   onlyWipeOutlines,1
;   avoidCrossingOutline,0
;   maxMovementDetourFactor,3
;   toolChangeRetractionDistance,12
;   toolChangeExtraRestartDistance,-0.5
;   toolChangeRetractionSpeed,600
;   allowThinWallGapFill,1
;   thinWallAllowedOverlapPercentage,10
;   horizontalSizeCompensation,0
G90
M82
M106 S0
M140 S70
M190 S70
M104 S200 T0
M109 S200 T0
G28 ; home all axes
G92 E0
G1 E-3.0000 F1800
G1 Z0.160 F1000
; layer 1, Z = 0.16
T0
; tool H0.200 W0.400
; skirt
G1 X84.520 Y72.311 F4800
G1 E0.0000 F540
G92 E0
G1 X84.623 Y72.196 E0.0047 F1500
G1 X84.637 Y72.181 E0.0053
G1 X85.524 Y71.308 E0.0434
G1 X85.539 Y71.295 E0.0441
G1 X85.657 Y71.193 E0.0489
G1 X85.673 Y71.180 E0.0495
G1 X86.651 Y70.450 E0.0869
G1 X86.664 Y70.441 E0.0873
G1 X86.760 Y70.376 E0.0909
G1 X86.773 Y70.368 E0.0914
G1 X87.333 Y70.033 E0.1114
G1 X87.346 Y70.025 E0.1118
G1 X87.447 Y69.972 E0.1153
G1 X87.461 Y69.965 E0.1158
G1 X88.520 Y69.466 E0.1517
G1 X88.534 Y69.460 E0.1521
G1 X88.639 Y69.417 E0.1556
G1 X88.652 Y69.411 E0.1560
G1 X89.247 Y69.200 E0.1754
G1 X89.261 Y69.195 E0.1758
G1 X89.367 Y69.163 E0.1792
G1 X89.381 Y69.159 E0.1796
G1 X90.486 Y68.883 E0.2145
G1 X90.500 Y68.880 E0.2150
G1 X90.610 Y68.858 E0.2184
G1 X90.624 Y68.855 E0.2189
G1 X91.245 Y68.763 E0.2381
G1 X91.258 Y68.761 E0.2385
G1 X91.361 Y68.750 E0.2417
G1 X91.374 Y68.749 E0.2421
G1 X92.387 Y68.690 E0.2731
G1 X92.400 Y68.690 E0.2735
G1 X92.504 Y68.688 E0.2767
G1 X92.517 Y68.688 E0.2771
G1 X93.158 Y68.709 E0.2968
G1 X93.173 Y68.709 E0.2972
G1 X93.283 Y68.718 E0.3006
G1 X93.298 Y68.720 E0.3011
G1 X94.398 Y68.861 E0.3351
G1 X94.412 Y68.863 E0.3355
G1 X94.520 Y68.883 E0.3388
G1 X94.534 Y68.885 E0.3393
G1 X95.164 Y69.028 E0.3591
G1 X95.178 Y69.032 E0.3595
G1 X95.289 Y69.063 E0.3630
G1 X95.303 Y69.067 E0.3635
G1 X96.420 Y69.440 E0.3995
G1 X96.438 Y69.447 E0.4002
G1 X96.579 Y69.505 E0.4048
G1 X96.597 Y69.513 E0.4054
G1 X97.687 Y70.046 E0.4426
G1 X97.701 Y70.053 E0.4431
G1 X97.803 Y70.110 E0.4466
G1 X97.816 Y70.118 E0.4471
G1 X98.387 Y70.473 E0.4677
G1 X98.400 Y70.482 E0.4682
G1 X98.497 Y70.549 E0.4718
G1 X98.509 Y70.558 E0.4723
G1 X99.461 Y71.295 E0.5091
G1 X99.477 Y71.308 E0.5098
G1 X99.592 Y71.411 E0.5145
G1 X99.607 Y71.425 E0.5151
G1 X100.467 Y72.299 E0.5527
G1 X100.477 Y72.310 E0.5531
G1 X100.556 Y72.398 E0.5568
G1 X100.566 Y72.410 E0.5572
G1 X100.989 Y72.940 E0.5780
G1 X100.999 Y72.952 E0.5785
G1 X101.067 Y73.048 E0.5821
G1 X101.076 Y73.060 E0.5826
G1 X101.723 Y74.065 E0.6191
G1 X101.733 Y74.082 E0.6197
G1 X101.807 Y74.215 E0.6244
G1 X101.816 Y74.232 E0.6250
G1 X102.323 Y75.309 E0.6615
G1 X102.329 Y75.323 E0.6619
G1 X102.372 Y75.428 E0.6654
G1 X102.378 Y75.442 E0.6659
G1 X102.594 Y76.052 E0.6857
G1 X102.599 Y76.066 E0.6862
G1 X102.631 Y76.172 E0.6896
G1 X102.635 Y76.186 E0.6900
G1 X102.903 Y77.259 E0.7239
G1 X102.906 Y77.273 E0.7243
G1 X102.927 Y77.380 E0.7277
G1 X102.930 Y77.394 E0.7281
G1 X103.025 Y78.031 E0.7478
G1 X103.027 Y78.044 E0.7482
G1 X103.038 Y78.149 E0.7514
G1 X103.039 Y78.162 E0.7519
G1 X103.097 Y79.157 E0.7824
G1 X103.098 Y79.166 E0.7826
G1 X103.100 Y79.233 E0.7847
G1 X103.100 Y79.242 E0.7850
G1 X103.100 Y110.748 E1.7500
G1 X103.100 Y110.758 E1.7503
G1 X103.098 Y110.831 E1.7526
G1 X103.097 Y110.840 E1.7528
G1 X103.027 Y111.942 E1.7867
G1 X103.026 Y111.956 E1.7871
G1 X103.014 Y112.065 E1.7904
G1 X103.012 Y112.079 E1.7909
G1 X102.914 Y112.689 E1.8098
G1 X102.911 Y112.703 E1.8103
G1 X102.889 Y112.813 E1.8137
G1 X102.885 Y112.827 E1.8141
G1 X102.593 Y113.945 E1.8495
G1 X102.589 Y113.959 E1.8500
G1 X102.555 Y114.068 E1.8534
G1 X102.550 Y114.082 E1.8539
G1 X102.332 Y114.673 E1.8732
G1 X102.328 Y114.683 E1.8735
G1 X102.298 Y114.755 E1.8759
G1 X102.294 Y114.764 E1.8762
G1 X102.025 Y115.364 E1.8964
G1 X102.018 Y115.377 E1.8968
G1 X101.965 Y115.482 E1.9004
G1 X101.958 Y115.495 E1.9009
G1 X101.361 Y116.528 E1.9374
G1 X101.351 Y116.545 E1.9380
G1 X101.265 Y116.673 E1.9427
G1 X101.253 Y116.689 E1.9434
G1 X100.507 Y117.655 E1.9808
G1 X100.497 Y117.667 E1.9812
G1 X100.420 Y117.757 E1.9848
G1 X100.410 Y117.768 E1.9853
G1 X99.941 Y118.261 E2.0062
G1 X99.930 Y118.272 E2.0066
G1 X99.844 Y118.354 E2.0103
G1 X99.833 Y118.364 E2.0107
G1 X98.931 Y119.136 E2.0471
G1 X98.919 Y119.146 E2.0476
G1 X98.827 Y119.217 E2.0511
G1 X98.814 Y119.226 E2.0516
G1 X98.260 Y119.610 E2.0723
G1 X98.248 Y119.619 E2.0727
G1 X98.149 Y119.680 E2.0763
G1 X98.135 Y119.688 E2.0768
G1 X97.115 Y120.252 E2.1125
G1 X97.102 Y120.259 E2.1129
G1 X97.000 Y120.309 E2.1164
G1 X96.987 Y120.315 E2.1168
G1 X96.418 Y120.561 E2.1358
G1 X96.409 Y120.564 E2.1361
G1 X96.339 Y120.592 E2.1384
G1 X96.330 Y120.595 E2.1387
G1 X95.754 Y120.800 E2.1575
G1 X95.740 Y120.804 E2.1579
G1 X95.635 Y120.836 E2.1613
G1 X95.621 Y120.840 E2.1617
G1 X94.532 Y121.113 E2.1961
G1 X94.518 Y121.117 E2.1965
G1 X94.409 Y121.138 E2.1999
G1 X94.395 Y121.141 E2.2004
G1 X93.758 Y121.237 E2.2201
G1 X93.744 Y121.239 E2.2205
G1 X93.640 Y121.250 E2.2237
G1 X93.626 Y121.251 E2.2242
G1 X92.614 Y121.310 E2.2552
G1 X92.600 Y121.310 E2.2556
G1 X92.497 Y121.312 E2.2588
G1 X92.484 Y121.312 E2.2592
G1 X91.860 Y121.292 E2.2783
G1 X91.846 Y121.292 E2.2788
G1 X91.736 Y121.283 E2.2821
G1 X91.722 Y121.281 E2.2826
G1 X90.586 Y121.137 E2.3177
G1 X90.567 Y121.134 E2.3182
G1 X90.421 Y121.106 E2.3228
G1 X90.402 Y121.101 E2.3234
G1 X89.266 Y120.805 E2.3593
G1 X89.252 Y120.801 E2.3598
G1 X89.144 Y120.766 E2.3633
G1 X89.130 Y120.762 E2.3637
G1 X88.538 Y120.543 E2.3830
G1 X88.529 Y120.539 E2.3834
G1 X88.457 Y120.510 E2.3857
G1 X88.447 Y120.506 E2.3861
G1 X87.847 Y120.236 E2.4062
G1 X87.834 Y120.230 E2.4067
G1 X87.728 Y120.176 E2.4103
G1 X87.715 Y120.168 E2.4108
G1 X86.667 Y119.562 E2.4478
G1 X86.650 Y119.551 E2.4485
G1 X86.522 Y119.465 E2.4532
G1 X86.505 Y119.453 E2.4538
G1 X85.554 Y118.717 E2.4907
G1 X85.542 Y118.707 E2.4911
G1 X85.454 Y118.631 E2.4947
G1 X85.443 Y118.621 E2.4952
G1 X84.950 Y118.153 E2.5160
G1 X84.939 Y118.142 E2.5165
G1 X84.858 Y118.056 E2.5201
G1 X84.847 Y118.044 E2.5205
G1 X84.076 Y117.142 E2.5569
G1 X84.066 Y117.131 E2.5574
G1 X83.995 Y117.039 E2.5609
G1 X83.986 Y117.027 E2.5614
G1 X83.612 Y116.488 E2.5815
G1 X83.604 Y116.475 E2.5820
G1 X83.542 Y116.377 E2.5855
G1 X83.535 Y116.364 E2.5860
G1 X82.960 Y115.329 E2.6222
G1 X82.953 Y115.315 E2.6227
G1 X82.902 Y115.212 E2.6262
G1 X82.896 Y115.198 E2.6267
G1 X82.644 Y114.612 E2.6462
G1 X82.640 Y114.603 E2.6465
G1 X82.612 Y114.532 E2.6489
G1 X82.609 Y114.522 E2.6492
G1 X82.410 Y113.962 E2.6674
G1 X82.406 Y113.949 E2.6678
G1 X82.375 Y113.845 E2.6711
G1 X82.371 Y113.831 E2.6716
G1 X82.098 Y112.743 E2.7059
G1 X82.095 Y112.729 E2.7064
G1 X82.073 Y112.620 E2.7098
G1 X82.070 Y112.606 E2.7102
G1 X81.975 Y111.969 E2.7299
G1 X81.973 Y111.956 E2.7304
G1 X81.962 Y111.851 E2.7336
G1 X81.961 Y111.838 E2.7340
G1 X81.903 Y110.843 E2.7645
G1 X81.902 Y110.834 E2.7648
G1 X81.900 Y110.767 E2.7668
G1 X81.900 Y110.758 E2.7671
G1 X81.900 Y79.270 E3.7316
G1 X81.900 Y79.265 E3.7318
G1 X81.901 Y79.227 E3.7329
G1 X81.901 Y79.223 E3.7330
G1 X81.920 Y78.628 E3.7513
G1 X81.921 Y78.614 E3.7517
G1 X81.930 Y78.504 E3.7551
G1 X81.931 Y78.490 E3.7555
G1 X82.075 Y77.372 E3.7900
G1 X82.078 Y77.353 E3.7906
G1 X82.106 Y77.209 E3.7951
G1 X82.110 Y77.190 E3.7957
G1 X82.407 Y76.055 E3.8316
G1 X82.411 Y76.041 E3.8321
G1 X82.445 Y75.933 E3.8356
G1 X82.450 Y75.918 E3.8360
G1 X82.675 Y75.309 E3.8559
G1 X82.681 Y75.295 E3.8564
G1 X82.727 Y75.187 E3.8600
G1 X82.733 Y75.173 E3.8605
G1 X83.268 Y74.083 E3.8976
G1 X83.275 Y74.069 E3.8981
G1 X83.333 Y73.965 E3.9018
G1 X83.341 Y73.951 E3.9023
G1 X83.698 Y73.381 E3.9229
G1 X83.707 Y73.369 E3.9233
G1 X83.772 Y73.275 E3.9269
G1 X83.781 Y73.262 E3.9273
G1 X84.508 Y72.326 E3.9636
G1 X84.520 Y72.311 E3.9642
G1 X84.824 Y72.572 F4800
G92 E0
G1 X84.917 Y72.467 E0.0043 F1500
G1 X84.922 Y72.462 E0.0045
G1 X85.799 Y71.598 E0.0422
G1 X85.804 Y71.594 E0.0424
G1 X85.913 Y71.501 E0.0468
G1 X85.918 Y71.497 E0.0470
G1 X86.886 Y70.774 E0.0840
G1 X86.891 Y70.771 E0.0842
G1 X86.979 Y70.712 E0.0874
G1 X86.983 Y70.709 E0.0876
G1 X87.534 Y70.379 E0.1073
G1 X87.539 Y70.376 E0.1074
G1 X87.631 Y70.327 E0.1106
G1 X87.636 Y70.325 E0.1108
G1 X88.686 Y69.830 E0.1464
G1 X88.691 Y69.828 E0.1465
G1 X88.786 Y69.788 E0.1497
G1 X88.791 Y69.786 E0.1498
G1 X89.376 Y69.578 E0.1689
G1 X89.381 Y69.577 E0.1690
G1 X89.478 Y69.548 E0.1721
G1 X89.483 Y69.546 E0.1723
G1 X90.578 Y69.272 E0.2069
G1 X90.583 Y69.271 E0.2070
G1 X90.683 Y69.251 E0.2101
G1 X90.688 Y69.250 E0.2103
G1 X91.300 Y69.159 E0.2292
G1 X91.304 Y69.158 E0.2294
G1 X91.398 Y69.149 E0.2322
G1 X91.402 Y69.148 E0.2324
G1 X92.406 Y69.090 E0.2632
G1 X92.410 Y69.090 E0.2633
G1 X92.504 Y69.088 E0.2662
G1 X92.509 Y69.088 E0.2663
G1 X93.141 Y69.108 E0.2857
G1 X93.146 Y69.108 E0.2858
G1 X93.247 Y69.117 E0.2890
G1 X93.252 Y69.117 E0.2891
G1 X94.343 Y69.257 E0.3228
G1 X94.347 Y69.258 E0.3229
G1 X94.446 Y69.276 E0.3260
G1 X94.450 Y69.277 E0.3261
G1 X95.071 Y69.417 E0.3456
G1 X95.075 Y69.418 E0.3458
G1 X95.176 Y69.447 E0.3490
G1 X95.181 Y69.448 E0.3491
G1 X96.287 Y69.818 E0.3848
G1 X96.293 Y69.820 E0.3850
G1 X96.422 Y69.873 E0.3893
G1 X96.428 Y69.875 E0.3895
G1 X97.507 Y70.403 E0.4263
G1 X97.511 Y70.406 E0.4265
G1 X97.605 Y70.458 E0.4297
G1 X97.609 Y70.460 E0.4299
G1 X98.172 Y70.810 E0.4502
G1 X98.176 Y70.813 E0.4503
G1 X98.264 Y70.874 E0.4536
G1 X98.268 Y70.877 E0.4538
G1 X99.211 Y71.607 E0.4903
G1 X99.216 Y71.612 E0.4905
G1 X99.322 Y71.705 E0.4948
G1 X99.327 Y71.710 E0.4951
G1 X100.178 Y72.576 E0.5322
G1 X100.181 Y72.579 E0.5324
G1 X100.253 Y72.660 E0.5357
G1 X100.256 Y72.664 E0.5359
G1 X100.674 Y73.186 E0.5563
G1 X100.677 Y73.190 E0.5565
G1 X100.739 Y73.277 E0.5598
G1 X100.742 Y73.281 E0.5599
G1 X101.383 Y74.276 E0.5962
G1 X101.386 Y74.281 E0.5964
G1 X101.454 Y74.403 E0.6006
G1 X101.457 Y74.409 E0.6008
G1 X101.959 Y75.475 E0.6369
G1 X101.961 Y75.480 E0.6371
G1 X102.001 Y75.576 E0.6403
G1 X102.002 Y75.580 E0.6404
G1 X102.216 Y76.182 E0.6600
G1 X102.217 Y76.186 E0.6601
G1 X102.247 Y76.283 E0.6632
G1 X102.248 Y76.288 E0.6634
G1 X102.513 Y77.351 E0.6969
G1 X102.514 Y77.356 E0.6971
G1 X102.534 Y77.454 E0.7001
G1 X102.535 Y77.459 E0.7003
G1 X102.629 Y78.086 E0.7197
G1 X102.630 Y78.090 E0.7198
G1 X102.640 Y78.186 E0.7228
G1 X102.640 Y78.190 E0.7229
G1 X102.698 Y79.178 E0.7532
G1 X102.698 Y79.180 E0.7533
G1 X102.700 Y79.242 E0.7552
G1 X102.700 Y79.245 E0.7553
G1 X102.700 Y110.745 E1.7201
G1 X102.700 Y110.748 E1.7202
G1 X102.698 Y110.815 E1.7223
G1 X102.698 Y110.818 E1.7224
G1 X102.628 Y111.912 E1.7560
G1 X102.628 Y111.917 E1.7561
G1 X102.617 Y112.016 E1.7591
G1 X102.616 Y112.021 E1.7593
G1 X102.520 Y112.621 E1.7779
G1 X102.519 Y112.626 E1.7781
G1 X102.498 Y112.726 E1.7812
G1 X102.497 Y112.730 E1.7813
G1 X102.207 Y113.839 E1.8164
G1 X102.206 Y113.844 E1.8166
G1 X102.175 Y113.943 E1.8198
G1 X102.173 Y113.947 E1.8199
G1 X101.958 Y114.531 E1.8390
G1 X101.956 Y114.534 E1.8391
G1 X101.929 Y114.600 E1.8413
G1 X101.928 Y114.603 E1.8414
G1 X101.662 Y115.195 E1.8612
G1 X101.660 Y115.200 E1.8614
G1 X101.611 Y115.295 E1.8647
G1 X101.609 Y115.299 E1.8648
G1 X101.018 Y116.322 E1.9010
G1 X101.015 Y116.328 E1.9012
G1 X100.936 Y116.444 E1.9055
G1 X100.932 Y116.450 E1.9057
G1 X100.193 Y117.407 E1.9427
G1 X100.190 Y117.411 E1.9429
G1 X100.120 Y117.492 E1.9462
G1 X100.117 Y117.496 E1.9464
G1 X99.655 Y117.982 E1.9669
G1 X99.651 Y117.986 E1.9671
