; G-Code generated by Simplify3D(R) Version 3.0.2
; 11月 14, 2017 at 6:55:07 下午
; Settings Summary
;   processName,Process1
;   applyToModels,挤出机电机件
;   profileName,I3
;   profileVersion,2017-07-16 15:44:41
;   baseProfile,Default
;   printMaterial,PLA
;   printQuality,Medium
;   printExtruders,
;   extruderName,Extruder 1,Primary Extruder
;   extruderToolheadNumber,0,0
;   extruderDiameter,0.4,0.4
;   extruderAutoWidth,0,0
;   extruderWidth,0.4,0.4
;   extrusionMultiplier,0.9,0.9
;   extruderUseRetract,1,1
;   extruderRetractionDistance,3,3
;   extruderExtraRestartDistance,0,0
;   extruderRetractionZLift,0,0
;   extruderRetractionSpeed,1800,1800
;   extruderUseCoasting,0,0
;   extruderCoastingDistance,0.2,0.2
;   extruderUseWipe,0,0
;   extruderWipeDistance,5,5
;   primaryExtruder,0
;   layerHeight,0.2
;   topSolidLayers,3
;   bottomSolidLayers,3
;   perimeterOutlines,1
;   printPerimetersInsideOut,1
;   startPointOption,2
;   startPointOriginX,0
;   startPointOriginY,0
;   startPointOriginZ,300
;   sequentialIslands,0
;   spiralVaseMode,0
;   firstLayerHeightPercentage,80
;   firstLayerWidthPercentage,100
;   firstLayerUnderspeed,0.5
;   useRaft,0
;   raftExtruder,0
;   raftLayers,3
;   raftOffset,3
;   raftSeparationDistance,0.14
;   raftInfill,85
;   disableRaftBaseLayers,0
;   useSkirt,1
;   skirtExtruder,0
;   skirtLayers,1
;   skirtOutlines,2
;   skirtOffset,2
;   usePrimePillar,0
;   primePillarExtruder,999
;   primePillarWidth,12
;   primePillarLocation,7
;   primePillarSpeedMultiplier,1
;   useOozeShield,0
;   oozeShieldExtruder,999
;   oozeShieldOffset,2
;   oozeShieldOutlines,1
;   oozeShieldSidewallShape,1
;   oozeShieldSidewallAngle,30
;   oozeShieldSpeedMultiplier,1
;   infillExtruder,0
;   internalInfillPattern,Rectilinear
;   externalInfillPattern,Rectilinear
;   infillPercentage,90
;   outlineOverlapPercentage,25
;   infillExtrusionWidthPercentage,125
;   minInfillLength,5
;   infillLayerInterval,1
;   infillAngles,45,-45
;   overlapInfillAngles,0
;   generateSupport,1
;   supportExtruder,0
;   supportInfillPercentage,30
;   supportExtraInflation,0
;   denseSupportLayers,0
;   denseSupportInfillPercentage,70
;   supportLayerInterval,1
;   supportHorizontalPartOffset,0.3
;   supportUpperSeparationLayers,1
;   supportLowerSeparationLayers,1
;   supportType,0
;   supportGridSpacing,4
;   maxOverhangAngle,45
;   supportAngles,0
;   temperatureName,Extruder 1 Temperature,Heated Bed
;   temperatureNumber,0,0
;   temperatureSetpointCount,1,1
;   temperatureSetpointLayers,1,1
;   temperatureSetpointTemperatures,200,70
;   temperatureStabilizeAtStartup,1,1
;   temperatureHeatedBed,0,1
;   temperatureRelayBetweenLayers,0,0
;   temperatureRelayBetweenLoops,0,0
;   fanLayers,1,2
;   fanSpeeds,0,100
;   blipFanToFullPower,0
;   adjustSpeedForCooling,1
;   minSpeedLayerTime,15
;   minCoolingSpeedSlowdown,20
;   increaseFanForCooling,0
;   minFanLayerTime,45
;   maxCoolingFanSpeed,100
;   increaseFanForBridging,0
;   bridgingFanSpeed,100
;   use5D,1
;   relativeEdistances,0
;   allowEaxisZeroing,1
;   independentExtruderAxes,0
;   includeM10123,0
;   stickySupport,1
;   applyToolheadOffsets,0
;   gcodeXoffset,0
;   gcodeYoffset,0
;   gcodeZoffset,0
;   overrideMachineDefinition,1
;   machineTypeOverride,0
;   strokeXoverride,185
;   strokeYoverride,190
;   strokeZoverride,300
;   originOffsetXoverride,0
;   originOffsetYoverride,0
;   originOffsetZoverride,0
;   homeXdirOverride,-1
;   homeYdirOverride,-1
;   homeZdirOverride,-1
;   flipXoverride,1
;   flipYoverride,-1
;   flipZoverride,1
;   toolheadOffsets,0,0|0,0|0,0|0,0|0,0|0,0
;   overrideFirmwareConfiguration,1
;   firmwareTypeOverride,RepRap (Marlin/Repetier/Sprinter)
;   GPXconfigOverride,r2
;   baudRateOverride,250000
;   overridePrinterModels,0
;   printerModelsOverride
;   startingGcode,G28 ; home all axes
;   layerChangeGcode,
;   retractionGcode,
;   toolChangeGcode,
;   endingGcode,M104 S0 ; turn off extruder,M140 S0 ; turn off bed,M84 ; disable motors
;   createX3G,0
;   celebration,0
;   celebrationSong,Random Song
;   createMB5G,0
;   postProcessing,
;   defaultSpeed,3000
;   outlineUnderspeed,0.5
;   solidInfillUnderspeed,0.8
;   supportUnderspeed,0.8
;   rapidXYspeed,4800
;   rapidZspeed,1000
;   minBridgingArea,50
;   bridgingExtraInflation,0
;   bridgingExtrusionMultiplier,1
;   bridgingSpeedMultiplier,1
;   filamentDiameter,1.73
;   filamentPricePerKg,46
;   filamentDensity,1.25
;   useMinPrintHeight,0
;   minPrintHeight,0
;   useMaxPrintHeight,0
;   maxPrintHeight,0
;   useDiaphragm,0
;   diaphragmLayerInterval,20
;   robustSlicing,1
;   mergeAllIntoSolid,0
;   onlyRetractWhenCrossingOutline,1
;   retractBetweenLayers,1
;   useRetractionMinTravel,0
;   retractionMinTravel,3
;   retractWhileWiping,0
;   onlyWipeOutlines,1
;   avoidCrossingOutline,0
;   maxMovementDetourFactor,3
;   toolChangeRetractionDistance,12
;   toolChangeExtraRestartDistance,-0.5
;   toolChangeRetractionSpeed,600
;   allowThinWallGapFill,1
;   thinWallAllowedOverlapPercentage,10
;   horizontalSizeCompensation,0
G90
M82
M106 S0
M140 S70
M190 S70
M104 S200 T0
M109 S200 T0
G28 ; home all axes
G92 E0
G1 E-3.0000 F1800
G1 Z0.160 F1000
; layer 1, Z = 0.16
T0
; tool H0.200 W0.400
; skirt
G1 X92.260 Y67.103 F4800
G1 E0.0000 F540
G92 E0
G1 X93.600 Y65.763 E0.0581 F1500
G1 X93.821 Y65.671 E0.0654
G1 X101.816 Y65.671 E0.3103
G1 X102.037 Y65.763 E0.3176
G1 X103.377 Y67.103 E0.3756
G1 X103.468 Y67.324 E0.3830
G1 X103.468 Y103.035 E1.4768
G1 X104.578 Y103.326 E1.5120
G1 X104.594 Y103.330 E1.5124
G1 X104.709 Y103.367 E1.5162
G1 X104.724 Y103.372 E1.5167
G1 X105.827 Y103.790 E1.5528
G1 X105.842 Y103.796 E1.5533
G1 X105.956 Y103.846 E1.5571
G1 X105.970 Y103.853 E1.5576
G1 X107.030 Y104.390 E1.5940
G1 X107.045 Y104.398 E1.5945
G1 X107.152 Y104.460 E1.5983
G1 X107.166 Y104.469 E1.5988
G1 X108.161 Y105.117 E1.6351
G1 X108.175 Y105.126 E1.6356
G1 X108.275 Y105.199 E1.6395
G1 X108.288 Y105.209 E1.6400
G1 X109.203 Y105.958 E1.6762
G1 X109.212 Y105.965 E1.6765
G1 X109.283 Y106.028 E1.6794
G1 X109.292 Y106.036 E1.6798
G1 X109.735 Y106.464 E1.6987
G1 X109.741 Y106.470 E1.6989
G1 X109.785 Y106.514 E1.7008
G1 X109.791 Y106.520 E1.7011
G1 X110.210 Y106.971 E1.7200
G1 X110.218 Y106.981 E1.7203
G1 X110.279 Y107.052 E1.7232
G1 X110.287 Y107.061 E1.7236
G1 X111.018 Y107.989 E1.7598
G1 X111.028 Y108.002 E1.7602
G1 X111.100 Y108.103 E1.7641
G1 X111.109 Y108.117 E1.7646
G1 X111.738 Y109.121 E1.8009
G1 X111.746 Y109.135 E1.8014
G1 X111.805 Y109.243 E1.8051
G1 X111.813 Y109.257 E1.8056
G1 X112.323 Y110.307 E1.8414
G1 X112.330 Y110.322 E1.8419
G1 X112.377 Y110.433 E1.8456
G1 X112.383 Y110.447 E1.8460
G1 X112.773 Y111.523 E1.8811
G1 X112.777 Y111.538 E1.8816
G1 X112.812 Y111.650 E1.8852
G1 X112.816 Y111.665 E1.8856
G1 X113.057 Y112.629 E1.9161
G1 X131.179 Y112.629 E2.4712
G1 X131.400 Y112.720 E2.4785
G1 X132.740 Y114.060 E2.5365
G1 X132.832 Y114.281 E2.5438
G1 X132.832 Y122.676 E2.8010
G1 X132.740 Y122.897 E2.8083
G1 X131.400 Y124.237 E2.8664
G1 X131.179 Y124.329 E2.8737
G1 X53.821 Y124.329 E5.2432
G1 X53.600 Y124.237 E5.2505
G1 X52.260 Y122.897 E5.3086
G1 X52.168 Y122.676 E5.3159
G1 X52.168 Y114.281 E5.5730
G1 X52.260 Y114.060 E5.5804
G1 X53.600 Y112.720 E5.6384
G1 X53.821 Y112.629 E5.6457
G1 X92.168 Y112.629 E6.8203
G1 X92.168 Y67.324 E8.2080
G1 X92.260 Y67.103 E8.2153
G1 X92.599 Y67.330 F4800
G92 E0
G1 X93.827 Y66.102 E0.0532 F1500
G1 X93.900 Y66.071 E0.0556
G1 X101.737 Y66.071 E0.2957
G1 X101.810 Y66.102 E0.2981
G1 X103.038 Y67.330 E0.3513
G1 X103.068 Y67.403 E0.3537
G1 X103.068 Y103.370 E1.4554
G1 X103.254 Y103.399 E1.4611
G1 X103.259 Y103.400 E1.4613
G1 X103.364 Y103.422 E1.4646
G1 X103.369 Y103.423 E1.4648
G1 X104.472 Y103.711 E1.4997
G1 X104.477 Y103.713 E1.4998
G1 X104.583 Y103.747 E1.5032
G1 X104.588 Y103.748 E1.5034
G1 X105.681 Y104.162 E1.5392
G1 X105.686 Y104.164 E1.5394
G1 X105.789 Y104.210 E1.5428
G1 X105.794 Y104.212 E1.5430
G1 X106.845 Y104.745 E1.5791
G1 X106.850 Y104.747 E1.5792
G1 X106.948 Y104.804 E1.5827
G1 X106.952 Y104.807 E1.5829
G1 X107.939 Y105.449 E1.6189
G1 X107.943 Y105.452 E1.6191
G1 X108.035 Y105.519 E1.6226
G1 X108.039 Y105.522 E1.6227
G1 X108.947 Y106.265 E1.6586
G1 X108.950 Y106.267 E1.6588
G1 X109.014 Y106.324 E1.6614
G1 X109.017 Y106.327 E1.6615
G1 X109.456 Y106.750 E1.6802
G1 X109.458 Y106.752 E1.6803
G1 X109.498 Y106.793 E1.6820
G1 X109.500 Y106.795 E1.6821
G1 X109.915 Y107.241 E1.7008
G1 X109.917 Y107.244 E1.7009
G1 X109.973 Y107.309 E1.7035
G1 X109.976 Y107.312 E1.7036
G1 X110.701 Y108.232 E1.7395
G1 X110.704 Y108.236 E1.7397
G1 X110.769 Y108.329 E1.7432
G1 X110.772 Y108.334 E1.7433
G1 X111.396 Y109.329 E1.7793
G1 X111.399 Y109.334 E1.7795
G1 X111.453 Y109.432 E1.7829
G1 X111.455 Y109.437 E1.7831
G1 X111.961 Y110.477 E1.8185
G1 X111.964 Y110.482 E1.8187
G1 X112.007 Y110.584 E1.8221
G1 X112.008 Y110.589 E1.8222
G1 X112.395 Y111.655 E1.8569
G1 X112.396 Y111.659 E1.8571
G1 X112.428 Y111.762 E1.8604
G1 X112.429 Y111.767 E1.8606
G1 X112.698 Y112.841 E1.8945
G1 X112.699 Y112.846 E1.8946
G1 X112.720 Y112.952 E1.8979
G1 X112.720 Y112.957 E1.8981
G1 X112.731 Y113.029 E1.9003
G1 X131.100 Y113.029 E2.4629
G1 X131.173 Y113.059 E2.4654
G1 X132.401 Y114.287 E2.5186
G1 X132.432 Y114.360 E2.5210
G1 X132.432 Y122.597 E2.7733
G1 X132.401 Y122.670 E2.7757
G1 X131.173 Y123.898 E2.8289
G1 X131.100 Y123.929 E2.8314
G1 X53.900 Y123.929 E5.1960
G1 X53.827 Y123.898 E5.1984
G1 X52.599 Y122.670 E5.2516
G1 X52.568 Y122.597 E5.2541
G1 X52.568 Y114.360 E5.5063
G1 X52.599 Y114.287 E5.5088
G1 X53.827 Y113.059 E5.5620
G1 X53.900 Y113.029 E5.5644
G1 X92.568 Y113.029 E6.7488
G1 X92.568 Y67.403 E8.1463
G1 X92.599 Y67.330 E8.1488
G92 E0
G1 E-3.0000 F1800
; outer perimeter
G1 X94.968 Y68.471 F4800
G1 E0.0000 F1800
G92 E0
G1 X100.668 Y68.471 E0.1746 F750
G1 X100.668 Y105.555 E1.3105
G1 X101.357 Y105.573 E1.3316
G1 X101.857 Y105.612 E1.3469
G1 X102.339 Y105.673 E1.3618
G1 X102.824 Y105.761 E1.3769
G1 X103.312 Y105.875 E1.3923
G1 X103.800 Y106.016 E1.4078
G1 X104.287 Y106.185 E1.4236
G1 X104.769 Y106.383 E1.4396
G1 X105.261 Y106.617 E1.4563
G1 X105.699 Y106.854 E1.4715
G1 X106.142 Y107.126 E1.4875
G1 X106.572 Y107.423 E1.5035
G1 X106.988 Y107.744 E1.5195
G1 X107.386 Y108.088 E1.5357
G1 X107.765 Y108.454 E1.5518
G1 X108.124 Y108.840 E1.5680
G1 X108.461 Y109.244 E1.5841
G1 X108.774 Y109.665 E1.6001
G1 X109.063 Y110.099 E1.6161
G1 X109.326 Y110.546 E1.6320
G1 X109.564 Y111.003 E1.6478
G1 X109.775 Y111.468 E1.6634
G1 X109.959 Y111.938 E1.6789
G1 X110.117 Y112.412 E1.6942
G1 X110.248 Y112.887 E1.7093
G1 X110.354 Y113.361 E1.7241
G1 X110.438 Y113.857 E1.7396
G1 X110.496 Y114.353 E1.7548
G1 X110.545 Y115.429 E1.7878
G1 X130.032 Y115.429 E2.3847
G1 X130.032 Y121.529 E2.5715
G1 X54.968 Y121.529 E4.8707
G1 X54.968 Y115.429 E5.0576
G1 X94.968 Y115.429 E6.2828
G1 X94.968 Y68.471 E7.7211
G92 E0
G1 E-3.0000 F1800
; outer perimeter
G1 X63.235 Y116.795 F4800
G1 E0.0000 F1800
G92 E0
G1 X58.156 Y116.795 E0.1556 F750
G1 X58.156 Y120.162 E0.2587
G1 X63.235 Y120.162 E0.4142
G1 X63.235 Y116.795 E0.5174
G92 E0
G1 E-3.0000 F1800
; solid layer
G1 X61.746 Y121.229 F4800
G1 E0.0000 F1800
G92 E0
G1 X62.512 Y120.462 E0.0332 F1200
G1 X61.947 Y120.462 E0.0505
G1 X61.180 Y121.229 E0.0837
G1 X60.615 Y121.229 E0.1010
G1 X61.381 Y120.462 E0.1342
G1 X60.815 Y120.462 E0.1516
G1 X60.049 Y121.229 E0.1848
G1 X59.483 Y121.229 E0.2021
G1 X60.250 Y120.462 E0.2353
G1 X59.684 Y120.462 E0.2526
G1 X58.918 Y121.229 E0.2858
G1 X58.352 Y121.229 E0.3031
G1 X59.118 Y120.462 E0.3363
G1 X58.552 Y120.462 E0.3537
G1 X57.786 Y121.229 E0.3869
G1 X57.220 Y121.229 E0.4042
G1 X57.987 Y120.462 E0.4374
G1 X57.856 Y120.462 E0.4414
G1 X57.856 Y120.027 E0.4547
G1 X56.655 Y121.229 E0.5068
G1 X56.089 Y121.229 E0.5241
G1 X57.856 Y119.461 E0.6006
G1 X57.856 Y118.896 E0.6180
G1 X55.523 Y121.229 E0.7190
G1 X55.268 Y121.229 E0.7268
G1 X55.268 Y120.918 E0.7363
G1 X57.856 Y118.330 E0.8484
G1 X57.856 Y117.764 E0.8658
G1 X55.268 Y120.352 E0.9779
G1 X55.268 Y119.787 E0.9952
G1 X57.856 Y117.199 E1.1073
G1 X57.856 Y116.633 E1.1246
G1 X55.268 Y119.221 E1.2367
G1 X55.367 Y115.729 F4800
G92 E0
G1 X55.268 Y115.827 E0.0043 F1200
G1 X55.268 Y116.392 E0.0216
G1 X55.932 Y115.729 E0.0503
G1 X56.498 Y115.729 E0.0677
G1 X55.268 Y116.958 E0.1209
G1 X55.268 Y117.524 E0.1382
G1 X57.064 Y115.729 E0.2160
G1 X57.629 Y115.729 E0.2333
G1 X55.268 Y118.090 E0.3356
G1 X55.268 Y118.655 E0.3529
G1 X58.195 Y115.729 E0.4797
G1 X58.761 Y115.729 E0.4970
G1 X57.994 Y116.495 E0.5302
G1 X58.560 Y116.495 E0.5476
G1 X59.326 Y115.729 E0.5808
G1 X59.892 Y115.729 E0.5981
G1 X59.126 Y116.495 E0.6313
G1 X59.691 Y116.495 E0.6486
G1 X60.458 Y115.729 E0.6818
G1 X61.023 Y115.729 E0.6991
G1 X60.257 Y116.495 E0.7323
G1 X60.823 Y116.495 E0.7496
G1 X61.589 Y115.729 E0.7828
G1 X62.155 Y115.729 E0.8002
G1 X61.388 Y116.495 E0.8334
G1 X61.954 Y116.495 E0.8507
G1 X62.720 Y115.729 E0.8839
G1 X63.286 Y115.729 E0.9012
G1 X62.520 Y116.495 E0.9344
G1 X63.086 Y116.495 E0.9517
G1 X63.852 Y115.729 E0.9849
G1 X64.418 Y115.729 E1.0023
G1 X63.535 Y116.611 E1.0405
G1 X63.535 Y117.177 E1.0578
G1 X64.983 Y115.729 E1.1206
G1 X65.549 Y115.729 E1.1379
G1 X63.535 Y117.743 E1.2251
G1 X63.535 Y118.308 E1.2425
G1 X66.115 Y115.729 E1.3542
G1 X66.680 Y115.729 E1.3716
G1 X63.535 Y118.874 E1.5078
G1 X63.535 Y119.440 E1.5251
G1 X67.246 Y115.729 E1.6859
G1 X67.812 Y115.729 E1.7032
G1 X63.535 Y120.006 E1.8885
G1 X63.535 Y120.462 E1.9025
G1 X63.078 Y120.462 E1.9165
G1 X62.312 Y121.229 E1.9497
G1 X62.877 Y121.229 E1.9670
G1 X68.377 Y115.729 E2.2052
G1 X68.943 Y115.729 E2.2226
G1 X63.443 Y121.229 E2.4608
G1 X64.009 Y121.229 E2.4781
G1 X69.509 Y115.729 E2.7164
G1 X70.074 Y115.729 E2.7337
G1 X64.574 Y121.229 E2.9720
G1 X65.140 Y121.229 E2.9893
G1 X70.640 Y115.729 E3.2275
G1 X71.206 Y115.729 E3.2449
G1 X65.706 Y121.229 E3.4831
G1 X66.271 Y121.229 E3.5004
G1 X71.771 Y115.729 E3.7387
G1 X72.337 Y115.729 E3.7560
G1 X66.837 Y121.229 E3.9943
G1 X67.403 Y121.229 E4.0116
G1 X72.903 Y115.729 E4.2498
G1 X73.468 Y115.729 E4.2672
G1 X67.968 Y121.229 E4.5054
G1 X68.534 Y121.229 E4.5227
G1 X74.034 Y115.729 E4.7610
G1 X74.600 Y115.729 E4.7783
G1 X69.100 Y121.229 E5.0166
G1 X69.666 Y121.229 E5.0339
G1 X75.166 Y115.729 E5.2721
G1 X75.731 Y115.729 E5.2895
G1 X70.231 Y121.229 E5.5277
G1 X70.797 Y121.229 E5.5450
G1 X76.297 Y115.729 E5.7833
G1 X76.863 Y115.729 E5.8006
G1 X71.363 Y121.229 E6.0389
G1 X71.928 Y121.229 E6.0562
G1 X77.428 Y115.729 E6.2944
G1 X77.994 Y115.729 E6.3118
G1 X72.494 Y121.229 E6.5500
G1 X73.060 Y121.229 E6.5673
G1 X78.560 Y115.729 E6.8056
G1 X79.125 Y115.729 E6.8229
G1 X73.625 Y121.229 E7.0612
G1 X74.191 Y121.229 E7.0785
G1 X79.691 Y115.729 E7.3167
G1 X80.257 Y115.729 E7.3341
G1 X74.757 Y121.229 E7.5723
G1 X75.322 Y121.229 E7.5896
G1 X80.822 Y115.729 E7.8279
G1 X81.388 Y115.729 E7.8452
G1 X75.888 Y121.229 E8.0835
G1 X76.454 Y121.229 E8.1008
G1 X81.954 Y115.729 E8.3390
G1 X82.519 Y115.729 E8.3564
G1 X77.019 Y121.229 E8.5946
G1 X77.585 Y121.229 E8.6119
G1 X83.085 Y115.729 E8.8502
G1 X83.651 Y115.729 E8.8675
G1 X78.151 Y121.229 E9.1058
G1 X78.717 Y121.229 E9.1231
G1 X84.217 Y115.729 E9.3613
G1 X84.782 Y115.729 E9.3787
G1 X79.282 Y121.229 E9.6169
G1 X79.848 Y121.229 E9.6342
G1 X85.348 Y115.729 E9.8725
G1 X85.914 Y115.729 E9.8898
G1 X80.414 Y121.229 E10.1281
G1 X80.979 Y121.229 E10.1454
G1 X86.479 Y115.729 E10.3836
G1 X87.045 Y115.729 E10.4010
G1 X81.545 Y121.229 E10.6392
G1 X82.111 Y121.229 E10.6565
G1 X87.611 Y115.729 E10.8948
G1 X88.176 Y115.729 E10.9121
G1 X82.676 Y121.229 E11.1504
G1 X83.242 Y121.229 E11.1677
G1 X88.742 Y115.729 E11.4059
G1 X89.308 Y115.729 E11.4233
G1 X83.808 Y121.229 E11.6615
G1 X84.373 Y121.229 E11.6788
G1 X89.873 Y115.729 E11.9171
G1 X90.439 Y115.729 E11.9344
G1 X84.939 Y121.229 E12.1726
G1 X85.505 Y121.229 E12.1900
G1 X91.005 Y115.729 E12.4282
G1 X91.570 Y115.729 E12.4456
G1 X86.070 Y121.229 E12.6838
G1 X86.636 Y121.229 E12.7011
G1 X92.136 Y115.729 E12.9394
G1 X92.702 Y115.729 E12.9567
G1 X87.202 Y121.229 E13.1949
G1 X87.767 Y121.229 E13.2123
G1 X93.267 Y115.729 E13.4505
G1 X93.833 Y115.729 E13.4678
