; G-Code generated by Simplify3D(R) Version 3.0.2
; 11月 14, 2017 at 6:52:28 下午
; Settings Summary
;   processName,Process1
;   applyToModels,电源固定件1
;   profileName,I3
;   profileVersion,2017-07-16 15:44:41
;   baseProfile,Default
;   printMaterial,PLA
;   printQuality,Medium
;   printExtruders,
;   extruderName,Extruder 1,Primary Extruder
;   extruderToolheadNumber,0,0
;   extruderDiameter,0.4,0.4
;   extruderAutoWidth,0,0
;   extruderWidth,0.4,0.4
;   extrusionMultiplier,0.9,0.9
;   extruderUseRetract,1,1
;   extruderRetractionDistance,3,3
;   extruderExtraRestartDistance,0,0
;   extruderRetractionZLift,0,0
;   extruderRetractionSpeed,1800,1800
;   extruderUseCoasting,0,0
;   extruderCoastingDistance,0.2,0.2
;   extruderUseWipe,0,0
;   extruderWipeDistance,5,5
;   primaryExtruder,0
;   layerHeight,0.2
;   topSolidLayers,3
;   bottomSolidLayers,3
;   perimeterOutlines,1
;   printPerimetersInsideOut,1
;   startPointOption,2
;   startPointOriginX,0
;   startPointOriginY,0
;   startPointOriginZ,300
;   sequentialIslands,0
;   spiralVaseMode,0
;   firstLayerHeightPercentage,80
;   firstLayerWidthPercentage,100
;   firstLayerUnderspeed,0.5
;   useRaft,0
;   raftExtruder,0
;   raftLayers,3
;   raftOffset,3
;   raftSeparationDistance,0.14
;   raftInfill,85
;   disableRaftBaseLayers,0
;   useSkirt,1
;   skirtExtruder,0
;   skirtLayers,1
;   skirtOutlines,2
;   skirtOffset,2
;   usePrimePillar,0
;   primePillarExtruder,999
;   primePillarWidth,12
;   primePillarLocation,7
;   primePillarSpeedMultiplier,1
;   useOozeShield,0
;   oozeShieldExtruder,999
;   oozeShieldOffset,2
;   oozeShieldOutlines,1
;   oozeShieldSidewallShape,1
;   oozeShieldSidewallAngle,30
;   oozeShieldSpeedMultiplier,1
;   infillExtruder,0
;   internalInfillPattern,Rectilinear
;   externalInfillPattern,Rectilinear
;   infillPercentage,90
;   outlineOverlapPercentage,25
;   infillExtrusionWidthPercentage,125
;   minInfillLength,5
;   infillLayerInterval,1
;   infillAngles,45,-45
;   overlapInfillAngles,0
;   generateSupport,1
;   supportExtruder,0
;   supportInfillPercentage,30
;   supportExtraInflation,0
;   denseSupportLayers,0
;   denseSupportInfillPercentage,70
;   supportLayerInterval,1
;   supportHorizontalPartOffset,0.3
;   supportUpperSeparationLayers,1
;   supportLowerSeparationLayers,1
;   supportType,0
;   supportGridSpacing,4
;   maxOverhangAngle,45
;   supportAngles,0
;   temperatureName,Extruder 1 Temperature,Heated Bed
;   temperatureNumber,0,0
;   temperatureSetpointCount,1,1
;   temperatureSetpointLayers,1,1
;   temperatureSetpointTemperatures,200,70
;   temperatureStabilizeAtStartup,1,1
;   temperatureHeatedBed,0,1
;   temperatureRelayBetweenLayers,0,0
;   temperatureRelayBetweenLoops,0,0
;   fanLayers,1,2
;   fanSpeeds,0,100
;   blipFanToFullPower,0
;   adjustSpeedForCooling,1
;   minSpeedLayerTime,15
;   minCoolingSpeedSlowdown,20
;   increaseFanForCooling,0
;   minFanLayerTime,45
;   maxCoolingFanSpeed,100
;   increaseFanForBridging,0
;   bridgingFanSpeed,100
;   use5D,1
;   relativeEdistances,0
;   allowEaxisZeroing,1
;   independentExtruderAxes,0
;   includeM10123,0
;   stickySupport,1
;   applyToolheadOffsets,0
;   gcodeXoffset,0
;   gcodeYoffset,0
;   gcodeZoffset,0
;   overrideMachineDefinition,1
;   machineTypeOverride,0
;   strokeXoverride,185
;   strokeYoverride,190
;   strokeZoverride,300
;   originOffsetXoverride,0
;   originOffsetYoverride,0
;   originOffsetZoverride,0
;   homeXdirOverride,-1
;   homeYdirOverride,-1
;   homeZdirOverride,-1
;   flipXoverride,1
;   flipYoverride,-1
;   flipZoverride,1
;   toolheadOffsets,0,0|0,0|0,0|0,0|0,0|0,0
;   overrideFirmwareConfiguration,1
;   firmwareTypeOverride,RepRap (Marlin/Repetier/Sprinter)
;   GPXconfigOverride,r2
;   baudRateOverride,250000
;   overridePrinterModels,0
;   printerModelsOverride
;   startingGcode,G28 ; home all axes
;   layerChangeGcode,
;   retractionGcode,
;   toolChangeGcode,
;   endingGcode,M104 S0 ; turn off extruder,M140 S0 ; turn off bed,M84 ; disable motors
;   createX3G,0
;   celebration,0
;   celebrationSong,Random Song
;   createMB5G,0
;   postProcessing,
;   defaultSpeed,3000
;   outlineUnderspeed,0.5
;   solidInfillUnderspeed,0.8
;   supportUnderspeed,0.8
;   rapidXYspeed,4800
;   rapidZspeed,1000
;   minBridgingArea,50
;   bridgingExtraInflation,0
;   bridgingExtrusionMultiplier,1
;   bridgingSpeedMultiplier,1
;   filamentDiameter,1.73
;   filamentPricePerKg,46
;   filamentDensity,1.25
;   useMinPrintHeight,0
;   minPrintHeight,0
;   useMaxPrintHeight,0
;   maxPrintHeight,0
;   useDiaphragm,0
;   diaphragmLayerInterval,20
;   robustSlicing,1
;   mergeAllIntoSolid,0
;   onlyRetractWhenCrossingOutline,1
;   retractBetweenLayers,1
;   useRetractionMinTravel,0
;   retractionMinTravel,3
;   retractWhileWiping,0
;   onlyWipeOutlines,1
;   avoidCrossingOutline,0
;   maxMovementDetourFactor,3
;   toolChangeRetractionDistance,12
;   toolChangeExtraRestartDistance,-0.5
;   toolChangeRetractionSpeed,600
;   allowThinWallGapFill,1
;   thinWallAllowedOverlapPercentage,10
;   horizontalSizeCompensation,0
G90
M82
M106 S0
M140 S70
M190 S70
M104 S200 T0
M109 S200 T0
G28 ; home all axes
G92 E0
G1 E-3.0000 F1800
G1 Z0.160 F1000
; layer 1, Z = 0.16
T0
; tool H0.200 W0.400
; skirt
G1 X73.832 Y91.991 F4800
G1 E0.0000 F540
G92 E0
G1 X74.052 Y91.900 E0.0073 F1500
G1 X102.400 Y91.900 E0.8756
G1 X102.400 Y76.552 E1.3457
G1 X102.491 Y76.332 E1.3530
G1 X103.832 Y74.991 E1.4111
G1 X104.052 Y74.900 E1.4184
G1 X110.948 Y74.900 E1.6296
G1 X111.168 Y74.991 E1.6369
G1 X112.509 Y76.332 E1.6950
G1 X112.600 Y76.552 E1.7023
G1 X112.600 Y100.448 E2.4342
G1 X112.509 Y100.668 E2.4415
G1 X111.168 Y102.009 E2.4996
G1 X110.948 Y102.100 E2.5069
G1 X82.600 Y102.100 E3.3752
G1 X82.600 Y113.448 E3.7228
G1 X82.509 Y113.668 E3.7301
G1 X81.168 Y115.009 E3.7882
G1 X80.948 Y115.100 E3.7955
G1 X74.052 Y115.100 E4.0067
G1 X73.832 Y115.009 E4.0140
G1 X72.491 Y113.668 E4.0721
G1 X72.400 Y113.448 E4.0794
G1 X72.400 Y93.552 E4.6888
G1 X72.491 Y93.332 E4.6961
G1 X73.832 Y91.991 E4.7541
G1 X74.058 Y92.330 F4800
G92 E0
G1 X74.132 Y92.300 E0.0024 F1500
G1 X102.800 Y92.300 E0.8806
G1 X102.800 Y76.632 E1.3605
G1 X102.830 Y76.558 E1.3629
G1 X104.058 Y75.330 E1.4161
G1 X104.132 Y75.300 E1.4185
G1 X110.868 Y75.300 E1.6249
G1 X110.942 Y75.330 E1.6273
G1 X112.170 Y76.558 E1.6805
G1 X112.200 Y76.632 E1.6829
G1 X112.200 Y100.368 E2.4100
G1 X112.170 Y100.442 E2.4124
G1 X110.942 Y101.670 E2.4656
G1 X110.868 Y101.700 E2.4680
G1 X82.200 Y101.700 E3.3462
G1 X82.200 Y113.368 E3.7036
G1 X82.170 Y113.442 E3.7060
G1 X80.942 Y114.670 E3.7592
G1 X80.868 Y114.700 E3.7616
G1 X74.132 Y114.700 E3.9680
G1 X74.058 Y114.670 E3.9704
G1 X72.830 Y113.442 E4.0236
G1 X72.800 Y113.368 E4.0260
G1 X72.800 Y93.632 E4.6306
G1 X72.830 Y93.558 E4.6330
G1 X74.058 Y92.330 E4.6862
G92 E0
G1 E-3.0000 F1800
; outer perimeter
G1 X75.200 Y94.700 F4800
G1 E0.0000 F1800
G92 E0
G1 X105.200 Y94.700 E0.9189 F750
G1 X105.200 Y77.700 E1.4396
G1 X109.800 Y77.700 E1.5805
G1 X109.800 Y99.300 E2.2421
G1 X79.800 Y99.300 E3.1610
G1 X79.800 Y112.300 E3.5592
G1 X75.200 Y112.300 E3.7001
G1 X75.200 Y94.700 E4.2392
; solid layer
G1 X75.500 Y95.029 F4800
G92 E0
G1 X75.529 Y95.000 E0.0013 F1200
G1 X76.095 Y95.000 E0.0186
G1 X75.500 Y95.595 E0.0444
G1 X75.500 Y96.161 E0.0617
G1 X76.661 Y95.000 E0.1120
G1 X77.227 Y95.000 E0.1293
G1 X75.500 Y96.727 E0.2041
G1 X75.500 Y97.292 E0.2214
G1 X77.792 Y95.000 E0.3207
G1 X78.358 Y95.000 E0.3381
G1 X75.500 Y97.858 E0.4619
G1 X75.500 Y98.424 E0.4792
G1 X78.924 Y95.000 E0.6275
G1 X79.489 Y95.000 E0.6448
G1 X75.500 Y98.989 E0.8176
G1 X75.500 Y99.555 E0.8349
G1 X80.055 Y95.000 E1.0323
G1 X80.621 Y95.000 E1.0496
G1 X75.500 Y100.121 E1.2714
G1 X75.500 Y100.686 E1.2887
G1 X81.186 Y95.000 E1.5350
G1 X81.752 Y95.000 E1.5524
G1 X75.500 Y101.252 E1.8232
G1 X75.500 Y101.818 E1.8405
G1 X82.318 Y95.000 E2.1358
G1 X82.883 Y95.000 E2.1532
G1 X75.500 Y102.383 E2.4730
G1 X75.500 Y102.949 E2.4903
G1 X83.449 Y95.000 E2.8347
G1 X84.015 Y95.000 E2.8520
G1 X80.015 Y99.000 E3.0253
G1 X79.500 Y99.000 E3.0410
G1 X79.500 Y99.515 E3.0568
G1 X75.500 Y103.515 E3.2301
G1 X75.500 Y104.080 E3.2474
G1 X79.500 Y100.080 E3.4207
G1 X79.500 Y100.646 E3.4380
G1 X75.500 Y104.646 E3.6113
G1 X75.500 Y105.212 E3.6286
G1 X79.500 Y101.212 E3.8019
G1 X79.500 Y101.777 E3.8192
G1 X75.500 Y105.777 E3.9925
G1 X75.500 Y106.343 E4.0098
G1 X79.500 Y102.343 E4.1831
G1 X79.500 Y102.909 E4.2004
G1 X75.500 Y106.909 E4.3737
G1 X75.500 Y107.475 E4.3910
G1 X79.500 Y103.475 E4.5643
G1 X79.500 Y104.040 E4.5816
G1 X75.500 Y108.040 E4.7549
G1 X75.500 Y108.606 E4.7722
G1 X79.500 Y104.606 E4.9454
G1 X79.500 Y105.172 E4.9628
G1 X75.500 Y109.172 E5.1360
G1 X75.500 Y109.737 E5.1534
G1 X79.500 Y105.737 E5.3266
G1 X79.500 Y106.303 E5.3440
G1 X75.500 Y110.303 E5.5172
G1 X75.500 Y110.869 E5.5346
G1 X79.500 Y106.869 E5.7078
G1 X79.500 Y107.434 E5.7252
G1 X75.500 Y111.434 E5.8984
G1 X75.500 Y112.000 E5.9158
G1 X75.500 Y112.000 E5.9158
G1 X79.500 Y108.000 E6.0890
G1 X79.500 Y108.566 E6.1064
G1 X76.066 Y112.000 E6.2551
G1 X76.631 Y112.000 E6.2725
G1 X79.500 Y109.131 E6.3967
G1 X79.500 Y109.697 E6.4140
G1 X77.197 Y112.000 E6.5138
G1 X77.763 Y112.000 E6.5311
G1 X79.500 Y110.263 E6.6064
G1 X79.500 Y110.828 E6.6237
G1 X78.328 Y112.000 E6.6745
G1 X78.894 Y112.000 E6.6918
G1 X79.500 Y111.394 E6.7180
G1 X79.500 Y111.960 E6.7354
G1 X79.460 Y112.000 E6.7371
G92 E0
G1 E-3.0000 F1800
G1 X80.580 Y99.000 F4800
G1 E0.0000 F1800
G92 E0
G1 X84.580 Y95.000 E0.1733 F1200
G1 X85.146 Y95.000 E0.1906
G1 X81.146 Y99.000 E0.3639
G1 X81.712 Y99.000 E0.3812
G1 X85.712 Y95.000 E0.5545
G1 X86.277 Y95.000 E0.5718
G1 X82.277 Y99.000 E0.7451
G1 X82.843 Y99.000 E0.7624
G1 X86.843 Y95.000 E0.9357
G1 X87.409 Y95.000 E0.9530
G1 X83.409 Y99.000 E1.1263
G1 X83.975 Y99.000 E1.1436
G1 X87.975 Y95.000 E1.3169
G1 X88.540 Y95.000 E1.3342
G1 X84.540 Y99.000 E1.5075
G1 X85.106 Y99.000 E1.5248
G1 X89.106 Y95.000 E1.6981
G1 X89.672 Y95.000 E1.7154
G1 X85.672 Y99.000 E1.8887
G1 X86.237 Y99.000 E1.9060
G1 X90.237 Y95.000 E2.0792
G1 X90.803 Y95.000 E2.0966
G1 X86.803 Y99.000 E2.2698
G1 X87.369 Y99.000 E2.2872
G1 X91.369 Y95.000 E2.4604
G1 X91.934 Y95.000 E2.4778
G1 X87.934 Y99.000 E2.6510
G1 X88.500 Y99.000 E2.6684
G1 X92.500 Y95.000 E2.8416
G1 X93.066 Y95.000 E2.8590
G1 X89.066 Y99.000 E3.0322
G1 X89.631 Y99.000 E3.0496
G1 X93.631 Y95.000 E3.2228
G1 X94.197 Y95.000 E3.2402
G1 X90.197 Y99.000 E3.4134
G1 X90.763 Y99.000 E3.4308
G1 X94.763 Y95.000 E3.6040
G1 X95.328 Y95.000 E3.6214
G1 X91.328 Y99.000 E3.7946
G1 X91.894 Y99.000 E3.8120
G1 X95.894 Y95.000 E3.9852
G1 X96.460 Y95.000 E4.0026
G1 X92.460 Y99.000 E4.1758
G1 X93.026 Y99.000 E4.1932
G1 X97.026 Y95.000 E4.3664
G1 X97.591 Y95.000 E4.3838
G1 X93.591 Y99.000 E4.5570
G1 X94.157 Y99.000 E4.5743
G1 X98.157 Y95.000 E4.7476
G1 X98.723 Y95.000 E4.7649
G1 X94.723 Y99.000 E4.9382
G1 X95.288 Y99.000 E4.9555
G1 X99.288 Y95.000 E5.1288
G1 X99.854 Y95.000 E5.1461
G1 X95.854 Y99.000 E5.3194
G1 X96.420 Y99.000 E5.3367
G1 X100.420 Y95.000 E5.5100
G1 X100.985 Y95.000 E5.5273
G1 X96.985 Y99.000 E5.7006
G1 X97.551 Y99.000 E5.7179
G1 X101.551 Y95.000 E5.8912
G1 X102.117 Y95.000 E5.9085
G1 X98.117 Y99.000 E6.0818
G1 X98.682 Y99.000 E6.0991
G1 X102.682 Y95.000 E6.2724
G1 X103.248 Y95.000 E6.2897
G1 X99.248 Y99.000 E6.4630
G1 X99.814 Y99.000 E6.4803
G1 X103.814 Y95.000 E6.6536
G1 X104.379 Y95.000 E6.6709
G1 X100.379 Y99.000 E6.8442
G1 X100.945 Y99.000 E6.8615
G1 X104.945 Y95.000 E7.0348
G1 X105.500 Y95.000 E7.0518
G1 X105.500 Y94.445 E7.0688
G1 X109.500 Y90.445 E7.2421
G1 X109.500 Y91.011 E7.2594
G1 X101.511 Y99.000 E7.6055
G1 X102.076 Y99.000 E7.6228
G1 X109.500 Y91.576 E7.9444
G1 X109.500 Y92.142 E7.9617
G1 X102.642 Y99.000 E8.2587
G1 X103.208 Y99.000 E8.2761
G1 X109.500 Y92.708 E8.5486
G1 X109.500 Y93.274 E8.5660
G1 X103.774 Y99.000 E8.8140
G1 X104.339 Y99.000 E8.8313
G1 X109.500 Y93.839 E9.0549
G1 X109.500 Y94.405 E9.0722
G1 X104.905 Y99.000 E9.2713
G1 X105.471 Y99.000 E9.2886
G1 X109.500 Y94.971 E9.4631
G1 X109.500 Y95.536 E9.4805
G1 X106.036 Y99.000 E9.6305
G1 X106.602 Y99.000 E9.6478
G1 X109.500 Y96.102 E9.7734
G1 X109.500 Y96.668 E9.7907
G1 X107.168 Y99.000 E9.8917
G1 X107.733 Y99.000 E9.9091
G1 X109.500 Y97.233 E9.9856
G1 X109.500 Y97.799 E10.0029
G1 X108.299 Y99.000 E10.0549
G1 X108.865 Y99.000 E10.0723
G1 X109.500 Y98.365 E10.0998
G1 X109.500 Y98.930 E10.1171
G1 X109.430 Y99.000 E10.1201
G1 X109.500 Y89.879 F4800
G92 E0
G1 X105.500 Y93.879 E0.1733 F1200
G1 X105.500 Y93.314 E0.1906
G1 X109.500 Y89.314 E0.3639
G1 X109.500 Y88.748 E0.3812
G1 X105.500 Y92.748 E0.5545
G1 X105.500 Y92.182 E0.5718
G1 X109.500 Y88.182 E0.7451
G1 X109.500 Y87.617 E0.7624
G1 X105.500 Y91.617 E0.9357
G1 X105.500 Y91.051 E0.9530
G1 X109.500 Y87.051 E1.1263
G1 X109.500 Y86.485 E1.1436
G1 X105.500 Y90.485 E1.3169
G1 X105.500 Y89.920 E1.3342
G1 X109.500 Y85.920 E1.5075
G1 X109.500 Y85.354 E1.5248
G1 X105.500 Y89.354 E1.6981
G1 X105.500 Y88.788 E1.7154
G1 X109.500 Y84.788 E1.8887
G1 X109.500 Y84.223 E1.9060
G1 X105.500 Y88.223 E2.0792
G1 X105.500 Y87.657 E2.0966
G1 X109.500 Y83.657 E2.2698
G1 X109.500 Y83.091 E2.2872
G1 X105.500 Y87.091 E2.4604
G1 X105.500 Y86.526 E2.4778
G1 X109.500 Y82.526 E2.6510
G1 X109.500 Y81.960 E2.6684
G1 X105.500 Y85.960 E2.8416
G1 X105.500 Y85.394 E2.8590
G1 X109.500 Y81.394 E3.0322
G1 X109.500 Y80.828 E3.0496
G1 X105.500 Y84.828 E3.2228
G1 X105.500 Y84.263 E3.2402
G1 X109.500 Y80.263 E3.4134
G1 X109.500 Y79.697 E3.4308
G1 X105.500 Y83.697 E3.6040
G1 X105.500 Y83.131 E3.6214
G1 X109.500 Y79.131 E3.7946
G1 X109.500 Y78.566 E3.8120
G1 X105.500 Y82.566 E3.9852
G1 X105.500 Y82.000 E4.0026
G1 X109.500 Y78.000 E4.1758
G1 X109.500 Y78.000 E4.1758
G1 X108.934 Y78.000 E4.1932
G1 X105.500 Y81.434 E4.3419
G1 X105.500 Y80.869 E4.3592
G1 X108.369 Y78.000 E4.4835
G1 X107.803 Y78.000 E4.5008
G1 X105.500 Y80.303 E4.6006
G1 X105.500 Y79.737 E4.6179
G1 X107.237 Y78.000 E4.6932
G1 X106.672 Y78.000 E4.7105
G1 X105.500 Y79.172 E4.7613
G1 X105.500 Y78.606 E4.7786
G1 X106.106 Y78.000 E4.8048
G1 X105.540 Y78.000 E4.8222
G1 X105.500 Y78.040 E4.8239
G92 E0
G1 E-3.0000 F1800
; layer 2, Z = 0.36
M106 S255
; outer perimeter
G1 X105.200 Y77.700 F4800
G1 Z0.360 F1000
G1 E0.0000 F1800
G92 E0
G1 X109.800 Y77.700 E0.1409 F1500
G1 X109.800 Y99.300 E0.8025
G1 X79.800 Y99.300 E1.7214
G1 X79.800 Y112.300 E2.1196
G1 X75.200 Y112.300 E2.2605
G1 X75.200 Y94.700 E2.7996
G1 X105.200 Y94.700 E3.7185
G1 X105.200 Y77.700 E4.2392
; solid layer
G1 X109.441 Y78.000 F4800
G92 E0
G1 X109.500 Y78.059 E0.0025 F2400
G1 X109.500 Y78.625 E0.0199
G1 X108.875 Y78.000 E0.0469
G1 X108.310 Y78.000 E0.0643
G1 X109.500 Y79.190 E0.1158
G1 X109.500 Y79.756 E0.1331
G1 X107.744 Y78.000 E0.2092
G1 X107.178 Y78.000 E0.2265
G1 X109.500 Y80.322 E0.3271
G1 X109.500 Y80.887 E0.3444
G1 X106.613 Y78.000 E0.4695
G1 X106.047 Y78.000 E0.4868
G1 X109.500 Y81.453 E0.6364
G1 X109.500 Y82.019 E0.6537
G1 X105.500 Y78.019 E0.8270
G1 X105.500 Y78.584 E0.8443
G1 X109.500 Y82.584 E1.0176
G1 X109.500 Y83.150 E1.0349
G1 X105.500 Y79.150 E1.2082
G1 X105.500 Y79.716 E1.2255
G1 X109.500 Y83.716 E1.3988
G1 X109.500 Y84.281 E1.4161
G1 X105.500 Y80.281 E1.5894
G1 X105.500 Y80.847 E1.6067
G1 X109.500 Y84.847 E1.7800
G1 X109.500 Y85.413 E1.7973
G1 X105.500 Y81.413 E1.9706
G1 X105.500 Y81.978 E1.9879
G1 X109.500 Y85.978 E2.1612
G1 X109.500 Y86.544 E2.1785
G1 X105.500 Y82.544 E2.3518
G1 X105.500 Y83.110 E2.3691
G1 X109.500 Y87.110 E2.5424
G1 X109.500 Y87.676 E2.5597
G1 X105.500 Y83.676 E2.7330
G1 X105.500 Y84.241 E2.7503
G1 X109.500 Y88.241 E2.9236
G1 X109.500 Y88.807 E2.9409
G1 X105.500 Y84.807 E3.1142
G1 X105.500 Y85.373 E3.1315
G1 X109.500 Y89.373 E3.3048
G1 X109.500 Y89.938 E3.3221
G1 X105.500 Y85.938 E3.4954
G1 X105.500 Y86.504 E3.5127
G1 X109.500 Y90.504 E3.6860
G1 X109.500 Y91.070 E3.7033
G1 X105.500 Y87.070 E3.8766
G1 X105.500 Y87.635 E3.8939
G1 X109.500 Y91.635 E4.0672
G1 X109.500 Y92.201 E4.0845
G1 X105.500 Y88.201 E4.2578
G1 X105.500 Y88.767 E4.2751
G1 X109.500 Y92.767 E4.4484
G1 X109.500 Y93.332 E4.4657
G1 X105.500 Y89.332 E4.6390
G1 X105.500 Y89.898 E4.6563
G1 X109.500 Y93.898 E4.8296
