; G-Code generated by Simplify3D(R) Version 3.0.2
; 11月 14, 2017 at 6:53:38 下午
; Settings Summary
;   processName,Process1
;   applyToModels,电源固定件3
;   profileName,I3
;   profileVersion,2017-07-16 15:44:41
;   baseProfile,Default
;   printMaterial,PLA
;   printQuality,Medium
;   printExtruders,
;   extruderName,Extruder 1,Primary Extruder
;   extruderToolheadNumber,0,0
;   extruderDiameter,0.4,0.4
;   extruderAutoWidth,0,0
;   extruderWidth,0.4,0.4
;   extrusionMultiplier,0.9,0.9
;   extruderUseRetract,1,1
;   extruderRetractionDistance,3,3
;   extruderExtraRestartDistance,0,0
;   extruderRetractionZLift,0,0
;   extruderRetractionSpeed,1800,1800
;   extruderUseCoasting,0,0
;   extruderCoastingDistance,0.2,0.2
;   extruderUseWipe,0,0
;   extruderWipeDistance,5,5
;   primaryExtruder,0
;   layerHeight,0.2
;   topSolidLayers,3
;   bottomSolidLayers,3
;   perimeterOutlines,1
;   printPerimetersInsideOut,1
;   startPointOption,2
;   startPointOriginX,0
;   startPointOriginY,0
;   startPointOriginZ,300
;   sequentialIslands,0
;   spiralVaseMode,0
;   firstLayerHeightPercentage,80
;   firstLayerWidthPercentage,100
;   firstLayerUnderspeed,0.5
;   useRaft,0
;   raftExtruder,0
;   raftLayers,3
;   raftOffset,3
;   raftSeparationDistance,0.14
;   raftInfill,85
;   disableRaftBaseLayers,0
;   useSkirt,1
;   skirtExtruder,0
;   skirtLayers,1
;   skirtOutlines,2
;   skirtOffset,2
;   usePrimePillar,0
;   primePillarExtruder,999
;   primePillarWidth,12
;   primePillarLocation,7
;   primePillarSpeedMultiplier,1
;   useOozeShield,0
;   oozeShieldExtruder,999
;   oozeShieldOffset,2
;   oozeShieldOutlines,1
;   oozeShieldSidewallShape,1
;   oozeShieldSidewallAngle,30
;   oozeShieldSpeedMultiplier,1
;   infillExtruder,0
;   internalInfillPattern,Rectilinear
;   externalInfillPattern,Rectilinear
;   infillPercentage,90
;   outlineOverlapPercentage,25
;   infillExtrusionWidthPercentage,125
;   minInfillLength,5
;   infillLayerInterval,1
;   infillAngles,45,-45
;   overlapInfillAngles,0
;   generateSupport,1
;   supportExtruder,0
;   supportInfillPercentage,30
;   supportExtraInflation,0
;   denseSupportLayers,0
;   denseSupportInfillPercentage,70
;   supportLayerInterval,1
;   supportHorizontalPartOffset,0.3
;   supportUpperSeparationLayers,1
;   supportLowerSeparationLayers,1
;   supportType,0
;   supportGridSpacing,4
;   maxOverhangAngle,45
;   supportAngles,0
;   temperatureName,Extruder 1 Temperature,Heated Bed
;   temperatureNumber,0,0
;   temperatureSetpointCount,1,1
;   temperatureSetpointLayers,1,1
;   temperatureSetpointTemperatures,200,70
;   temperatureStabilizeAtStartup,1,1
;   temperatureHeatedBed,0,1
;   temperatureRelayBetweenLayers,0,0
;   temperatureRelayBetweenLoops,0,0
;   fanLayers,1,2
;   fanSpeeds,0,100
;   blipFanToFullPower,0
;   adjustSpeedForCooling,1
;   minSpeedLayerTime,15
;   minCoolingSpeedSlowdown,20
;   increaseFanForCooling,0
;   minFanLayerTime,45
;   maxCoolingFanSpeed,100
;   increaseFanForBridging,0
;   bridgingFanSpeed,100
;   use5D,1
;   relativeEdistances,0
;   allowEaxisZeroing,1
;   independentExtruderAxes,0
;   includeM10123,0
;   stickySupport,1
;   applyToolheadOffsets,0
;   gcodeXoffset,0
;   gcodeYoffset,0
;   gcodeZoffset,0
;   overrideMachineDefinition,1
;   machineTypeOverride,0
;   strokeXoverride,185
;   strokeYoverride,190
;   strokeZoverride,300
;   originOffsetXoverride,0
;   originOffsetYoverride,0
;   originOffsetZoverride,0
;   homeXdirOverride,-1
;   homeYdirOverride,-1
;   homeZdirOverride,-1
;   flipXoverride,1
;   flipYoverride,-1
;   flipZoverride,1
;   toolheadOffsets,0,0|0,0|0,0|0,0|0,0|0,0
;   overrideFirmwareConfiguration,1
;   firmwareTypeOverride,RepRap (Marlin/Repetier/Sprinter)
;   GPXconfigOverride,r2
;   baudRateOverride,250000
;   overridePrinterModels,0
;   printerModelsOverride
;   startingGcode,G28 ; home all axes
;   layerChangeGcode,
;   retractionGcode,
;   toolChangeGcode,
;   endingGcode,M104 S0 ; turn off extruder,M140 S0 ; turn off bed,M84 ; disable motors
;   createX3G,0
;   celebration,0
;   celebrationSong,Random Song
;   createMB5G,0
;   postProcessing,
;   defaultSpeed,3000
;   outlineUnderspeed,0.5
;   solidInfillUnderspeed,0.8
;   supportUnderspeed,0.8
;   rapidXYspeed,4800
;   rapidZspeed,1000
;   minBridgingArea,50
;   bridgingExtraInflation,0
;   bridgingExtrusionMultiplier,1
;   bridgingSpeedMultiplier,1
;   filamentDiameter,1.73
;   filamentPricePerKg,46
;   filamentDensity,1.25
;   useMinPrintHeight,0
;   minPrintHeight,0
;   useMaxPrintHeight,0
;   maxPrintHeight,0
;   useDiaphragm,0
;   diaphragmLayerInterval,20
;   robustSlicing,1
;   mergeAllIntoSolid,0
;   onlyRetractWhenCrossingOutline,1
;   retractBetweenLayers,1
;   useRetractionMinTravel,0
;   retractionMinTravel,3
;   retractWhileWiping,0
;   onlyWipeOutlines,1
;   avoidCrossingOutline,0
;   maxMovementDetourFactor,3
;   toolChangeRetractionDistance,12
;   toolChangeExtraRestartDistance,-0.5
;   toolChangeRetractionSpeed,600
;   allowThinWallGapFill,1
;   thinWallAllowedOverlapPercentage,10
;   horizontalSizeCompensation,0
G90
M82
M106 S0
M140 S70
M190 S70
M104 S200 T0
M109 S200 T0
G28 ; home all axes
G92 E0
G1 E-3.0000 F1800
G1 Z0.160 F1000
; layer 1, Z = 0.16
T0
; tool H0.200 W0.400
; skirt
G1 X81.332 Y82.491 F4800
G1 E0.0000 F540
G92 E0
G1 X81.552 Y82.400 E0.0073 F1500
G1 X103.448 Y82.400 E0.6780
G1 X103.668 Y82.491 E0.6853
G1 X105.009 Y83.832 E0.7433
G1 X105.100 Y84.052 E0.7507
G1 X105.100 Y105.948 E1.4213
G1 X105.009 Y106.168 E1.4286
G1 X103.668 Y107.509 E1.4867
G1 X103.448 Y107.600 E1.4940
G1 X81.552 Y107.600 E2.1647
G1 X81.332 Y107.509 E2.1720
G1 X79.991 Y106.168 E2.2300
G1 X79.900 Y105.948 E2.2374
G1 X79.900 Y84.052 E2.9080
G1 X79.991 Y83.832 E2.9153
G1 X81.332 Y82.491 E2.9734
G1 X81.558 Y82.830 F4800
G92 E0
G1 X81.632 Y82.800 E0.0024 F1500
G1 X103.368 Y82.800 E0.6682
G1 X103.442 Y82.830 E0.6707
G1 X104.670 Y84.058 E0.7239
G1 X104.700 Y84.132 E0.7263
G1 X104.700 Y105.868 E1.3921
G1 X104.670 Y105.942 E1.3945
G1 X103.442 Y107.170 E1.4477
G1 X103.368 Y107.200 E1.4501
G1 X81.632 Y107.200 E2.1159
G1 X81.558 Y107.170 E2.1184
G1 X80.330 Y105.942 E2.1716
G1 X80.300 Y105.868 E2.1740
G1 X80.300 Y84.132 E2.8398
G1 X80.330 Y84.058 E2.8422
G1 X81.558 Y82.830 E2.8954
G92 E0
G1 E-3.0000 F1800
; outer perimeter
G1 X82.700 Y85.200 F4800
G1 E0.0000 F1800
G92 E0
G1 X102.300 Y85.200 E0.6004 F750
G1 X102.300 Y104.800 E1.2007
G1 X82.700 Y104.800 E1.8011
G1 X82.700 Y85.200 E2.4014
; outer perimeter
G1 X87.848 Y92.616 F4800
G92 E0
G1 X87.611 Y92.799 E0.0092 F750
G1 X87.395 Y93.005 E0.0183
G1 X87.204 Y93.229 E0.0273
G1 X87.038 Y93.467 E0.0362
G1 X86.900 Y93.715 E0.0449
G1 X86.789 Y93.969 E0.0534
G1 X86.705 Y94.227 E0.0617
G1 X86.647 Y94.479 E0.0696
G1 X86.611 Y94.740 E0.0777
G1 X86.600 Y95.010 E0.0860
G1 X86.614 Y95.288 E0.0945
G1 X86.656 Y95.571 E0.1032
G1 X86.728 Y95.853 E0.1122
G1 X86.829 Y96.130 E0.1212
G1 X86.959 Y96.398 E0.1303
G1 X87.116 Y96.652 E0.1395
G1 X87.299 Y96.889 E0.1487
G1 X87.505 Y97.105 E0.1578
G1 X87.729 Y97.296 E0.1668
G1 X87.967 Y97.462 E0.1757
G1 X88.215 Y97.600 E0.1844
G1 X88.469 Y97.711 E0.1929
G1 X88.727 Y97.795 E0.2012
G1 X88.979 Y97.853 E0.2091
G1 X89.240 Y97.889 E0.2172
G1 X89.510 Y97.900 E0.2255
G1 X89.788 Y97.886 E0.2340
G1 X90.071 Y97.844 E0.2427
G1 X90.353 Y97.772 E0.2516
G1 X90.630 Y97.671 E0.2607
G1 X90.898 Y97.541 E0.2698
G1 X91.152 Y97.384 E0.2790
G1 X91.389 Y97.201 E0.2881
G1 X91.605 Y96.995 E0.2973
G1 X91.796 Y96.771 E0.3063
G1 X91.962 Y96.533 E0.3152
G1 X92.100 Y96.285 E0.3239
G1 X92.211 Y96.031 E0.3324
G1 X92.295 Y95.773 E0.3407
G1 X92.353 Y95.521 E0.3486
G1 X92.389 Y95.260 E0.3567
G1 X92.400 Y94.990 E0.3650
G1 X92.386 Y94.712 E0.3735
G1 X92.344 Y94.429 E0.3822
G1 X92.272 Y94.147 E0.3911
G1 X92.171 Y93.870 E0.4002
G1 X92.041 Y93.602 E0.4093
G1 X91.884 Y93.348 E0.4185
G1 X91.701 Y93.111 E0.4276
G1 X91.495 Y92.895 E0.4367
G1 X91.271 Y92.704 E0.4458
G1 X91.033 Y92.538 E0.4547
G1 X90.785 Y92.400 E0.4634
G1 X90.531 Y92.289 E0.4719
G1 X90.273 Y92.205 E0.4802
G1 X90.021 Y92.147 E0.4881
G1 X89.760 Y92.111 E0.4962
G1 X89.490 Y92.100 E0.5044
G1 X89.212 Y92.114 E0.5130
G1 X88.929 Y92.156 E0.5217
G1 X88.647 Y92.228 E0.5306
G1 X88.370 Y92.329 E0.5396
G1 X88.102 Y92.459 E0.5488
G1 X87.848 Y92.616 E0.5579
; solid layer
G1 X87.939 Y92.207 F4800
G92 E0
G1 X94.646 Y85.500 E0.2905 F1200
G1 X95.212 Y85.500 E0.3079
G1 X88.843 Y91.869 E0.5837
G1 X88.870 Y91.862 E0.5846
G1 X89.182 Y91.815 E0.5942
G1 X89.477 Y91.800 E0.6033
G1 X95.777 Y85.500 E0.8762
G1 X96.343 Y85.500 E0.8936
G1 X90.002 Y91.842 E1.1683
G1 X90.075 Y91.852 E1.1705
G1 X90.353 Y91.915 E1.1793
G1 X90.459 Y91.950 E1.1827
G1 X96.909 Y85.500 E1.4621
G1 X97.475 Y85.500 E1.4794
G1 X90.866 Y92.108 E1.7656
G1 X90.918 Y92.131 E1.7674
G1 X91.192 Y92.283 E1.7770
G1 X91.230 Y92.310 E1.7784
G1 X98.040 Y85.500 E2.0734
G1 X98.606 Y85.500 E2.0907
G1 X91.555 Y92.551 E2.3962
G1 X91.702 Y92.677 E2.4021
G1 X91.845 Y92.827 E2.4084
G1 X99.172 Y85.500 E2.7258
G1 X99.737 Y85.500 E2.7432
G1 X92.100 Y93.137 E3.0740
G1 X92.130 Y93.177 E3.0755
G1 X92.304 Y93.458 E3.0856
G1 X92.318 Y93.485 E3.0866
G1 X100.303 Y85.500 E3.4325
G1 X100.869 Y85.500 E3.4498
G1 X92.493 Y93.876 E3.8126
G1 X92.559 Y94.059 E3.8186
G1 X92.623 Y94.311 E3.8266
G1 X101.434 Y85.500 E4.2082
G1 X102.000 Y85.500 E4.2256
G1 X102.000 Y85.500 E4.2256
G1 X92.691 Y94.809 E4.6288
G1 X92.701 Y94.988 E4.6343
G1 X92.688 Y95.286 E4.6434
G1 X92.673 Y95.392 E4.6467
G1 X102.000 Y86.066 E5.0507
G1 X102.000 Y86.631 E5.0681
G1 X92.490 Y96.142 E5.4800
G1 X102.000 Y104.168 F4800
G92 E0
G1 X101.668 Y104.500 E0.0144 F1200
G1 X101.102 Y104.500 E0.0317
G1 X102.000 Y103.602 E0.0706
G1 X102.000 Y103.036 E0.0880
G1 X100.536 Y104.500 E0.1514
G1 X99.971 Y104.500 E0.1687
G1 X102.000 Y102.471 E0.2566
G1 X102.000 Y101.905 E0.2739
G1 X99.405 Y104.500 E0.3863
G1 X98.839 Y104.500 E0.4037
G1 X102.000 Y101.339 E0.5406
G1 X102.000 Y100.774 E0.5579
G1 X98.274 Y104.500 E0.7193
G1 X97.708 Y104.500 E0.7367
G1 X102.000 Y100.208 E0.9226
G1 X102.000 Y99.642 E0.9399
G1 X97.142 Y104.500 E1.1503
G1 X96.576 Y104.500 E1.1677
G1 X102.000 Y99.076 E1.4026
G1 X102.000 Y98.511 E1.4199
G1 X96.011 Y104.500 E1.6794
G1 X95.445 Y104.500 E1.6967
G1 X102.000 Y97.945 E1.9806
G1 X102.000 Y97.379 E1.9980
G1 X94.879 Y104.500 E2.3064
G1 X94.314 Y104.500 E2.3237
G1 X102.000 Y96.814 E2.6567
G1 X102.000 Y96.248 E2.6740
G1 X93.748 Y104.500 E3.0315
G1 X93.182 Y104.500 E3.0488
G1 X102.000 Y95.682 E3.4308
G1 X102.000 Y95.117 E3.4481
G1 X92.617 Y104.500 E3.8545
G1 X92.051 Y104.500 E3.8719
G1 X102.000 Y94.551 E4.3028
G1 X102.000 Y93.985 E4.3202
G1 X91.485 Y104.500 E4.7756
G1 X90.920 Y104.500 E4.7930
G1 X102.000 Y93.420 E5.2729
G1 X102.000 Y92.854 E5.2903
G1 X90.354 Y104.500 E5.7948
G1 X89.788 Y104.500 E5.8121
G1 X102.000 Y92.288 E6.3411
G1 X102.000 Y91.723 E6.3584
G1 X89.223 Y104.500 E6.9119
G1 X88.657 Y104.500 E6.9292
G1 X102.000 Y91.157 E7.5072
G1 X102.000 Y90.591 E7.5245
G1 X88.091 Y104.500 E8.1270
G1 X87.526 Y104.500 E8.1444
G1 X102.000 Y90.026 E8.7714
G1 X102.000 Y89.460 E8.7887
G1 X86.960 Y104.500 E9.4402
G1 X86.394 Y104.500 E9.4575
G1 X102.000 Y88.894 E10.1335
G1 X102.000 Y88.328 E10.1508
G1 X85.828 Y104.500 E10.8514
G1 X85.263 Y104.500 E10.8687
G1 X102.000 Y87.763 E11.5937
G1 X102.000 Y87.197 E11.6110
G1 X84.697 Y104.500 E12.3606
G1 X84.131 Y104.500 E12.3779
G1 X90.647 Y97.984 E12.6601
G1 X90.441 Y98.059 E12.6669
G1 X90.130 Y98.138 E12.6767
G1 X89.892 Y98.174 E12.6841
G1 X83.566 Y104.500 E12.9581
G1 X83.000 Y104.500 E12.9754
G1 X89.308 Y98.192 E13.2487
G1 X89.214 Y98.188 E13.2516
G1 X88.925 Y98.148 E13.2605
G1 X88.812 Y98.122 E13.2641
G1 X83.000 Y103.934 E13.5158
G1 X83.000 Y103.369 E13.5332
G1 X88.373 Y97.995 E13.7659
G1 X88.362 Y97.992 E13.7663
G1 X88.082 Y97.869 E13.7757
G1 X87.987 Y97.816 E13.7790
G1 X83.000 Y102.803 E13.9950
G1 X83.000 Y102.237 E14.0123
G1 X87.638 Y97.599 E14.2133
G1 X87.545 Y97.534 E14.2167
G1 X87.325 Y97.346 E14.2256
G1 X83.000 Y101.672 E14.4130
G1 X83.000 Y101.106 E14.4303
G1 X87.050 Y97.056 E14.6057
G1 X86.870 Y96.823 E14.6147
G1 X86.811 Y96.729 E14.6181
G1 X83.000 Y100.540 E14.7832
G1 X83.000 Y99.975 E14.8005
G1 X86.610 Y96.365 E14.9569
G1 X86.552 Y96.247 E14.9609
G1 X86.448 Y95.961 E14.9702
G1 X83.000 Y99.409 E15.1196
G1 X83.000 Y98.843 E15.1369
G1 X86.343 Y95.501 E15.2817
G1 X86.315 Y95.318 E15.2874
G1 X86.299 Y95.012 E15.2968
G1 X86.301 Y94.976 E15.2978
G1 X83.000 Y98.277 E15.4408
G1 X83.000 Y97.712 E15.4582
G1 X86.371 Y94.341 E15.6042
G1 X86.415 Y94.147 E15.6103
G1 X86.508 Y93.862 E15.6194
G1 X86.631 Y93.582 E15.6288
G1 X86.714 Y93.432 E15.6341
G1 X83.000 Y97.146 E15.7950
G1 X83.000 Y96.580 E15.8123
G1 X94.080 Y85.500 E16.2923
G1 X93.515 Y85.500 E16.3096
G1 X83.000 Y96.015 E16.7651
G1 X83.000 Y95.449 E16.7824
G1 X92.949 Y85.500 E17.2134
G1 X92.383 Y85.500 E17.2307
G1 X83.000 Y94.883 E17.6372
G1 X83.000 Y94.318 E17.6545
G1 X91.818 Y85.500 E18.0365
G1 X91.252 Y85.500 E18.0538
G1 X83.000 Y93.752 E18.4112
G1 X83.000 Y93.186 E18.4286
G1 X90.686 Y85.500 E18.7615
G1 X90.121 Y85.500 E18.7789
G1 X83.000 Y92.621 E19.0873
G1 X83.000 Y92.055 E19.1046
G1 X89.555 Y85.500 E19.3886
G1 X88.989 Y85.500 E19.4059
G1 X83.000 Y91.489 E19.6653
G1 X83.000 Y90.924 E19.6827
G1 X88.424 Y85.500 E19.9176
G1 X87.858 Y85.500 E19.9349
G1 X83.000 Y90.358 E20.1454
G1 X83.000 Y89.792 E20.1627
G1 X87.292 Y85.500 E20.3486
G1 X86.727 Y85.500 E20.3659
G1 X83.000 Y89.227 E20.5274
G1 X83.000 Y88.661 E20.5447
G1 X86.161 Y85.500 E20.6816
G1 X85.595 Y85.500 E20.6989
G1 X83.000 Y88.095 E20.8114
G1 X83.000 Y87.529 E20.8287
G1 X85.029 Y85.500 E20.9166
G1 X84.464 Y85.500 E20.9339
G1 X83.000 Y86.964 E20.9973
G1 X83.000 Y86.398 E21.0147
G1 X83.898 Y85.500 E21.0536
G1 X83.332 Y85.500 E21.0709
G1 X83.000 Y85.832 E21.0853
G92 E0
G1 E-3.0000 F1800
; layer 2, Z = 0.36
M106 S255
; outer perimeter
G1 X82.700 Y85.200 F4800
G1 Z0.360 F1000
G1 E0.0000 F1800
G92 E0
G1 X102.300 Y85.200 E0.6004 F1500
G1 X102.300 Y104.800 E1.2007
G1 X82.700 Y104.800 E1.8011
G1 X82.700 Y85.200 E2.4014
; outer perimeter
G1 X87.841 Y92.621 F4800
G92 E0
G1 X87.605 Y92.804 E0.0091 F1500
G1 X87.391 Y93.009 E0.0182
G1 X87.200 Y93.233 E0.0272
G1 X87.036 Y93.470 E0.0361
G1 X86.899 Y93.718 E0.0447
G1 X86.788 Y93.971 E0.0532
G1 X86.703 Y94.232 E0.0616
G1 X86.647 Y94.479 E0.0694
G1 X86.611 Y94.747 E0.0776
G1 X86.600 Y95.018 E0.0860
G1 X86.615 Y95.297 E0.0945
G1 X86.659 Y95.581 E0.1033
G1 X86.731 Y95.864 E0.1123
G1 X86.833 Y96.140 E0.1213
G1 X86.963 Y96.406 E0.1303
G1 X87.121 Y96.659 E0.1395
G1 X87.304 Y96.895 E0.1486
G1 X87.509 Y97.109 E0.1577
G1 X87.687 Y97.263 E0.1649
G1 X87.969 Y97.463 E0.1755
G1 X88.218 Y97.601 E0.1842
G1 X88.471 Y97.712 E0.1927
G1 X88.732 Y97.797 E0.2011
G1 X88.979 Y97.853 E0.2088
G1 X89.247 Y97.889 E0.2171
G1 X89.518 Y97.900 E0.2254
G1 X89.797 Y97.885 E0.2340
G1 X90.081 Y97.841 E0.2428
G1 X90.364 Y97.769 E0.2517
G1 X90.640 Y97.667 E0.2607
G1 X90.906 Y97.537 E0.2698
G1 X91.159 Y97.379 E0.2790
G1 X91.395 Y97.196 E0.2881
G1 X91.609 Y96.991 E0.2972
G1 X91.763 Y96.813 E0.3044
G1 X91.963 Y96.531 E0.3150
G1 X92.101 Y96.282 E0.3237
G1 X92.212 Y96.029 E0.3322
G1 X92.297 Y95.768 E0.3406
G1 X92.353 Y95.521 E0.3483
G1 X92.389 Y95.253 E0.3566
G1 X92.400 Y94.982 E0.3649
G1 X92.385 Y94.703 E0.3735
G1 X92.341 Y94.419 E0.3823
G1 X92.269 Y94.136 E0.3912
G1 X92.167 Y93.860 E0.4002
G1 X92.037 Y93.594 E0.4093
G1 X91.879 Y93.341 E0.4184
G1 X91.696 Y93.105 E0.4276
G1 X91.491 Y92.891 E0.4366
G1 X91.313 Y92.737 E0.4439
G1 X91.031 Y92.536 E0.4545
G1 X90.782 Y92.399 E0.4632
G1 X90.529 Y92.288 E0.4716
G1 X90.268 Y92.203 E0.4800
G1 X90.021 Y92.147 E0.4878
G1 X89.753 Y92.111 E0.4961
G1 X89.482 Y92.100 E0.5044
G1 X89.203 Y92.115 E0.5129
G1 X88.977 Y92.148 E0.5200
G1 X88.637 Y92.231 E0.5307
G1 X88.360 Y92.333 E0.5397
G1 X88.094 Y92.463 E0.5488
G1 X87.841 Y92.621 E0.5579
G92 E0
G1 E-3.0000 F1800
; solid layer
G1 X92.674 Y94.608 F4800
G1 E0.0000 F1800
G92 E0
G1 X102.000 Y103.934 E0.4040 F2400
G1 X102.000 Y104.500 E0.4213
G1 X92.692 Y95.192 E0.8245
G1 X92.688 Y95.280 E0.8272
G1 X92.649 Y95.574 E0.8363
G1 X92.623 Y95.688 E0.8399
G1 X101.434 Y104.500 E1.2216
G1 X100.869 Y104.500 E1.2389
