; G-Code generated by Simplify3D(R) Version 3.0.2
; 11月 14, 2017 at 7:05:54 下午
; Settings Summary
;   processName,Process1
;   applyToModels,电源固定件4
;   profileName,I3
;   profileVersion,2017-07-16 15:44:41
;   baseProfile,Default
;   printMaterial,PLA
;   printQuality,Medium
;   printExtruders,
;   extruderName,Extruder 1,Primary Extruder
;   extruderToolheadNumber,0,0
;   extruderDiameter,0.4,0.4
;   extruderAutoWidth,0,0
;   extruderWidth,0.4,0.4
;   extrusionMultiplier,0.9,0.9
;   extruderUseRetract,1,1
;   extruderRetractionDistance,3,3
;   extruderExtraRestartDistance,0,0
;   extruderRetractionZLift,0,0
;   extruderRetractionSpeed,1800,1800
;   extruderUseCoasting,0,0
;   extruderCoastingDistance,0.2,0.2
;   extruderUseWipe,0,0
;   extruderWipeDistance,5,5
;   primaryExtruder,0
;   layerHeight,0.2
;   topSolidLayers,3
;   bottomSolidLayers,3
;   perimeterOutlines,1
;   printPerimetersInsideOut,1
;   startPointOption,2
;   startPointOriginX,0
;   startPointOriginY,0
;   startPointOriginZ,300
;   sequentialIslands,0
;   spiralVaseMode,0
;   firstLayerHeightPercentage,80
;   firstLayerWidthPercentage,100
;   firstLayerUnderspeed,0.5
;   useRaft,0
;   raftExtruder,0
;   raftLayers,3
;   raftOffset,3
;   raftSeparationDistance,0.14
;   raftInfill,85
;   disableRaftBaseLayers,0
;   useSkirt,1
;   skirtExtruder,0
;   skirtLayers,1
;   skirtOutlines,2
;   skirtOffset,2
;   usePrimePillar,0
;   primePillarExtruder,999
;   primePillarWidth,12
;   primePillarLocation,7
;   primePillarSpeedMultiplier,1
;   useOozeShield,0
;   oozeShieldExtruder,999
;   oozeShieldOffset,2
;   oozeShieldOutlines,1
;   oozeShieldSidewallShape,1
;   oozeShieldSidewallAngle,30
;   oozeShieldSpeedMultiplier,1
;   infillExtruder,0
;   internalInfillPattern,Rectilinear
;   externalInfillPattern,Rectilinear
;   infillPercentage,90
;   outlineOverlapPercentage,25
;   infillExtrusionWidthPercentage,125
;   minInfillLength,5
;   infillLayerInterval,1
;   infillAngles,45,-45
;   overlapInfillAngles,0
;   generateSupport,1
;   supportExtruder,0
;   supportInfillPercentage,30
;   supportExtraInflation,0
;   denseSupportLayers,0
;   denseSupportInfillPercentage,70
;   supportLayerInterval,1
;   supportHorizontalPartOffset,0.3
;   supportUpperSeparationLayers,1
;   supportLowerSeparationLayers,1
;   supportType,0
;   supportGridSpacing,4
;   maxOverhangAngle,45
;   supportAngles,0
;   temperatureName,Extruder 1 Temperature,Heated Bed
;   temperatureNumber,0,0
;   temperatureSetpointCount,1,1
;   temperatureSetpointLayers,1,1
;   temperatureSetpointTemperatures,200,70
;   temperatureStabilizeAtStartup,1,1
;   temperatureHeatedBed,0,1
;   temperatureRelayBetweenLayers,0,0
;   temperatureRelayBetweenLoops,0,0
;   fanLayers,1,2
;   fanSpeeds,0,100
;   blipFanToFullPower,0
;   adjustSpeedForCooling,1
;   minSpeedLayerTime,15
;   minCoolingSpeedSlowdown,20
;   increaseFanForCooling,0
;   minFanLayerTime,45
;   maxCoolingFanSpeed,100
;   increaseFanForBridging,0
;   bridgingFanSpeed,100
;   use5D,1
;   relativeEdistances,0
;   allowEaxisZeroing,1
;   independentExtruderAxes,0
;   includeM10123,0
;   stickySupport,1
;   applyToolheadOffsets,0
;   gcodeXoffset,0
;   gcodeYoffset,0
;   gcodeZoffset,0
;   overrideMachineDefinition,1
;   machineTypeOverride,0
;   strokeXoverride,185
;   strokeYoverride,190
;   strokeZoverride,300
;   originOffsetXoverride,0
;   originOffsetYoverride,0
;   originOffsetZoverride,0
;   homeXdirOverride,-1
;   homeYdirOverride,-1
;   homeZdirOverride,-1
;   flipXoverride,1
;   flipYoverride,-1
;   flipZoverride,1
;   toolheadOffsets,0,0|0,0|0,0|0,0|0,0|0,0
;   overrideFirmwareConfiguration,1
;   firmwareTypeOverride,RepRap (Marlin/Repetier/Sprinter)
;   GPXconfigOverride,r2
;   baudRateOverride,250000
;   overridePrinterModels,0
;   printerModelsOverride
;   startingGcode,G28 ; home all axes
;   layerChangeGcode,
;   retractionGcode,
;   toolChangeGcode,
;   endingGcode,M104 S0 ; turn off extruder,M140 S0 ; turn off bed,M84 ; disable motors
;   createX3G,0
;   celebration,0
;   celebrationSong,Random Song
;   createMB5G,0
;   postProcessing,
;   defaultSpeed,3000
;   outlineUnderspeed,0.5
;   solidInfillUnderspeed,0.8
;   supportUnderspeed,0.8
;   rapidXYspeed,4800
;   rapidZspeed,1000
;   minBridgingArea,50
;   bridgingExtraInflation,0
;   bridgingExtrusionMultiplier,1
;   bridgingSpeedMultiplier,1
;   filamentDiameter,1.73
;   filamentPricePerKg,46
;   filamentDensity,1.25
;   useMinPrintHeight,0
;   minPrintHeight,0
;   useMaxPrintHeight,0
;   maxPrintHeight,0
;   useDiaphragm,0
;   diaphragmLayerInterval,20
;   robustSlicing,1
;   mergeAllIntoSolid,0
;   onlyRetractWhenCrossingOutline,1
;   retractBetweenLayers,1
;   useRetractionMinTravel,0
;   retractionMinTravel,3
;   retractWhileWiping,0
;   onlyWipeOutlines,1
;   avoidCrossingOutline,0
;   maxMovementDetourFactor,3
;   toolChangeRetractionDistance,12
;   toolChangeExtraRestartDistance,-0.5
;   toolChangeRetractionSpeed,600
;   allowThinWallGapFill,1
;   thinWallAllowedOverlapPercentage,10
;   horizontalSizeCompensation,0
G90
M82
M106 S0
M140 S70
M190 S70
M104 S200 T0
M109 S200 T0
G28 ; home all axes
G92 E0
G1 E-3.0000 F1800
G1 Z0.160 F1000
; layer 1, Z = 0.16
T0
; tool H0.200 W0.400
; skirt
G1 X81.332 Y82.491 F4800
G1 E0.0000 F540
G92 E0
G1 X81.552 Y82.400 E0.0073 F1500
G1 X103.448 Y82.400 E0.6780
G1 X103.668 Y82.491 E0.6853
G1 X105.009 Y83.832 E0.7433
G1 X105.100 Y84.052 E0.7507
G1 X105.100 Y105.948 E1.4213
G1 X105.009 Y106.168 E1.4286
G1 X103.668 Y107.509 E1.4867
G1 X103.448 Y107.600 E1.4940
G1 X81.552 Y107.600 E2.1647
G1 X81.332 Y107.509 E2.1720
G1 X79.991 Y106.168 E2.2300
G1 X79.900 Y105.948 E2.2374
G1 X79.900 Y84.052 E2.9080
G1 X79.991 Y83.832 E2.9153
G1 X81.332 Y82.491 E2.9734
G1 X81.558 Y82.830 F4800
G92 E0
G1 X81.632 Y82.800 E0.0024 F1500
G1 X103.368 Y82.800 E0.6682
G1 X103.442 Y82.830 E0.6707
G1 X104.670 Y84.058 E0.7239
G1 X104.700 Y84.132 E0.7263
G1 X104.700 Y105.868 E1.3921
G1 X104.670 Y105.942 E1.3945
G1 X103.442 Y107.170 E1.4477
G1 X103.368 Y107.200 E1.4501
G1 X81.632 Y107.200 E2.1159
G1 X81.558 Y107.170 E2.1184
G1 X80.330 Y105.942 E2.1716
G1 X80.300 Y105.868 E2.1740
G1 X80.300 Y84.132 E2.8398
G1 X80.330 Y84.058 E2.8422
G1 X81.558 Y82.830 E2.8954
G92 E0
G1 E-3.0000 F1800
; outer perimeter
G1 X82.700 Y85.200 F4800
G1 E0.0000 F1800
G92 E0
G1 X102.300 Y85.200 E0.6004 F750
G1 X102.300 Y104.800 E1.2007
G1 X82.700 Y104.800 E1.8011
G1 X82.700 Y85.200 E2.4014
; outer perimeter
G1 X87.909 Y92.575 F4800
G92 E0
G1 X87.669 Y92.751 E0.0091 F750
G1 X87.446 Y92.952 E0.0183
G1 X87.246 Y93.175 E0.0275
G1 X87.071 Y93.415 E0.0366
G1 X86.923 Y93.670 E0.0456
G1 X86.803 Y93.934 E0.0545
G1 X86.711 Y94.203 E0.0632
G1 X86.648 Y94.473 E0.0717
G1 X86.611 Y94.742 E0.0800
G1 X86.600 Y95.000 E0.0879
G1 X86.612 Y95.264 E0.0960
G1 X86.649 Y95.531 E0.1043
G1 X86.713 Y95.802 E0.1128
G1 X86.805 Y96.072 E0.1216
G1 X86.926 Y96.337 E0.1305
G1 X87.075 Y96.591 E0.1395
G1 X87.251 Y96.831 E0.1486
G1 X87.452 Y97.054 E0.1578
G1 X87.675 Y97.254 E0.1670
G1 X87.915 Y97.429 E0.1761
G1 X88.170 Y97.577 E0.1851
G1 X88.434 Y97.697 E0.1940
G1 X88.703 Y97.789 E0.2027
G1 X88.973 Y97.852 E0.2112
G1 X89.242 Y97.889 E0.2195
G1 X89.500 Y97.900 E0.2274
G1 X89.764 Y97.888 E0.2355
G1 X90.031 Y97.851 E0.2438
G1 X90.302 Y97.787 E0.2523
G1 X90.572 Y97.695 E0.2610
G1 X90.837 Y97.574 E0.2700
G1 X91.091 Y97.425 E0.2790
G1 X91.331 Y97.249 E0.2881
G1 X91.554 Y97.048 E0.2973
G1 X91.754 Y96.825 E0.3064
G1 X91.929 Y96.585 E0.3156
G1 X92.077 Y96.330 E0.3246
G1 X92.197 Y96.066 E0.3335
G1 X92.289 Y95.797 E0.3422
G1 X92.352 Y95.527 E0.3507
G1 X92.389 Y95.258 E0.3590
G1 X92.400 Y95.000 E0.3669
G1 X92.388 Y94.736 E0.3750
G1 X92.351 Y94.469 E0.3833
G1 X92.287 Y94.198 E0.3918
G1 X92.195 Y93.928 E0.4005
G1 X92.074 Y93.663 E0.4094
G1 X91.925 Y93.409 E0.4185
G1 X91.749 Y93.169 E0.4276
G1 X91.548 Y92.946 E0.4368
G1 X91.325 Y92.746 E0.4459
G1 X91.085 Y92.571 E0.4551
G1 X90.830 Y92.423 E0.4641
G1 X90.566 Y92.303 E0.4730
G1 X90.297 Y92.211 E0.4817
G1 X90.027 Y92.148 E0.4902
G1 X89.758 Y92.111 E0.4985
G1 X89.500 Y92.100 E0.5064
G1 X89.236 Y92.112 E0.5145
G1 X88.969 Y92.149 E0.5227
G1 X88.698 Y92.213 E0.5313
G1 X88.428 Y92.305 E0.5400
G1 X88.180 Y92.418 E0.5484
G1 X87.909 Y92.575 E0.5579
; solid layer
G1 X87.930 Y92.216 F4800
G92 E0
G1 X94.646 Y85.500 E0.2909 F1200
G1 X95.212 Y85.500 E0.3082
G1 X88.841 Y91.871 E0.5842
G1 X88.913 Y91.854 E0.5865
G1 X89.209 Y91.813 E0.5956
G1 X89.477 Y91.801 E0.6038
G1 X95.777 Y85.500 E0.8768
G1 X96.343 Y85.500 E0.8941
G1 X90.001 Y91.842 E1.1688
G1 X90.082 Y91.853 E1.1713
G1 X90.379 Y91.923 E1.1807
G1 X90.459 Y91.950 E1.1832
G1 X96.909 Y85.500 E1.4626
G1 X97.475 Y85.500 E1.4799
G1 X90.865 Y92.109 E1.7662
G1 X90.968 Y92.156 E1.7697
G1 X91.231 Y92.309 E1.7790
G1 X98.040 Y85.500 E2.0740
G1 X98.606 Y85.500 E2.0913
G1 X91.556 Y92.550 E2.3967
G1 X91.760 Y92.734 E2.4051
G1 X91.845 Y92.827 E2.4090
G1 X99.172 Y85.500 E2.7264
G1 X99.737 Y85.500 E2.7437
G1 X92.099 Y93.139 E3.0746
G1 X92.176 Y93.244 E3.0786
G1 X92.317 Y93.486 E3.0871
G1 X100.303 Y85.500 E3.4331
G1 X100.869 Y85.500 E3.4504
G1 X92.494 Y93.875 E3.8132
G1 X92.576 Y94.115 E3.8209
G1 X92.622 Y94.312 E3.8271
G1 X101.434 Y85.500 E4.2089
G1 X102.000 Y85.500 E4.2262
G1 X102.000 Y85.500 E4.2262
G1 X92.692 Y94.808 E4.6294
G1 X92.700 Y95.000 E4.6353
G1 X92.688 Y95.285 E4.6440
G1 X92.673 Y95.393 E4.6473
G1 X102.000 Y86.066 E5.0514
G1 X102.000 Y86.631 E5.0687
G1 X92.488 Y96.144 E5.4807
G1 X102.000 Y104.168 F4800
G92 E0
G1 X101.668 Y104.500 E0.0144 F1200
G1 X101.102 Y104.500 E0.0317
G1 X102.000 Y103.602 E0.0706
G1 X102.000 Y103.036 E0.0880
G1 X100.536 Y104.500 E0.1514
G1 X99.971 Y104.500 E0.1687
G1 X102.000 Y102.471 E0.2566
G1 X102.000 Y101.905 E0.2739
G1 X99.405 Y104.500 E0.3863
G1 X98.839 Y104.500 E0.4037
G1 X102.000 Y101.339 E0.5406
G1 X102.000 Y100.774 E0.5579
G1 X98.274 Y104.500 E0.7193
G1 X97.708 Y104.500 E0.7367
G1 X102.000 Y100.208 E0.9226
G1 X102.000 Y99.642 E0.9399
G1 X97.142 Y104.500 E1.1503
G1 X96.576 Y104.500 E1.1677
G1 X102.000 Y99.076 E1.4026
G1 X102.000 Y98.511 E1.4199
G1 X96.011 Y104.500 E1.6794
G1 X95.445 Y104.500 E1.6967
G1 X102.000 Y97.945 E1.9806
G1 X102.000 Y97.379 E1.9980
G1 X94.879 Y104.500 E2.3064
G1 X94.314 Y104.500 E2.3237
G1 X102.000 Y96.814 E2.6567
G1 X102.000 Y96.248 E2.6740
G1 X93.748 Y104.500 E3.0315
G1 X93.182 Y104.500 E3.0488
G1 X102.000 Y95.682 E3.4308
G1 X102.000 Y95.117 E3.4481
G1 X92.617 Y104.500 E3.8545
G1 X92.051 Y104.500 E3.8719
G1 X102.000 Y94.551 E4.3028
G1 X102.000 Y93.985 E4.3202
G1 X91.485 Y104.500 E4.7756
G1 X90.920 Y104.500 E4.7930
G1 X102.000 Y93.420 E5.2729
G1 X102.000 Y92.854 E5.2903
G1 X90.354 Y104.500 E5.7948
G1 X89.788 Y104.500 E5.8121
G1 X102.000 Y92.288 E6.3411
G1 X102.000 Y91.723 E6.3584
G1 X89.223 Y104.500 E6.9119
G1 X88.657 Y104.500 E6.9292
G1 X102.000 Y91.157 E7.5072
G1 X102.000 Y90.591 E7.5245
G1 X88.091 Y104.500 E8.1270
G1 X87.526 Y104.500 E8.1444
G1 X102.000 Y90.026 E8.7714
G1 X102.000 Y89.460 E8.7887
G1 X86.960 Y104.500 E9.4402
G1 X86.394 Y104.500 E9.4575
G1 X102.000 Y88.894 E10.1335
G1 X102.000 Y88.328 E10.1508
G1 X85.828 Y104.500 E10.8514
G1 X85.263 Y104.500 E10.8687
G1 X102.000 Y87.763 E11.5937
G1 X102.000 Y87.197 E11.6110
G1 X84.697 Y104.500 E12.3606
G1 X84.131 Y104.500 E12.3779
G1 X90.644 Y97.987 E12.6600
G1 X90.385 Y98.076 E12.6684
G1 X90.087 Y98.146 E12.6778
G1 X89.893 Y98.173 E12.6838
G1 X83.566 Y104.500 E12.9579
G1 X83.000 Y104.500 E12.9752
G1 X89.308 Y98.192 E13.2484
G1 X89.215 Y98.188 E13.2513
G1 X88.918 Y98.147 E13.2605
G1 X88.812 Y98.122 E13.2638
G1 X83.000 Y103.934 E13.5156
G1 X83.000 Y103.369 E13.5329
G1 X88.375 Y97.994 E13.7657
G1 X88.324 Y97.977 E13.7674
G1 X88.032 Y97.844 E13.7772
G1 X87.986 Y97.817 E13.7788
G1 X83.000 Y102.803 E13.9948
G1 X83.000 Y102.237 E14.0121
G1 X87.639 Y97.599 E14.2130
G1 X87.485 Y97.487 E14.2189
G1 X87.327 Y97.345 E14.2254
G1 X83.000 Y101.672 E14.4128
G1 X83.000 Y101.106 E14.4301
G1 X87.050 Y97.056 E14.6056
G1 X87.018 Y97.021 E14.6070
G1 X86.824 Y96.756 E14.6171
G1 X86.809 Y96.731 E14.6180
G1 X83.000 Y100.540 E14.7830
G1 X83.000 Y99.975 E14.8003
G1 X86.609 Y96.365 E14.9567
G1 X86.526 Y96.183 E14.9628
G1 X86.450 Y95.959 E14.9700
G1 X83.000 Y99.409 E15.1195
G1 X83.000 Y98.843 E15.1368
G1 X86.342 Y95.501 E15.2816
G1 X86.313 Y95.291 E15.2881
G1 X86.299 Y95.000 E15.2970
G1 X86.301 Y94.977 E15.2977
G1 X83.000 Y98.277 E15.4407
G1 X83.000 Y97.712 E15.4580
G1 X86.371 Y94.341 E15.6040
G1 X86.423 Y94.120 E15.6109
G1 X86.523 Y93.824 E15.6205
G1 X86.656 Y93.532 E15.6304
G1 X86.714 Y93.432 E15.6339
G1 X83.000 Y97.146 E15.7948
G1 X83.000 Y96.580 E15.8121
G1 X94.080 Y85.500 E16.2921
G1 X93.515 Y85.500 E16.3094
G1 X83.000 Y96.015 E16.7649
G1 X83.000 Y95.449 E16.7822
G1 X92.949 Y85.500 E17.2132
G1 X92.383 Y85.500 E17.2305
G1 X83.000 Y94.883 E17.6370
G1 X83.000 Y94.318 E17.6543
G1 X91.818 Y85.500 E18.0363
G1 X91.252 Y85.500 E18.0536
G1 X83.000 Y93.752 E18.4111
G1 X83.000 Y93.186 E18.4284
G1 X90.686 Y85.500 E18.7613
G1 X90.121 Y85.500 E18.7787
G1 X83.000 Y92.621 E19.0871
G1 X83.000 Y92.055 E19.1044
G1 X89.555 Y85.500 E19.3884
G1 X88.989 Y85.500 E19.4057
G1 X83.000 Y91.489 E19.6652
G1 X83.000 Y90.924 E19.6825
G1 X88.424 Y85.500 E19.9174
G1 X87.858 Y85.500 E19.9347
G1 X83.000 Y90.358 E20.1452
G1 X83.000 Y89.792 E20.1625
G1 X87.292 Y85.500 E20.3484
G1 X86.727 Y85.500 E20.3658
G1 X83.000 Y89.227 E20.5272
G1 X83.000 Y88.661 E20.5445
G1 X86.161 Y85.500 E20.6814
G1 X85.595 Y85.500 E20.6988
G1 X83.000 Y88.095 E20.8112
G1 X83.000 Y87.529 E20.8285
G1 X85.029 Y85.500 E20.9164
G1 X84.464 Y85.500 E20.9337
G1 X83.000 Y86.964 E20.9972
G1 X83.000 Y86.398 E21.0145
G1 X83.898 Y85.500 E21.0534
G1 X83.332 Y85.500 E21.0707
G1 X83.000 Y85.832 E21.0851
G92 E0
G1 E-3.0000 F1800
; layer 2, Z = 0.36
M106 S255
; outer perimeter
G1 X82.700 Y85.200 F4800
G1 Z0.360 F1000
G1 E0.0000 F1800
G92 E0
G1 X102.300 Y85.200 E0.6004 F1500
G1 X102.300 Y104.800 E1.2007
G1 X82.700 Y104.800 E1.8011
G1 X82.700 Y85.200 E2.4014
; outer perimeter
G1 X87.900 Y92.581 F4800
G92 E0
G1 X87.661 Y92.757 E0.0091 F1500
G1 X87.440 Y92.958 E0.0182
G1 X87.242 Y93.180 E0.0274
G1 X87.067 Y93.421 E0.0365
G1 X86.920 Y93.675 E0.0454
G1 X86.802 Y93.937 E0.0543
G1 X86.727 Y94.153 E0.0613
G1 X86.648 Y94.474 E0.0714
G1 X86.611 Y94.747 E0.0798
G1 X86.600 Y95.000 E0.0876
G1 X86.612 Y95.270 E0.0959
G1 X86.650 Y95.539 E0.1042
G1 X86.715 Y95.811 E0.1128
G1 X86.809 Y96.082 E0.1215
G1 X86.932 Y96.347 E0.1305
G1 X87.081 Y96.600 E0.1395
G1 X87.257 Y96.839 E0.1486
G1 X87.458 Y97.060 E0.1577
G1 X87.680 Y97.258 E0.1669
G1 X87.921 Y97.433 E0.1759
G1 X88.175 Y97.580 E0.1849
G1 X88.437 Y97.698 E0.1938
G1 X88.653 Y97.773 E0.2007
G1 X88.974 Y97.852 E0.2109
G1 X89.247 Y97.889 E0.2193
G1 X89.500 Y97.900 E0.2271
G1 X89.770 Y97.888 E0.2353
G1 X90.039 Y97.850 E0.2437
G1 X90.311 Y97.785 E0.2522
G1 X90.582 Y97.691 E0.2610
G1 X90.847 Y97.568 E0.2700
G1 X91.100 Y97.419 E0.2790
G1 X91.339 Y97.243 E0.2881
G1 X91.560 Y97.042 E0.2972
G1 X91.758 Y96.820 E0.3063
G1 X91.933 Y96.579 E0.3154
G1 X92.080 Y96.325 E0.3244
G1 X92.198 Y96.063 E0.3332
G1 X92.273 Y95.847 E0.3402
G1 X92.352 Y95.526 E0.3504
G1 X92.389 Y95.253 E0.3588
G1 X92.400 Y95.000 E0.3666
G1 X92.388 Y94.730 E0.3748
G1 X92.350 Y94.461 E0.3831
G1 X92.285 Y94.189 E0.3917
G1 X92.191 Y93.918 E0.4005
G1 X92.068 Y93.653 E0.4094
G1 X91.919 Y93.400 E0.4184
G1 X91.743 Y93.161 E0.4275
G1 X91.542 Y92.940 E0.4367
G1 X91.320 Y92.742 E0.4458
G1 X91.079 Y92.567 E0.4549
G1 X90.825 Y92.420 E0.4639
G1 X90.563 Y92.302 E0.4727
G1 X90.347 Y92.227 E0.4797
G1 X90.026 Y92.148 E0.4898
G1 X89.753 Y92.111 E0.4983
G1 X89.500 Y92.100 E0.5060
G1 X89.230 Y92.112 E0.5143
G1 X88.961 Y92.150 E0.5226
G1 X88.689 Y92.215 E0.5312
G1 X88.419 Y92.309 E0.5400
G1 X88.211 Y92.403 E0.5469
G1 X88.150 Y92.433 E0.5490
G1 X87.900 Y92.581 E0.5579
G92 E0
G1 E-3.0000 F1800
; solid layer
G1 X92.673 Y94.608 F4800
G1 E0.0000 F1800
G92 E0
G1 X102.000 Y103.934 E0.4040 F2400
G1 X102.000 Y104.500 E0.4213
G1 X92.692 Y95.192 E0.8245
G1 X92.688 Y95.280 E0.8272
G1 X92.647 Y95.582 E0.8366
G1 X92.621 Y95.687 E0.8399
G1 X101.434 Y104.500 E1.2216
G1 X100.869 Y104.500 E1.2390
