; G-Code generated by Simplify3D(R) Version 3.0.2
; 11月 14, 2017 at 6:48:33 下午
; Settings Summary
;   processName,Process1
;   applyToModels,Z热床固定件1
;   profileName,I3
;   profileVersion,2017-07-16 15:44:41
;   baseProfile,Default
;   printMaterial,PLA
;   printQuality,Medium
;   printExtruders,
;   extruderName,Extruder 1,Primary Extruder
;   extruderToolheadNumber,0,0
;   extruderDiameter,0.4,0.4
;   extruderAutoWidth,0,0
;   extruderWidth,0.4,0.4
;   extrusionMultiplier,0.9,0.9
;   extruderUseRetract,1,1
;   extruderRetractionDistance,3,3
;   extruderExtraRestartDistance,0,0
;   extruderRetractionZLift,0,0
;   extruderRetractionSpeed,1800,1800
;   extruderUseCoasting,0,0
;   extruderCoastingDistance,0.2,0.2
;   extruderUseWipe,0,0
;   extruderWipeDistance,5,5
;   primaryExtruder,0
;   layerHeight,0.2
;   topSolidLayers,3
;   bottomSolidLayers,3
;   perimeterOutlines,1
;   printPerimetersInsideOut,1
;   startPointOption,2
;   startPointOriginX,0
;   startPointOriginY,0
;   startPointOriginZ,300
;   sequentialIslands,0
;   spiralVaseMode,0
;   firstLayerHeightPercentage,80
;   firstLayerWidthPercentage,100
;   firstLayerUnderspeed,0.5
;   useRaft,0
;   raftExtruder,0
;   raftLayers,3
;   raftOffset,3
;   raftSeparationDistance,0.14
;   raftInfill,85
;   disableRaftBaseLayers,0
;   useSkirt,1
;   skirtExtruder,0
;   skirtLayers,1
;   skirtOutlines,2
;   skirtOffset,2
;   usePrimePillar,0
;   primePillarExtruder,999
;   primePillarWidth,12
;   primePillarLocation,7
;   primePillarSpeedMultiplier,1
;   useOozeShield,0
;   oozeShieldExtruder,999
;   oozeShieldOffset,2
;   oozeShieldOutlines,1
;   oozeShieldSidewallShape,1
;   oozeShieldSidewallAngle,30
;   oozeShieldSpeedMultiplier,1
;   infillExtruder,0
;   internalInfillPattern,Rectilinear
;   externalInfillPattern,Rectilinear
;   infillPercentage,90
;   outlineOverlapPercentage,25
;   infillExtrusionWidthPercentage,125
;   minInfillLength,5
;   infillLayerInterval,1
;   infillAngles,45,-45
;   overlapInfillAngles,0
;   generateSupport,1
;   supportExtruder,0
;   supportInfillPercentage,30
;   supportExtraInflation,0
;   denseSupportLayers,0
;   denseSupportInfillPercentage,70
;   supportLayerInterval,1
;   supportHorizontalPartOffset,0.3
;   supportUpperSeparationLayers,1
;   supportLowerSeparationLayers,1
;   supportType,0
;   supportGridSpacing,4
;   maxOverhangAngle,45
;   supportAngles,0
;   temperatureName,Extruder 1 Temperature,Heated Bed
;   temperatureNumber,0,0
;   temperatureSetpointCount,1,1
;   temperatureSetpointLayers,1,1
;   temperatureSetpointTemperatures,200,70
;   temperatureStabilizeAtStartup,1,1
;   temperatureHeatedBed,0,1
;   temperatureRelayBetweenLayers,0,0
;   temperatureRelayBetweenLoops,0,0
;   fanLayers,1,2
;   fanSpeeds,0,100
;   blipFanToFullPower,0
;   adjustSpeedForCooling,1
;   minSpeedLayerTime,15
;   minCoolingSpeedSlowdown,20
;   increaseFanForCooling,0
;   minFanLayerTime,45
;   maxCoolingFanSpeed,100
;   increaseFanForBridging,0
;   bridgingFanSpeed,100
;   use5D,1
;   relativeEdistances,0
;   allowEaxisZeroing,1
;   independentExtruderAxes,0
;   includeM10123,0
;   stickySupport,1
;   applyToolheadOffsets,0
;   gcodeXoffset,0
;   gcodeYoffset,0
;   gcodeZoffset,0
;   overrideMachineDefinition,1
;   machineTypeOverride,0
;   strokeXoverride,185
;   strokeYoverride,190
;   strokeZoverride,300
;   originOffsetXoverride,0
;   originOffsetYoverride,0
;   originOffsetZoverride,0
;   homeXdirOverride,-1
;   homeYdirOverride,-1
;   homeZdirOverride,-1
;   flipXoverride,1
;   flipYoverride,-1
;   flipZoverride,1
;   toolheadOffsets,0,0|0,0|0,0|0,0|0,0|0,0
;   overrideFirmwareConfiguration,1
;   firmwareTypeOverride,RepRap (Marlin/Repetier/Sprinter)
;   GPXconfigOverride,r2
;   baudRateOverride,250000
;   overridePrinterModels,0
;   printerModelsOverride
;   startingGcode,G28 ; home all axes
;   layerChangeGcode,
;   retractionGcode,
;   toolChangeGcode,
;   endingGcode,M104 S0 ; turn off extruder,M140 S0 ; turn off bed,M84 ; disable motors
;   createX3G,0
;   celebration,0
;   celebrationSong,Random Song
;   createMB5G,0
;   postProcessing,
;   defaultSpeed,3000
;   outlineUnderspeed,0.5
;   solidInfillUnderspeed,0.8
;   supportUnderspeed,0.8
;   rapidXYspeed,4800
;   rapidZspeed,1000
;   minBridgingArea,50
;   bridgingExtraInflation,0
;   bridgingExtrusionMultiplier,1
;   bridgingSpeedMultiplier,1
;   filamentDiameter,1.73
;   filamentPricePerKg,46
;   filamentDensity,1.25
;   useMinPrintHeight,0
;   minPrintHeight,0
;   useMaxPrintHeight,0
;   maxPrintHeight,0
;   useDiaphragm,0
;   diaphragmLayerInterval,20
;   robustSlicing,1
;   mergeAllIntoSolid,0
;   onlyRetractWhenCrossingOutline,1
;   retractBetweenLayers,1
;   useRetractionMinTravel,0
;   retractionMinTravel,3
;   retractWhileWiping,0
;   onlyWipeOutlines,1
;   avoidCrossingOutline,0
;   maxMovementDetourFactor,3
;   toolChangeRetractionDistance,12
;   toolChangeExtraRestartDistance,-0.5
;   toolChangeRetractionSpeed,600
;   allowThinWallGapFill,1
;   thinWallAllowedOverlapPercentage,10
;   horizontalSizeCompensation,0
G90
M82
M106 S0
M140 S70
M190 S70
M104 S200 T0
M109 S200 T0
G28 ; home all axes
G92 E0
G1 E-3.0000 F1800
G1 Z0.160 F1000
; layer 1, Z = 0.16
T0
; tool H0.200 W0.400
; skirt
G1 X73.832 Y81.672 F4800
G1 E0.0000 F540
G92 E0
G1 X74.053 Y81.580 E0.0073 F1500
G1 X110.947 Y81.580 E1.1374
G1 X111.168 Y81.672 E1.1447
G1 X112.508 Y83.012 E1.2028
G1 X112.600 Y83.233 E1.2101
G1 X112.600 Y90.128 E1.4213
G1 X112.508 Y90.349 E1.4286
G1 X111.168 Y91.689 E1.4867
G1 X110.947 Y91.780 E1.4940
G1 X82.600 Y91.780 E2.3623
G1 X82.600 Y104.439 E2.7500
G1 X82.508 Y104.660 E2.7573
G1 X81.168 Y106.000 E2.8154
G1 X80.947 Y106.091 E2.8227
G1 X74.053 Y106.091 E3.0339
G1 X73.832 Y106.000 E3.0412
G1 X72.492 Y104.660 E3.0993
G1 X72.400 Y104.439 E3.1066
G1 X72.400 Y83.233 E3.7561
G1 X72.492 Y83.012 E3.7634
G1 X73.832 Y81.672 E3.8215
G1 X74.059 Y82.011 F4800
G92 E0
G1 X74.132 Y81.980 E0.0024 F1500
G1 X110.868 Y81.980 E1.1277
G1 X110.941 Y82.011 E1.1301
G1 X112.169 Y83.239 E1.1833
G1 X112.200 Y83.312 E1.1857
G1 X112.200 Y90.049 E1.3921
G1 X112.169 Y90.122 E1.3945
G1 X110.941 Y91.350 E1.4477
G1 X110.868 Y91.380 E1.4501
G1 X82.200 Y91.380 E2.3282
G1 X82.200 Y104.359 E2.7258
G1 X82.169 Y104.433 E2.7282
G1 X80.941 Y105.661 E2.7814
G1 X80.868 Y105.691 E2.7838
G1 X74.132 Y105.691 E2.9901
G1 X74.059 Y105.661 E2.9926
G1 X72.831 Y104.433 E3.0458
G1 X72.800 Y104.359 E3.0482
G1 X72.800 Y83.312 E3.6929
G1 X72.831 Y83.239 E3.6953
G1 X74.059 Y82.011 E3.7485
G92 E0
G1 E-3.0000 F1800
; outer perimeter
G1 X75.201 Y84.380 F4800
G1 E0.0000 F1800
G92 E0
G1 X109.799 Y84.380 E1.0598 F750
G1 X109.799 Y88.980 E1.2007
G1 X79.799 Y88.980 E2.1196
G1 X79.799 Y103.296 E2.5581
G1 X79.331 Y103.306 E2.5724
G1 X75.669 Y103.306 E2.6846
G1 X75.201 Y103.296 E2.6989
G1 X75.201 Y84.380 E3.2783
; solid layer
G1 X75.501 Y84.847 F4800
G92 E0
G1 X75.667 Y84.680 E0.0072 F1200
G1 X76.232 Y84.680 E0.0245
G1 X75.501 Y85.412 E0.0562
G1 X75.501 Y85.978 E0.0736
G1 X76.798 Y84.680 E0.1298
G1 X77.364 Y84.680 E0.1471
G1 X75.501 Y86.544 E0.2278
G1 X75.501 Y87.109 E0.2451
G1 X77.929 Y84.680 E0.3503
G1 X78.495 Y84.680 E0.3677
G1 X75.501 Y87.675 E0.4974
G1 X75.501 Y88.241 E0.5147
G1 X79.061 Y84.680 E0.6689
G1 X79.626 Y84.680 E0.6863
G1 X75.501 Y88.806 E0.8650
G1 X75.501 Y89.372 E0.8823
G1 X80.192 Y84.680 E1.0855
G1 X80.758 Y84.680 E1.1029
G1 X75.501 Y89.938 E1.3306
G1 X75.501 Y90.503 E1.3479
G1 X81.323 Y84.680 E1.6002
G1 X81.889 Y84.680 E1.6175
G1 X75.501 Y91.069 E1.8942
G1 X75.501 Y91.635 E1.9116
G1 X82.455 Y84.680 E2.2128
G1 X83.021 Y84.680 E2.2301
G1 X75.501 Y92.201 E2.5559
G1 X75.501 Y92.766 E2.5732
G1 X79.499 Y88.767 E2.7464
G1 X79.499 Y89.333 E2.7638
G1 X75.501 Y93.332 E2.9370
G1 X75.501 Y93.898 E2.9543
G1 X79.499 Y89.899 E3.1276
G1 X79.499 Y90.464 E3.1449
G1 X75.501 Y94.463 E3.3181
G1 X75.501 Y95.029 E3.3354
G1 X79.499 Y91.030 E3.5087
G1 X79.499 Y91.596 E3.5260
G1 X75.501 Y95.595 E3.6992
G1 X75.501 Y96.160 E3.7165
G1 X79.499 Y92.161 E3.8898
G1 X79.499 Y92.727 E3.9071
G1 X75.501 Y96.726 E4.0803
G1 X75.501 Y97.292 E4.0977
G1 X79.499 Y93.293 E4.2709
G1 X79.499 Y93.858 E4.2882
G1 X75.501 Y97.857 E4.4614
G1 X75.501 Y98.423 E4.4788
G1 X79.499 Y94.424 E4.6520
G1 X79.499 Y94.990 E4.6693
G1 X75.501 Y98.989 E4.8425
G1 X75.501 Y99.554 E4.8599
G1 X79.499 Y95.555 E5.0331
G1 X79.499 Y96.121 E5.0504
G1 X75.501 Y100.120 E5.2237
G1 X75.501 Y100.686 E5.2410
G1 X79.499 Y96.687 E5.4142
G1 X79.499 Y97.253 E5.4315
G1 X75.501 Y101.252 E5.6048
G1 X75.501 Y101.817 E5.6221
G1 X79.499 Y97.818 E5.7953
G1 X79.499 Y98.384 E5.8126
G1 X75.501 Y102.383 E5.9859
G1 X75.501 Y102.949 E6.0032
G1 X79.499 Y98.950 E6.1764
G1 X79.499 Y99.515 E6.1938
G1 X76.009 Y103.006 E6.3450
G1 X76.574 Y103.006 E6.3623
G1 X79.499 Y100.081 E6.4890
G1 X79.499 Y100.647 E6.5063
G1 X77.140 Y103.006 E6.6085
G1 X77.706 Y103.006 E6.6259
G1 X79.499 Y101.212 E6.7036
G1 X79.499 Y101.778 E6.7209
G1 X78.271 Y103.006 E6.7741
G1 X78.837 Y103.006 E6.7914
G1 X79.499 Y102.344 E6.8201
G1 X79.499 Y102.909 E6.8374
G1 X79.404 Y103.004 E6.8416
G1 X79.586 Y88.680 F4800
G92 E0
G1 X83.586 Y84.680 E0.1733 F1200
G1 X84.152 Y84.680 E0.1906
G1 X80.152 Y88.680 E0.3639
G1 X80.718 Y88.680 E0.3812
G1 X84.718 Y84.680 E0.5545
G1 X85.283 Y84.680 E0.5718
G1 X81.283 Y88.680 E0.7451
G1 X81.849 Y88.680 E0.7624
G1 X85.849 Y84.680 E0.9357
G1 X86.415 Y84.680 E0.9530
G1 X82.415 Y88.680 E1.1263
G1 X82.980 Y88.680 E1.1436
G1 X86.980 Y84.680 E1.3169
G1 X87.546 Y84.680 E1.3342
G1 X83.546 Y88.680 E1.5075
G1 X84.112 Y88.680 E1.5248
G1 X88.112 Y84.680 E1.6981
G1 X88.677 Y84.680 E1.7154
G1 X84.677 Y88.680 E1.8887
G1 X85.243 Y88.680 E1.9060
G1 X89.243 Y84.680 E2.0792
G1 X89.809 Y84.680 E2.0966
G1 X85.809 Y88.680 E2.2698
G1 X86.374 Y88.680 E2.2872
G1 X90.374 Y84.680 E2.4604
G1 X90.940 Y84.680 E2.4778
G1 X86.940 Y88.680 E2.6510
G1 X87.506 Y88.680 E2.6684
G1 X91.506 Y84.680 E2.8416
G1 X92.072 Y84.680 E2.8590
G1 X88.072 Y88.680 E3.0322
G1 X88.637 Y88.680 E3.0496
G1 X92.637 Y84.680 E3.2228
G1 X93.203 Y84.680 E3.2402
G1 X89.203 Y88.680 E3.4134
G1 X89.769 Y88.680 E3.4308
G1 X93.769 Y84.680 E3.6040
G1 X94.334 Y84.680 E3.6214
G1 X90.334 Y88.680 E3.7946
G1 X90.900 Y88.680 E3.8120
G1 X94.900 Y84.680 E3.9852
G1 X95.466 Y84.680 E4.0026
G1 X91.466 Y88.680 E4.1758
G1 X92.031 Y88.680 E4.1932
G1 X96.031 Y84.680 E4.3664
G1 X96.597 Y84.680 E4.3838
G1 X92.597 Y88.680 E4.5570
G1 X93.163 Y88.680 E4.5743
G1 X97.163 Y84.680 E4.7476
G1 X97.728 Y84.680 E4.7649
G1 X93.728 Y88.680 E4.9382
G1 X94.294 Y88.680 E4.9555
G1 X98.294 Y84.680 E5.1288
G1 X98.860 Y84.680 E5.1461
G1 X94.860 Y88.680 E5.3194
G1 X95.425 Y88.680 E5.3367
G1 X99.425 Y84.680 E5.5100
G1 X99.991 Y84.680 E5.5273
G1 X95.991 Y88.680 E5.7006
G1 X96.557 Y88.680 E5.7179
G1 X100.557 Y84.680 E5.8912
G1 X101.122 Y84.680 E5.9085
G1 X97.122 Y88.680 E6.0818
G1 X97.688 Y88.680 E6.0991
G1 X101.688 Y84.680 E6.2724
G1 X102.254 Y84.680 E6.2897
G1 X98.254 Y88.680 E6.4630
G1 X98.820 Y88.680 E6.4803
G1 X102.820 Y84.680 E6.6536
G1 X103.385 Y84.680 E6.6709
G1 X99.385 Y88.680 E6.8442
G1 X99.951 Y88.680 E6.8615
G1 X103.951 Y84.680 E7.0348
G1 X104.517 Y84.680 E7.0521
G1 X100.517 Y88.680 E7.2254
G1 X101.082 Y88.680 E7.2427
G1 X105.082 Y84.680 E7.4160
G1 X105.648 Y84.680 E7.4333
G1 X101.648 Y88.680 E7.6066
G1 X102.214 Y88.680 E7.6239
G1 X106.214 Y84.680 E7.7972
G1 X106.779 Y84.680 E7.8145
G1 X102.779 Y88.680 E7.9878
G1 X103.345 Y88.680 E8.0051
G1 X107.345 Y84.680 E8.1784
G1 X107.911 Y84.680 E8.1957
G1 X103.911 Y88.680 E8.3690
G1 X104.476 Y88.680 E8.3863
G1 X108.476 Y84.680 E8.5596
G1 X109.042 Y84.680 E8.5769
G1 X105.042 Y88.680 E8.7502
G1 X105.608 Y88.680 E8.7675
G1 X109.499 Y84.789 E8.9361
G1 X109.499 Y85.354 E8.9534
G1 X106.173 Y88.680 E9.0975
G1 X106.739 Y88.680 E9.1148
G1 X109.499 Y85.920 E9.2344
G1 X109.499 Y86.486 E9.2517
G1 X107.305 Y88.680 E9.3468
G1 X107.871 Y88.680 E9.3641
G1 X109.499 Y87.051 E9.4347
G1 X109.499 Y87.617 E9.4520
G1 X108.436 Y88.680 E9.4981
G1 X109.002 Y88.680 E9.5154
G1 X109.499 Y88.183 E9.5369
G92 E0
G1 E-3.0000 F1800
; layer 2, Z = 0.36
M106 S255
; outer perimeter
G1 X109.799 Y88.980 F4800
G1 Z0.360 F1000
G1 E0.0000 F1800
G92 E0
G1 X79.799 Y88.980 E0.9189 F1500
G1 X79.799 Y103.836 E1.3739
G1 X75.201 Y103.836 E1.5148
G1 X75.201 Y84.380 E2.1107
G1 X109.799 Y84.380 E3.1705
G1 X109.799 Y88.980 E3.3114
; solid layer
G1 X109.333 Y84.680 F4800
G92 E0
G1 X109.499 Y84.847 E0.0072 F2400
G1 X109.499 Y85.412 E0.0245
G1 X108.768 Y84.680 E0.0562
G1 X108.202 Y84.680 E0.0735
G1 X109.499 Y85.978 E0.1298
G1 X109.499 Y86.544 E0.1471
G1 X107.636 Y84.680 E0.2278
G1 X107.071 Y84.680 E0.2451
G1 X109.499 Y87.109 E0.3503
G1 X109.499 Y87.675 E0.3677
G1 X106.505 Y84.680 E0.4974
G1 X105.939 Y84.680 E0.5147
G1 X109.499 Y88.241 E0.6689
G1 X109.499 Y88.680 E0.6824
G1 X109.374 Y88.680 E0.6862
G1 X105.374 Y84.680 E0.8595
G1 X104.808 Y84.680 E0.8768
G1 X108.808 Y88.680 E1.0501
G1 X108.242 Y88.680 E1.0674
G1 X104.242 Y84.680 E1.2407
G1 X103.677 Y84.680 E1.2580
G1 X107.677 Y88.680 E1.4313
G1 X107.111 Y88.680 E1.4486
G1 X103.111 Y84.680 E1.6219
G1 X102.545 Y84.680 E1.6392
G1 X106.545 Y88.680 E1.8125
G1 X105.979 Y88.680 E1.8298
G1 X101.979 Y84.680 E2.0031
G1 X101.414 Y84.680 E2.0204
G1 X105.414 Y88.680 E2.1937
G1 X104.848 Y88.680 E2.2110
G1 X100.848 Y84.680 E2.3843
G1 X100.282 Y84.680 E2.4016
G1 X104.282 Y88.680 E2.5749
G1 X103.717 Y88.680 E2.5922
G1 X99.717 Y84.680 E2.7655
G1 X99.151 Y84.680 E2.7828
G1 X103.151 Y88.680 E2.9561
G1 X102.585 Y88.680 E2.9734
G1 X98.585 Y84.680 E3.1467
G1 X98.020 Y84.680 E3.1640
G1 X102.020 Y88.680 E3.3373
G1 X101.454 Y88.680 E3.3546
G1 X97.454 Y84.680 E3.5279
G1 X96.888 Y84.680 E3.5452
G1 X100.888 Y88.680 E3.7185
G1 X100.323 Y88.680 E3.7358
G1 X96.323 Y84.680 E3.9091
G1 X95.757 Y84.680 E3.9264
G1 X99.757 Y88.680 E4.0997
G1 X99.191 Y88.680 E4.1170
G1 X95.191 Y84.680 E4.2903
G1 X94.626 Y84.680 E4.3076
G1 X98.626 Y88.680 E4.4809
G1 X98.060 Y88.680 E4.4982
G1 X94.060 Y84.680 E4.6715
G1 X93.494 Y84.680 E4.6888
G1 X97.494 Y88.680 E4.8621
G1 X96.929 Y88.680 E4.8794
G1 X92.929 Y84.680 E5.0527
G1 X92.363 Y84.680 E5.0700
G1 X96.363 Y88.680 E5.2433
G1 X95.797 Y88.680 E5.2606
G1 X91.797 Y84.680 E5.4339
G1 X91.231 Y84.680 E5.4512
G1 X95.231 Y88.680 E5.6245
G1 X94.666 Y88.680 E5.6418
G1 X90.666 Y84.680 E5.8151
G1 X90.100 Y84.680 E5.8324
G1 X94.100 Y88.680 E6.0057
G1 X93.534 Y88.680 E6.0230
G1 X89.534 Y84.680 E6.1963
G1 X88.969 Y84.680 E6.2136
G1 X92.969 Y88.680 E6.3869
G1 X92.403 Y88.680 E6.4042
G1 X88.403 Y84.680 E6.5774
G1 X87.837 Y84.680 E6.5948
G1 X91.837 Y88.680 E6.7680
G1 X91.272 Y88.680 E6.7854
G1 X87.272 Y84.680 E6.9586
G1 X86.706 Y84.680 E6.9760
G1 X90.706 Y88.680 E7.1492
G1 X90.140 Y88.680 E7.1666
G1 X86.140 Y84.680 E7.3398
G1 X85.575 Y84.680 E7.3572
G1 X89.575 Y88.680 E7.5304
G1 X89.009 Y88.680 E7.5478
G1 X85.009 Y84.680 E7.7210
G1 X84.443 Y84.680 E7.7384
G1 X88.443 Y88.680 E7.9116
G1 X87.878 Y88.680 E7.9290
G1 X83.878 Y84.680 E8.1022
G1 X83.312 Y84.680 E8.1196
G1 X87.312 Y88.680 E8.2928
G1 X86.746 Y88.680 E8.3102
G1 X82.746 Y84.680 E8.4834
G1 X82.181 Y84.680 E8.5008
G1 X86.181 Y88.680 E8.6740
G1 X85.615 Y88.680 E8.6914
G1 X81.615 Y84.680 E8.8646
G1 X81.049 Y84.680 E8.8820
G1 X85.049 Y88.680 E9.0552
G1 X84.483 Y88.680 E9.0725
G1 X80.483 Y84.680 E9.2458
G1 X79.918 Y84.680 E9.2631
G1 X83.918 Y88.680 E9.4364
G1 X83.352 Y88.680 E9.4537
G1 X79.352 Y84.680 E9.6270
G1 X78.786 Y84.680 E9.6443
G1 X82.786 Y88.680 E9.8176
G1 X82.221 Y88.680 E9.8349
G1 X78.221 Y84.680 E10.0082
G1 X77.655 Y84.680 E10.0255
G1 X81.655 Y88.680 E10.1988
G1 X81.089 Y88.680 E10.2161
G1 X77.089 Y84.680 E10.3894
G1 X76.524 Y84.680 E10.4067
G1 X80.524 Y88.680 E10.5800
G1 X79.958 Y88.680 E10.5973
G1 X75.958 Y84.680 E10.7706
G1 X75.501 Y84.680 E10.7846
G1 X75.501 Y84.789 E10.7879
G1 X79.499 Y88.788 E10.9612
G1 X79.499 Y89.353 E10.9785
G1 X75.501 Y85.354 E11.1517
G1 X75.501 Y85.920 E11.1690
G1 X79.499 Y89.919 E11.3423
G1 X79.499 Y90.485 E11.3596
G1 X75.501 Y86.486 E11.5328
G1 X75.501 Y87.051 E11.5501
G1 X79.499 Y91.050 E11.7234
G1 X79.499 Y91.616 E11.7407
G1 X75.501 Y87.617 E11.9139
G1 X75.501 Y88.183 E11.9313
G1 X79.499 Y92.182 E12.1045
