; G-Code generated by Simplify3D(R) Version 3.0.2
; 11月 14, 2017 at 7:04:14 下午
; Settings Summary
;   processName,Process1
;   applyToModels,Z热床固定件1
;   profileName,I3
;   profileVersion,2017-07-16 15:44:41
;   baseProfile,Default
;   printMaterial,PLA
;   printQuality,Medium
;   printExtruders,
;   extruderName,Extruder 1,Primary Extruder
;   extruderToolheadNumber,0,0
;   extruderDiameter,0.4,0.4
;   extruderAutoWidth,0,0
;   extruderWidth,0.4,0.4
;   extrusionMultiplier,0.9,0.9
;   extruderUseRetract,1,1
;   extruderRetractionDistance,3,3
;   extruderExtraRestartDistance,0,0
;   extruderRetractionZLift,0,0
;   extruderRetractionSpeed,1800,1800
;   extruderUseCoasting,0,0
;   extruderCoastingDistance,0.2,0.2
;   extruderUseWipe,0,0
;   extruderWipeDistance,5,5
;   primaryExtruder,0
;   layerHeight,0.2
;   topSolidLayers,3
;   bottomSolidLayers,3
;   perimeterOutlines,1
;   printPerimetersInsideOut,1
;   startPointOption,2
;   startPointOriginX,0
;   startPointOriginY,0
;   startPointOriginZ,300
;   sequentialIslands,0
;   spiralVaseMode,0
;   firstLayerHeightPercentage,80
;   firstLayerWidthPercentage,100
;   firstLayerUnderspeed,0.5
;   useRaft,0
;   raftExtruder,0
;   raftLayers,3
;   raftOffset,3
;   raftSeparationDistance,0.14
;   raftInfill,85
;   disableRaftBaseLayers,0
;   useSkirt,1
;   skirtExtruder,0
;   skirtLayers,1
;   skirtOutlines,2
;   skirtOffset,2
;   usePrimePillar,0
;   primePillarExtruder,999
;   primePillarWidth,12
;   primePillarLocation,7
;   primePillarSpeedMultiplier,1
;   useOozeShield,0
;   oozeShieldExtruder,999
;   oozeShieldOffset,2
;   oozeShieldOutlines,1
;   oozeShieldSidewallShape,1
;   oozeShieldSidewallAngle,30
;   oozeShieldSpeedMultiplier,1
;   infillExtruder,0
;   internalInfillPattern,Rectilinear
;   externalInfillPattern,Rectilinear
;   infillPercentage,90
;   outlineOverlapPercentage,25
;   infillExtrusionWidthPercentage,125
;   minInfillLength,5
;   infillLayerInterval,1
;   infillAngles,45,-45
;   overlapInfillAngles,0
;   generateSupport,1
;   supportExtruder,0
;   supportInfillPercentage,30
;   supportExtraInflation,0
;   denseSupportLayers,0
;   denseSupportInfillPercentage,70
;   supportLayerInterval,1
;   supportHorizontalPartOffset,0.3
;   supportUpperSeparationLayers,1
;   supportLowerSeparationLayers,1
;   supportType,0
;   supportGridSpacing,4
;   maxOverhangAngle,45
;   supportAngles,0
;   temperatureName,Extruder 1 Temperature,Heated Bed
;   temperatureNumber,0,0
;   temperatureSetpointCount,1,1
;   temperatureSetpointLayers,1,1
;   temperatureSetpointTemperatures,200,70
;   temperatureStabilizeAtStartup,1,1
;   temperatureHeatedBed,0,1
;   temperatureRelayBetweenLayers,0,0
;   temperatureRelayBetweenLoops,0,0
;   fanLayers,1,2
;   fanSpeeds,0,100
;   blipFanToFullPower,0
;   adjustSpeedForCooling,1
;   minSpeedLayerTime,15
;   minCoolingSpeedSlowdown,20
;   increaseFanForCooling,0
;   minFanLayerTime,45
;   maxCoolingFanSpeed,100
;   increaseFanForBridging,0
;   bridgingFanSpeed,100
;   use5D,1
;   relativeEdistances,0
;   allowEaxisZeroing,1
;   independentExtruderAxes,0
;   includeM10123,0
;   stickySupport,1
;   applyToolheadOffsets,0
;   gcodeXoffset,0
;   gcodeYoffset,0
;   gcodeZoffset,0
;   overrideMachineDefinition,1
;   machineTypeOverride,0
;   strokeXoverride,185
;   strokeYoverride,190
;   strokeZoverride,300
;   originOffsetXoverride,0
;   originOffsetYoverride,0
;   originOffsetZoverride,0
;   homeXdirOverride,-1
;   homeYdirOverride,-1
;   homeZdirOverride,-1
;   flipXoverride,1
;   flipYoverride,-1
;   flipZoverride,1
;   toolheadOffsets,0,0|0,0|0,0|0,0|0,0|0,0
;   overrideFirmwareConfiguration,1
;   firmwareTypeOverride,RepRap (Marlin/Repetier/Sprinter)
;   GPXconfigOverride,r2
;   baudRateOverride,250000
;   overridePrinterModels,0
;   printerModelsOverride
;   startingGcode,G28 ; home all axes
;   layerChangeGcode,
;   retractionGcode,
;   toolChangeGcode,
;   endingGcode,M104 S0 ; turn off extruder,M140 S0 ; turn off bed,M84 ; disable motors
;   createX3G,0
;   celebration,0
;   celebrationSong,Random Song
;   createMB5G,0
;   postProcessing,
;   defaultSpeed,3000
;   outlineUnderspeed,0.5
;   solidInfillUnderspeed,0.8
;   supportUnderspeed,0.8
;   rapidXYspeed,4800
;   rapidZspeed,1000
;   minBridgingArea,50
;   bridgingExtraInflation,0
;   bridgingExtrusionMultiplier,1
;   bridgingSpeedMultiplier,1
;   filamentDiameter,1.73
;   filamentPricePerKg,46
;   filamentDensity,1.25
;   useMinPrintHeight,0
;   minPrintHeight,0
;   useMaxPrintHeight,0
;   maxPrintHeight,0
;   useDiaphragm,0
;   diaphragmLayerInterval,20
;   robustSlicing,1
;   mergeAllIntoSolid,0
;   onlyRetractWhenCrossingOutline,1
;   retractBetweenLayers,1
;   useRetractionMinTravel,0
;   retractionMinTravel,3
;   retractWhileWiping,0
;   onlyWipeOutlines,1
;   avoidCrossingOutline,0
;   maxMovementDetourFactor,3
;   toolChangeRetractionDistance,12
;   toolChangeExtraRestartDistance,-0.5
;   toolChangeRetractionSpeed,600
;   allowThinWallGapFill,1
;   thinWallAllowedOverlapPercentage,10
;   horizontalSizeCompensation,0
G90
M82
M106 S0
M140 S70
M190 S70
M104 S200 T0
M109 S200 T0
G28 ; home all axes
G92 E0
G1 E-3.0000 F1800
G1 Z0.160 F1000
; layer 1, Z = 0.16
T0
; tool H0.200 W0.400
; skirt
G1 X73.832 Y78.672 F4800
G1 E0.0000 F540
G92 E0
G1 X74.053 Y78.580 E0.0073 F1500
G1 X110.947 Y78.580 E1.1374
G1 X111.168 Y78.672 E1.1447
G1 X112.508 Y80.012 E1.2028
G1 X112.600 Y80.233 E1.2101
G1 X112.600 Y87.128 E1.4213
G1 X112.508 Y87.349 E1.4286
G1 X111.168 Y88.689 E1.4867
G1 X110.947 Y88.780 E1.4940
G1 X82.600 Y88.780 E2.3623
G1 X82.600 Y107.439 E2.9338
G1 X82.508 Y107.660 E2.9411
G1 X81.168 Y109.000 E2.9992
G1 X80.947 Y109.091 E3.0065
G1 X74.053 Y109.091 E3.2177
G1 X73.832 Y109.000 E3.2250
G1 X72.492 Y107.660 E3.2830
G1 X72.400 Y107.439 E3.2903
G1 X72.400 Y80.233 E4.1237
G1 X72.492 Y80.012 E4.1310
G1 X73.832 Y78.672 E4.1891
G1 X74.059 Y79.011 F4800
G92 E0
G1 X74.132 Y78.980 E0.0024 F1500
G1 X110.868 Y78.980 E1.1277
G1 X110.941 Y79.011 E1.1301
G1 X112.169 Y80.239 E1.1833
G1 X112.200 Y80.312 E1.1857
G1 X112.200 Y87.049 E1.3921
G1 X112.169 Y87.122 E1.3945
G1 X110.941 Y88.350 E1.4477
G1 X110.868 Y88.380 E1.4501
G1 X82.200 Y88.380 E2.3282
G1 X82.200 Y107.359 E2.9096
G1 X82.169 Y107.433 E2.9120
G1 X80.941 Y108.661 E2.9652
G1 X80.868 Y108.691 E2.9676
G1 X74.132 Y108.691 E3.1739
G1 X74.059 Y108.661 E3.1764
G1 X72.831 Y107.433 E3.2296
G1 X72.800 Y107.359 E3.2320
G1 X72.800 Y80.312 E4.0604
G1 X72.831 Y80.239 E4.0629
G1 X74.059 Y79.011 E4.1161
G92 E0
G1 E-3.0000 F1800
; outer perimeter
G1 X75.201 Y81.380 F4800
G1 E0.0000 F1800
G92 E0
G1 X109.799 Y81.380 E1.0598 F750
G1 X109.799 Y85.980 E1.2007
G1 X79.799 Y85.980 E2.1196
G1 X79.799 Y106.296 E2.7418
G1 X79.331 Y106.306 E2.7562
G1 X75.669 Y106.306 E2.8684
G1 X75.201 Y106.296 E2.8827
G1 X75.201 Y81.380 E3.6459
; solid layer
G1 X75.501 Y82.018 F4800
G92 E0
G1 X75.838 Y81.680 E0.0146 F1200
G1 X76.404 Y81.680 E0.0320
G1 X75.501 Y82.584 E0.0711
G1 X75.501 Y83.150 E0.0884
G1 X76.970 Y81.680 E0.1521
G1 X77.535 Y81.680 E0.1694
G1 X75.501 Y83.715 E0.2575
G1 X75.501 Y84.281 E0.2748
G1 X78.101 Y81.680 E0.3875
G1 X78.667 Y81.680 E0.4048
G1 X75.501 Y84.847 E0.5420
G1 X75.501 Y85.412 E0.5593
G1 X79.232 Y81.680 E0.7210
G1 X79.798 Y81.680 E0.7383
G1 X75.501 Y85.978 E0.9244
G1 X75.501 Y86.544 E0.9418
G1 X80.364 Y81.680 E1.1524
G1 X80.929 Y81.680 E1.1698
G1 X75.501 Y87.109 E1.4049
G1 X75.501 Y87.675 E1.4222
G1 X81.495 Y81.680 E1.6819
G1 X82.061 Y81.680 E1.6992
G1 X75.501 Y88.241 E1.9834
G1 X75.501 Y88.806 E2.0007
G1 X82.626 Y81.680 E2.3094
G1 X83.192 Y81.680 E2.3268
G1 X75.501 Y89.372 E2.6599
G1 X75.501 Y89.938 E2.6773
G1 X79.499 Y85.939 E2.8505
G1 X79.499 Y86.504 E2.8678
G1 X75.501 Y90.503 E3.0410
G1 X75.501 Y91.069 E3.0584
G1 X79.499 Y87.070 E3.2316
G1 X79.499 Y87.636 E3.2489
G1 X75.501 Y91.635 E3.4222
G1 X75.501 Y92.201 E3.4395
G1 X79.499 Y88.202 E3.6127
G1 X79.499 Y88.767 E3.6300
G1 X75.501 Y92.766 E3.8033
G1 X75.501 Y93.332 E3.8206
G1 X79.499 Y89.333 E3.9938
G1 X79.499 Y89.899 E4.0111
G1 X75.501 Y93.898 E4.1844
G1 X75.501 Y94.463 E4.2017
G1 X79.499 Y90.464 E4.3749
G1 X79.499 Y91.030 E4.3923
G1 X75.501 Y95.029 E4.5655
G1 X75.501 Y95.595 E4.5828
G1 X79.499 Y91.596 E4.7560
G1 X79.499 Y92.161 E4.7734
G1 X75.501 Y96.160 E4.9466
G1 X75.501 Y96.726 E4.9639
G1 X79.499 Y92.727 E5.1371
G1 X79.499 Y93.293 E5.1545
G1 X75.501 Y97.292 E5.3277
G1 X75.501 Y97.857 E5.3450
G1 X79.499 Y93.858 E5.5183
G1 X79.499 Y94.424 E5.5356
G1 X75.501 Y98.423 E5.7088
G1 X75.501 Y98.989 E5.7261
G1 X79.499 Y94.990 E5.8994
G1 X79.499 Y95.555 E5.9167
G1 X75.501 Y99.554 E6.0899
G1 X75.501 Y100.120 E6.1072
G1 X79.499 Y96.121 E6.2805
G1 X79.499 Y96.687 E6.2978
G1 X75.501 Y100.686 E6.4710
G1 X75.501 Y101.252 E6.4884
G1 X79.499 Y97.253 E6.6616
G1 X79.499 Y97.818 E6.6789
G1 X75.501 Y101.817 E6.8521
G1 X75.501 Y102.383 E6.8695
G1 X79.499 Y98.384 E7.0427
G1 X79.499 Y98.950 E7.0600
G1 X75.501 Y102.949 E7.2332
G1 X75.501 Y103.514 E7.2506
G1 X79.499 Y99.515 E7.4238
G1 X79.499 Y100.081 E7.4411
G1 X75.501 Y104.080 E7.6144
G1 X75.501 Y104.646 E7.6317
G1 X79.499 Y100.647 E7.8049
G1 X79.499 Y101.212 E7.8222
G1 X75.501 Y105.211 E7.9955
G1 X75.501 Y105.777 E8.0128
G1 X79.499 Y101.778 E8.1860
G1 X79.499 Y102.344 E8.2033
G1 X75.837 Y106.006 E8.3620
G1 X76.403 Y106.006 E8.3793
G1 X79.499 Y102.909 E8.5135
G1 X79.499 Y103.475 E8.5308
G1 X76.968 Y106.006 E8.6404
G1 X77.534 Y106.006 E8.6578
G1 X79.499 Y104.041 E8.7429
G1 X79.499 Y104.606 E8.7602
G1 X78.100 Y106.006 E8.8209
G1 X78.666 Y106.006 E8.8382
G1 X79.499 Y105.172 E8.8743
G1 X79.499 Y105.738 E8.8916
G1 X79.231 Y106.006 E8.9033
G1 X79.758 Y85.680 F4800
G92 E0
G1 X83.758 Y81.680 E0.1733 F1200
G1 X84.323 Y81.680 E0.1906
G1 X80.323 Y85.680 E0.3639
G1 X80.889 Y85.680 E0.3812
G1 X84.889 Y81.680 E0.5545
G1 X85.455 Y81.680 E0.5718
G1 X81.455 Y85.680 E0.7451
G1 X82.021 Y85.680 E0.7624
G1 X86.021 Y81.680 E0.9357
G1 X86.586 Y81.680 E0.9530
G1 X82.586 Y85.680 E1.1263
G1 X83.152 Y85.680 E1.1436
G1 X87.152 Y81.680 E1.3169
G1 X87.718 Y81.680 E1.3342
G1 X83.718 Y85.680 E1.5075
G1 X84.283 Y85.680 E1.5248
G1 X88.283 Y81.680 E1.6981
G1 X88.849 Y81.680 E1.7154
G1 X84.849 Y85.680 E1.8887
G1 X85.415 Y85.680 E1.9060
G1 X89.415 Y81.680 E2.0792
G1 X89.980 Y81.680 E2.0966
G1 X85.980 Y85.680 E2.2698
G1 X86.546 Y85.680 E2.2872
G1 X90.546 Y81.680 E2.4604
G1 X91.112 Y81.680 E2.4778
G1 X87.112 Y85.680 E2.6510
G1 X87.677 Y85.680 E2.6684
G1 X91.677 Y81.680 E2.8416
G1 X92.243 Y81.680 E2.8590
G1 X88.243 Y85.680 E3.0322
G1 X88.809 Y85.680 E3.0496
G1 X92.809 Y81.680 E3.2228
G1 X93.374 Y81.680 E3.2402
G1 X89.374 Y85.680 E3.4134
G1 X89.940 Y85.680 E3.4308
G1 X93.940 Y81.680 E3.6040
G1 X94.506 Y81.680 E3.6214
G1 X90.506 Y85.680 E3.7946
G1 X91.072 Y85.680 E3.8120
G1 X95.072 Y81.680 E3.9852
G1 X95.637 Y81.680 E4.0026
G1 X91.637 Y85.680 E4.1758
G1 X92.203 Y85.680 E4.1932
G1 X96.203 Y81.680 E4.3664
G1 X96.769 Y81.680 E4.3838
G1 X92.769 Y85.680 E4.5570
G1 X93.334 Y85.680 E4.5743
G1 X97.334 Y81.680 E4.7476
G1 X97.900 Y81.680 E4.7649
G1 X93.900 Y85.680 E4.9382
G1 X94.466 Y85.680 E4.9555
G1 X98.466 Y81.680 E5.1288
G1 X99.031 Y81.680 E5.1461
G1 X95.031 Y85.680 E5.3194
G1 X95.597 Y85.680 E5.3367
G1 X99.597 Y81.680 E5.5100
G1 X100.163 Y81.680 E5.5273
G1 X96.163 Y85.680 E5.7006
G1 X96.728 Y85.680 E5.7179
G1 X100.728 Y81.680 E5.8912
G1 X101.294 Y81.680 E5.9085
G1 X97.294 Y85.680 E6.0818
G1 X97.860 Y85.680 E6.0991
G1 X101.860 Y81.680 E6.2724
G1 X102.425 Y81.680 E6.2897
G1 X98.425 Y85.680 E6.4630
G1 X98.991 Y85.680 E6.4803
G1 X102.991 Y81.680 E6.6536
G1 X103.557 Y81.680 E6.6709
G1 X99.557 Y85.680 E6.8442
G1 X100.122 Y85.680 E6.8615
G1 X104.122 Y81.680 E7.0348
G1 X104.688 Y81.680 E7.0521
G1 X100.688 Y85.680 E7.2254
G1 X101.254 Y85.680 E7.2427
G1 X105.254 Y81.680 E7.4160
G1 X105.820 Y81.680 E7.4333
G1 X101.820 Y85.680 E7.6066
G1 X102.385 Y85.680 E7.6239
G1 X106.385 Y81.680 E7.7972
G1 X106.951 Y81.680 E7.8145
G1 X102.951 Y85.680 E7.9878
G1 X103.517 Y85.680 E8.0051
G1 X107.517 Y81.680 E8.1784
G1 X108.082 Y81.680 E8.1957
G1 X104.082 Y85.680 E8.3690
G1 X104.648 Y85.680 E8.3863
G1 X108.648 Y81.680 E8.5596
G1 X109.214 Y81.680 E8.5769
G1 X105.214 Y85.680 E8.7502
G1 X105.779 Y85.680 E8.7675
G1 X109.499 Y81.960 E8.9287
G1 X109.499 Y82.526 E8.9460
G1 X106.345 Y85.680 E9.0826
G1 X106.911 Y85.680 E9.1000
G1 X109.499 Y83.092 E9.2121
G1 X109.499 Y83.657 E9.2294
G1 X107.476 Y85.680 E9.3171
G1 X108.042 Y85.680 E9.3344
G1 X109.499 Y84.223 E9.3975
G1 X109.499 Y84.789 E9.4148
G1 X108.608 Y85.680 E9.4535
G1 X109.173 Y85.680 E9.4708
G1 X109.499 Y85.354 E9.4849
G92 E0
G1 E-3.0000 F1800
; layer 2, Z = 0.36
M106 S255
; outer perimeter
G1 X109.799 Y85.980 F4800
G1 Z0.360 F1000
G1 E0.0000 F1800
G92 E0
G1 X79.799 Y85.980 E0.9189 F1500
G1 X79.799 Y106.836 E1.5577
G1 X75.201 Y106.836 E1.6986
G1 X75.201 Y81.380 E2.4783
G1 X109.799 Y81.380 E3.5380
G1 X109.799 Y85.980 E3.6789
; solid layer
G1 X109.162 Y81.680 F4800
G92 E0
G1 X109.499 Y82.018 E0.0146 F2400
G1 X109.499 Y82.584 E0.0320
G1 X108.596 Y81.680 E0.0711
G1 X108.030 Y81.680 E0.0884
G1 X109.499 Y83.150 E0.1520
G1 X109.499 Y83.715 E0.1694
G1 X107.465 Y81.680 E0.2575
G1 X106.899 Y81.680 E0.2748
G1 X109.499 Y84.281 E0.3875
G1 X109.499 Y84.847 E0.4048
G1 X106.333 Y81.680 E0.5420
G1 X105.768 Y81.680 E0.5593
G1 X109.499 Y85.412 E0.7209
G1 X109.499 Y85.680 E0.7292
G1 X109.202 Y85.680 E0.7383
G1 X105.202 Y81.680 E0.9115
G1 X104.636 Y81.680 E0.9289
G1 X108.636 Y85.680 E1.1021
G1 X108.071 Y85.680 E1.1195
G1 X104.071 Y81.680 E1.2927
G1 X103.505 Y81.680 E1.3101
G1 X107.505 Y85.680 E1.4833
G1 X106.939 Y85.680 E1.5007
G1 X102.939 Y81.680 E1.6739
G1 X102.374 Y81.680 E1.6913
G1 X106.374 Y85.680 E1.8645
G1 X105.808 Y85.680 E1.8819
G1 X101.808 Y81.680 E2.0551
G1 X101.242 Y81.680 E2.0725
G1 X105.242 Y85.680 E2.2457
G1 X104.677 Y85.680 E2.2630
G1 X100.677 Y81.680 E2.4363
G1 X100.111 Y81.680 E2.4536
G1 X104.111 Y85.680 E2.6269
G1 X103.545 Y85.680 E2.6442
G1 X99.545 Y81.680 E2.8175
G1 X98.979 Y81.680 E2.8348
G1 X102.979 Y85.680 E3.0081
G1 X102.414 Y85.680 E3.0254
G1 X98.414 Y81.680 E3.1987
G1 X97.848 Y81.680 E3.2160
G1 X101.848 Y85.680 E3.3893
G1 X101.282 Y85.680 E3.4066
G1 X97.282 Y81.680 E3.5799
G1 X96.717 Y81.680 E3.5972
G1 X100.717 Y85.680 E3.7705
G1 X100.151 Y85.680 E3.7878
G1 X96.151 Y81.680 E3.9611
G1 X95.585 Y81.680 E3.9784
G1 X99.585 Y85.680 E4.1517
G1 X99.020 Y85.680 E4.1690
G1 X95.020 Y81.680 E4.3423
G1 X94.454 Y81.680 E4.3596
G1 X98.454 Y85.680 E4.5329
G1 X97.888 Y85.680 E4.5502
G1 X93.888 Y81.680 E4.7235
G1 X93.323 Y81.680 E4.7408
G1 X97.323 Y85.680 E4.9141
G1 X96.757 Y85.680 E4.9314
G1 X92.757 Y81.680 E5.1047
G1 X92.191 Y81.680 E5.1220
G1 X96.191 Y85.680 E5.2953
G1 X95.626 Y85.680 E5.3126
G1 X91.626 Y81.680 E5.4859
G1 X91.060 Y81.680 E5.5032
G1 X95.060 Y85.680 E5.6765
G1 X94.494 Y85.680 E5.6938
G1 X90.494 Y81.680 E5.8671
G1 X89.929 Y81.680 E5.8844
G1 X93.929 Y85.680 E6.0577
G1 X93.363 Y85.680 E6.0750
G1 X89.363 Y81.680 E6.2483
G1 X88.797 Y81.680 E6.2656
G1 X92.797 Y85.680 E6.4389
G1 X92.231 Y85.680 E6.4562
G1 X88.231 Y81.680 E6.6295
G1 X87.666 Y81.680 E6.6468
G1 X91.666 Y85.680 E6.8201
G1 X91.100 Y85.680 E6.8374
G1 X87.100 Y81.680 E7.0107
G1 X86.534 Y81.680 E7.0280
G1 X90.534 Y85.680 E7.2013
G1 X89.969 Y85.680 E7.2186
G1 X85.969 Y81.680 E7.3919
G1 X85.403 Y81.680 E7.4092
G1 X89.403 Y85.680 E7.5825
G1 X88.837 Y85.680 E7.5998
G1 X84.837 Y81.680 E7.7731
G1 X84.272 Y81.680 E7.7904
G1 X88.272 Y85.680 E7.9637
G1 X87.706 Y85.680 E7.9810
G1 X83.706 Y81.680 E8.1543
G1 X83.140 Y81.680 E8.1716
G1 X87.140 Y85.680 E8.3449
G1 X86.575 Y85.680 E8.3622
G1 X82.575 Y81.680 E8.5355
G1 X82.009 Y81.680 E8.5528
G1 X86.009 Y85.680 E8.7261
G1 X85.443 Y85.680 E8.7434
G1 X81.443 Y81.680 E8.9166
G1 X80.878 Y81.680 E8.9340
G1 X84.878 Y85.680 E9.1072
G1 X84.312 Y85.680 E9.1246
G1 X80.312 Y81.680 E9.2978
G1 X79.746 Y81.680 E9.3152
G1 X83.746 Y85.680 E9.4884
G1 X83.181 Y85.680 E9.5058
G1 X79.181 Y81.680 E9.6790
G1 X78.615 Y81.680 E9.6964
G1 X82.615 Y85.680 E9.8696
G1 X82.049 Y85.680 E9.8870
G1 X78.049 Y81.680 E10.0602
G1 X77.483 Y81.680 E10.0776
G1 X81.483 Y85.680 E10.2508
G1 X80.918 Y85.680 E10.2682
