; G-Code generated by Simplify3D(R) Version 3.0.2
; 11月 14, 2017 at 7:06:03 下午
; Settings Summary
;   processName,Process1
;   applyToModels,电源固定件5
;   profileName,I3
;   profileVersion,2017-07-16 15:44:41
;   baseProfile,Default
;   printMaterial,PLA
;   printQuality,Medium
;   printExtruders,
;   extruderName,Extruder 1,Primary Extruder
;   extruderToolheadNumber,0,0
;   extruderDiameter,0.4,0.4
;   extruderAutoWidth,0,0
;   extruderWidth,0.4,0.4
;   extrusionMultiplier,0.9,0.9
;   extruderUseRetract,1,1
;   extruderRetractionDistance,3,3
;   extruderExtraRestartDistance,0,0
;   extruderRetractionZLift,0,0
;   extruderRetractionSpeed,1800,1800
;   extruderUseCoasting,0,0
;   extruderCoastingDistance,0.2,0.2
;   extruderUseWipe,0,0
;   extruderWipeDistance,5,5
;   primaryExtruder,0
;   layerHeight,0.2
;   topSolidLayers,3
;   bottomSolidLayers,3
;   perimeterOutlines,1
;   printPerimetersInsideOut,1
;   startPointOption,2
;   startPointOriginX,0
;   startPointOriginY,0
;   startPointOriginZ,300
;   sequentialIslands,0
;   spiralVaseMode,0
;   firstLayerHeightPercentage,80
;   firstLayerWidthPercentage,100
;   firstLayerUnderspeed,0.5
;   useRaft,0
;   raftExtruder,0
;   raftLayers,3
;   raftOffset,3
;   raftSeparationDistance,0.14
;   raftInfill,85
;   disableRaftBaseLayers,0
;   useSkirt,1
;   skirtExtruder,0
;   skirtLayers,1
;   skirtOutlines,2
;   skirtOffset,2
;   usePrimePillar,0
;   primePillarExtruder,999
;   primePillarWidth,12
;   primePillarLocation,7
;   primePillarSpeedMultiplier,1
;   useOozeShield,0
;   oozeShieldExtruder,999
;   oozeShieldOffset,2
;   oozeShieldOutlines,1
;   oozeShieldSidewallShape,1
;   oozeShieldSidewallAngle,30
;   oozeShieldSpeedMultiplier,1
;   infillExtruder,0
;   internalInfillPattern,Rectilinear
;   externalInfillPattern,Rectilinear
;   infillPercentage,90
;   outlineOverlapPercentage,25
;   infillExtrusionWidthPercentage,125
;   minInfillLength,5
;   infillLayerInterval,1
;   infillAngles,45,-45
;   overlapInfillAngles,0
;   generateSupport,1
;   supportExtruder,0
;   supportInfillPercentage,30
;   supportExtraInflation,0
;   denseSupportLayers,0
;   denseSupportInfillPercentage,70
;   supportLayerInterval,1
;   supportHorizontalPartOffset,0.3
;   supportUpperSeparationLayers,1
;   supportLowerSeparationLayers,1
;   supportType,0
;   supportGridSpacing,4
;   maxOverhangAngle,45
;   supportAngles,0
;   temperatureName,Extruder 1 Temperature,Heated Bed
;   temperatureNumber,0,0
;   temperatureSetpointCount,1,1
;   temperatureSetpointLayers,1,1
;   temperatureSetpointTemperatures,200,70
;   temperatureStabilizeAtStartup,1,1
;   temperatureHeatedBed,0,1
;   temperatureRelayBetweenLayers,0,0
;   temperatureRelayBetweenLoops,0,0
;   fanLayers,1,2
;   fanSpeeds,0,100
;   blipFanToFullPower,0
;   adjustSpeedForCooling,1
;   minSpeedLayerTime,15
;   minCoolingSpeedSlowdown,20
;   increaseFanForCooling,0
;   minFanLayerTime,45
;   maxCoolingFanSpeed,100
;   increaseFanForBridging,0
;   bridgingFanSpeed,100
;   use5D,1
;   relativeEdistances,0
;   allowEaxisZeroing,1
;   independentExtruderAxes,0
;   includeM10123,0
;   stickySupport,1
;   applyToolheadOffsets,0
;   gcodeXoffset,0
;   gcodeYoffset,0
;   gcodeZoffset,0
;   overrideMachineDefinition,1
;   machineTypeOverride,0
;   strokeXoverride,185
;   strokeYoverride,190
;   strokeZoverride,300
;   originOffsetXoverride,0
;   originOffsetYoverride,0
;   originOffsetZoverride,0
;   homeXdirOverride,-1
;   homeYdirOverride,-1
;   homeZdirOverride,-1
;   flipXoverride,1
;   flipYoverride,-1
;   flipZoverride,1
;   toolheadOffsets,0,0|0,0|0,0|0,0|0,0|0,0
;   overrideFirmwareConfiguration,1
;   firmwareTypeOverride,RepRap (Marlin/Repetier/Sprinter)
;   GPXconfigOverride,r2
;   baudRateOverride,250000
;   overridePrinterModels,0
;   printerModelsOverride
;   startingGcode,G28 ; home all axes
;   layerChangeGcode,
;   retractionGcode,
;   toolChangeGcode,
;   endingGcode,M104 S0 ; turn off extruder,M140 S0 ; turn off bed,M84 ; disable motors
;   createX3G,0
;   celebration,0
;   celebrationSong,Random Song
;   createMB5G,0
;   postProcessing,
;   defaultSpeed,3000
;   outlineUnderspeed,0.5
;   solidInfillUnderspeed,0.8
;   supportUnderspeed,0.8
;   rapidXYspeed,4800
;   rapidZspeed,1000
;   minBridgingArea,50
;   bridgingExtraInflation,0
;   bridgingExtrusionMultiplier,1
;   bridgingSpeedMultiplier,1
;   filamentDiameter,1.73
;   filamentPricePerKg,46
;   filamentDensity,1.25
;   useMinPrintHeight,0
;   minPrintHeight,0
;   useMaxPrintHeight,0
;   maxPrintHeight,0
;   useDiaphragm,0
;   diaphragmLayerInterval,20
;   robustSlicing,1
;   mergeAllIntoSolid,0
;   onlyRetractWhenCrossingOutline,1
;   retractBetweenLayers,1
;   useRetractionMinTravel,0
;   retractionMinTravel,3
;   retractWhileWiping,0
;   onlyWipeOutlines,1
;   avoidCrossingOutline,0
;   maxMovementDetourFactor,3
;   toolChangeRetractionDistance,12
;   toolChangeExtraRestartDistance,-0.5
;   toolChangeRetractionSpeed,600
;   allowThinWallGapFill,1
;   thinWallAllowedOverlapPercentage,10
;   horizontalSizeCompensation,0
G90
M82
M106 S0
M140 S70
M190 S70
M104 S200 T0
M109 S200 T0
G28 ; home all axes
G92 E0
G1 E-3.0000 F1800
G1 Z0.160 F1000
; layer 1, Z = 0.16
T0
; tool H0.200 W0.400
; skirt
G1 X71.332 Y88.491 F4800
G1 E0.0000 F540
G92 E0
G1 X71.552 Y88.400 E0.0073 F1500
G1 X113.448 Y88.400 E1.2906
G1 X113.668 Y88.491 E1.2979
G1 X115.009 Y89.832 E1.3560
G1 X115.100 Y90.052 E1.3633
G1 X115.100 Y99.948 E1.6664
G1 X115.009 Y100.168 E1.6737
G1 X113.668 Y101.509 E1.7317
G1 X113.448 Y101.600 E1.7391
G1 X71.552 Y101.600 E3.0223
G1 X71.332 Y101.509 E3.0296
G1 X69.991 Y100.168 E3.0877
G1 X69.900 Y99.948 E3.0950
G1 X69.900 Y90.052 E3.3981
G1 X69.991 Y89.832 E3.4054
G1 X71.332 Y88.491 E3.4635
G1 X71.558 Y88.830 F4800
G92 E0
G1 X71.632 Y88.800 E0.0024 F1500
G1 X113.368 Y88.800 E1.2808
G1 X113.442 Y88.830 E1.2833
G1 X114.670 Y90.058 E1.3365
G1 X114.700 Y90.132 E1.3389
G1 X114.700 Y99.868 E1.6371
G1 X114.670 Y99.942 E1.6396
G1 X113.442 Y101.170 E1.6927
G1 X113.368 Y101.200 E1.6952
G1 X71.632 Y101.200 E2.9736
G1 X71.558 Y101.170 E2.9760
G1 X70.330 Y99.942 E3.0292
G1 X70.300 Y99.868 E3.0316
G1 X70.300 Y90.132 E3.3299
G1 X70.330 Y90.058 E3.3323
G1 X71.558 Y88.830 E3.3855
G92 E0
G1 E-3.0000 F1800
; outer perimeter
G1 X72.700 Y91.200 F4800
G1 E0.0000 F1800
G92 E0
G1 X112.300 Y91.200 E1.2130 F750
G1 X112.300 Y98.800 E1.4457
G1 X72.700 Y98.800 E2.6587
G1 X72.700 Y91.200 E2.8915
; outer perimeter
G1 X75.100 Y93.570 F4800
G92 E0
G1 X74.839 Y93.883 E0.0125 F750
G1 X74.649 Y94.240 E0.0248
G1 X74.536 Y94.617 E0.0369
G1 X74.499 Y94.999 E0.0487
G1 X74.532 Y95.360 E0.0598
G1 X74.636 Y95.728 E0.0715
G1 X74.817 Y96.082 E0.0837
G1 X75.070 Y96.400 E0.0961
G1 X75.383 Y96.661 E0.1086
G1 X75.740 Y96.851 E0.1210
G1 X76.117 Y96.964 E0.1330
G1 X76.499 Y97.001 E0.1448
G1 X76.860 Y96.968 E0.1559
G1 X77.228 Y96.864 E0.1676
G1 X77.582 Y96.683 E0.1798
G1 X77.900 Y96.430 E0.1922
G1 X78.161 Y96.117 E0.2047
G1 X78.351 Y95.760 E0.2171
G1 X78.464 Y95.383 E0.2292
G1 X78.501 Y95.001 E0.2409
G1 X78.468 Y94.640 E0.2520
G1 X78.364 Y94.272 E0.2637
G1 X78.183 Y93.918 E0.2759
G1 X77.930 Y93.600 E0.2884
G1 X77.617 Y93.339 E0.3008
G1 X77.260 Y93.149 E0.3132
G1 X76.883 Y93.036 E0.3253
G1 X76.501 Y92.999 E0.3370
G1 X76.140 Y93.032 E0.3481
G1 X75.772 Y93.136 E0.3598
G1 X75.418 Y93.317 E0.3720
G1 X75.100 Y93.570 E0.3845
G92 E0
G1 E-3.0000 F1800
; outer perimeter
G1 X100.536 Y94.617 F4800
G1 E0.0000 F1800
G92 E0
G1 X100.499 Y94.999 E0.0118 F750
G1 X100.532 Y95.360 E0.0228
G1 X100.636 Y95.728 E0.0345
G1 X100.817 Y96.082 E0.0467
G1 X101.070 Y96.400 E0.0592
G1 X101.383 Y96.661 E0.0717
G1 X101.740 Y96.851 E0.0840
G1 X102.117 Y96.964 E0.0961
G1 X102.499 Y97.001 E0.1079
G1 X102.860 Y96.968 E0.1190
G1 X103.228 Y96.864 E0.1307
G1 X103.582 Y96.683 E0.1429
G1 X103.900 Y96.430 E0.1553
G1 X104.161 Y96.117 E0.1678
G1 X104.351 Y95.760 E0.1802
G1 X104.464 Y95.383 E0.1922
G1 X104.501 Y95.001 E0.2040
G1 X104.468 Y94.640 E0.2151
G1 X104.364 Y94.272 E0.2268
G1 X104.183 Y93.918 E0.2390
G1 X103.930 Y93.600 E0.2514
G1 X103.617 Y93.339 E0.2639
G1 X103.260 Y93.149 E0.2763
G1 X102.883 Y93.036 E0.2884
G1 X102.501 Y92.999 E0.3001
G1 X102.140 Y93.032 E0.3112
G1 X101.772 Y93.136 E0.3229
G1 X101.418 Y93.317 E0.3351
G1 X101.100 Y93.570 E0.3476
G1 X100.839 Y93.883 E0.3600
G1 X100.649 Y94.240 E0.3724
G1 X100.536 Y94.617 E0.3845
G92 E0
G1 E-3.0000 F1800
; outer perimeter
G1 X107.033 Y94.636 F4800
G1 E0.0000 F1800
G92 E0
G1 X106.999 Y95.000 E0.0112 F750
G1 X107.033 Y95.366 E0.0225
G1 X107.140 Y95.739 E0.0343
G1 X107.326 Y96.097 E0.0467
G1 X107.586 Y96.416 E0.0593
G1 X107.906 Y96.675 E0.0719
G1 X108.264 Y96.861 E0.0843
G1 X108.636 Y96.967 E0.0961
G1 X109.000 Y97.001 E0.1073
G1 X109.366 Y96.967 E0.1186
G1 X109.739 Y96.860 E0.1305
G1 X110.097 Y96.674 E0.1428
G1 X110.416 Y96.414 E0.1554
G1 X110.675 Y96.094 E0.1680
G1 X110.861 Y95.736 E0.1804
G1 X110.967 Y95.364 E0.1922
G1 X111.001 Y95.000 E0.2034
G1 X110.967 Y94.634 E0.2147
G1 X110.860 Y94.261 E0.2266
G1 X110.674 Y93.903 E0.2389
G1 X110.414 Y93.584 E0.2516
G1 X110.094 Y93.325 E0.2642
G1 X109.736 Y93.139 E0.2765
G1 X109.364 Y93.033 E0.2884
G1 X109.000 Y92.999 E0.2996
G1 X108.634 Y93.033 E0.3108
G1 X108.261 Y93.140 E0.3227
G1 X107.903 Y93.326 E0.3351
G1 X107.584 Y93.586 E0.3477
G1 X107.325 Y93.906 E0.3603
G1 X107.139 Y94.264 E0.3726
G1 X107.033 Y94.636 E0.3845
; solid layer
G1 X108.243 Y92.833 F4800
G92 E0
G1 X109.576 Y91.500 E0.0578 F1200
G1 X110.142 Y91.500 E0.0751
G1 X108.939 Y92.704 E0.1272
G1 X109.000 Y92.698 E0.1291
G1 X109.420 Y92.736 E0.1420
G1 X109.460 Y92.748 E0.1433
G1 X110.708 Y91.500 E0.1974
G1 X111.274 Y91.500 E0.2147
G1 X109.892 Y92.882 E0.2745
G1 X110.259 Y93.072 E0.2872
G1 X110.264 Y93.076 E0.2874
G1 X111.839 Y91.500 E0.3557
G1 X112.000 Y91.500 E0.3606
G1 X112.000 Y91.905 E0.3730
G1 X110.576 Y93.329 E0.4347
G1 X110.627 Y93.370 E0.4367
G1 X110.839 Y93.631 E0.4470
G1 X112.000 Y92.471 E0.4973
G1 X112.000 Y93.036 E0.5146
G1 X111.053 Y93.983 E0.5556
G1 X111.140 Y94.149 E0.5613
G1 X111.210 Y94.392 E0.5691
G1 X112.000 Y93.602 E0.6033
G1 X112.000 Y94.168 E0.6207
G1 X111.291 Y94.877 E0.6514
G1 X112.000 Y98.127 F4800
G92 E0
G1 X111.627 Y98.500 E0.0161 F1200
G1 X111.062 Y98.500 E0.0335
G1 X112.000 Y97.562 E0.0741
G1 X112.000 Y96.996 E0.0914
G1 X110.496 Y98.500 E0.1566
G1 X109.930 Y98.500 E0.1739
G1 X112.000 Y96.430 E0.2636
G1 X112.000 Y95.865 E0.2809
G1 X109.365 Y98.500 E0.3950
G1 X108.799 Y98.500 E0.4124
G1 X112.000 Y95.299 E0.5510
G1 X112.000 Y94.733 E0.5684
G1 X111.243 Y95.490 E0.6011
G1 X111.141 Y95.848 E0.6125
G1 X110.928 Y96.259 E0.6267
G1 X110.630 Y96.627 E0.6412
G1 X110.262 Y96.926 E0.6557
G1 X109.851 Y97.140 E0.6699
G1 X109.490 Y97.244 E0.6814
G1 X108.233 Y98.500 E0.7359
G1 X107.668 Y98.500 E0.7532
G1 X108.877 Y97.291 E0.8056
G1 X108.580 Y97.264 E0.8147
G1 X108.392 Y97.210 E0.8207
G1 X107.102 Y98.500 E0.8766
G1 X106.536 Y98.500 E0.8939
G1 X107.983 Y97.053 E0.9566
G1 X107.741 Y96.928 E0.9649
G1 X107.631 Y96.839 E0.9692
G1 X105.971 Y98.500 E1.0412
G1 X105.405 Y98.500 E1.0585
G1 X107.329 Y96.576 E1.1419
G1 X107.075 Y96.264 E1.1542
G1 X104.839 Y98.500 E1.2511
G1 X104.274 Y98.500 E1.2684
G1 X106.882 Y95.892 E1.3814
G1 X106.860 Y95.851 E1.3828
G1 X106.748 Y95.460 E1.3952
G1 X103.708 Y98.500 E1.5269
G1 X103.142 Y98.500 E1.5442
G1 X106.704 Y94.939 E1.6985
G1 X106.736 Y94.580 E1.7095
G1 X106.833 Y94.243 E1.7203
G1 X102.576 Y98.500 E1.9047
G1 X102.011 Y98.500 E1.9220
G1 X103.396 Y97.115 E1.9820
G1 X103.338 Y97.145 E1.9840
G1 X102.915 Y97.264 E1.9975
G1 X102.657 Y97.288 E2.0054
G1 X101.445 Y98.500 E2.0579
G1 X100.879 Y98.500 E2.0752
G1 X102.114 Y97.265 E2.1287
G1 X102.059 Y97.260 E2.1304
G1 X101.670 Y97.143 E2.1428
G1 X100.314 Y98.500 E2.2016
G1 X99.748 Y98.500 E2.2189
G1 X101.295 Y96.953 E2.2859
G1 X101.215 Y96.911 E2.2887
G1 X100.973 Y96.709 E2.2983
G1 X99.182 Y98.500 E2.3759
G1 X98.617 Y98.500 E2.3932
G1 X100.700 Y96.417 E2.4835
G1 X100.563 Y96.246 E2.4902
G1 X100.476 Y96.075 E2.4961
G1 X98.051 Y98.500 E2.6011
G1 X97.485 Y98.500 E2.6184
G1 X100.310 Y95.676 E2.7408
G1 X100.236 Y95.415 E2.7491
G1 X100.216 Y95.203 E2.7556
G1 X96.920 Y98.500 E2.8984
G1 X96.354 Y98.500 E2.9157
G1 X100.234 Y94.620 E3.0838
G1 X100.240 Y94.559 E3.0857
G1 X100.370 Y94.125 E3.0996
G1 X100.589 Y93.715 E3.1138
G1 X100.669 Y93.619 E3.1176
G1 X95.788 Y98.500 E3.3290
G1 X95.223 Y98.500 E3.3463
G1 X102.223 Y91.500 E3.6496
G1 X101.657 Y91.500 E3.6669
G1 X94.657 Y98.500 E3.9701
G1 X94.091 Y98.500 E3.9874
G1 X101.091 Y91.500 E4.2907
G1 X100.526 Y91.500 E4.3080
G1 X93.526 Y98.500 E4.6112
G1 X92.960 Y98.500 E4.6285
G1 X99.960 Y91.500 E4.9318
G1 X99.394 Y91.500 E4.9491
G1 X92.394 Y98.500 E5.2523
G1 X91.828 Y98.500 E5.2696
G1 X98.828 Y91.500 E5.5729
G1 X98.263 Y91.500 E5.5902
G1 X91.263 Y98.500 E5.8934
G1 X90.697 Y98.500 E5.9107
G1 X97.697 Y91.500 E6.2140
G1 X97.131 Y91.500 E6.2313
G1 X90.131 Y98.500 E6.5345
G1 X89.566 Y98.500 E6.5518
G1 X96.566 Y91.500 E6.8551
G1 X96.000 Y91.500 E6.8724
G1 X89.000 Y98.500 E7.1756
G1 X88.434 Y98.500 E7.1930
G1 X95.434 Y91.500 E7.4962
G1 X94.869 Y91.500 E7.5135
G1 X87.869 Y98.500 E7.8167
G1 X87.303 Y98.500 E7.8341
G1 X94.303 Y91.500 E8.1373
G1 X93.737 Y91.500 E8.1546
G1 X86.737 Y98.500 E8.4578
G1 X86.172 Y98.500 E8.4752
G1 X93.172 Y91.500 E8.7784
G1 X92.606 Y91.500 E8.7957
G1 X85.606 Y98.500 E9.0989
G1 X85.040 Y98.500 E9.1163
G1 X92.040 Y91.500 E9.4195
G1 X91.475 Y91.500 E9.4368
G1 X84.475 Y98.500 E9.7400
G1 X83.909 Y98.500 E9.7574
G1 X90.909 Y91.500 E10.0606
G1 X90.343 Y91.500 E10.0779
G1 X83.343 Y98.500 E10.3811
G1 X82.777 Y98.500 E10.3985
G1 X89.777 Y91.500 E10.7017
G1 X89.212 Y91.500 E10.7190
G1 X82.212 Y98.500 E11.0222
G1 X81.646 Y98.500 E11.0396
G1 X88.646 Y91.500 E11.3428
G1 X88.080 Y91.500 E11.3601
G1 X81.080 Y98.500 E11.6633
G1 X80.515 Y98.500 E11.6807
G1 X87.515 Y91.500 E11.9839
G1 X86.949 Y91.500 E12.0012
G1 X79.949 Y98.500 E12.3044
G1 X79.383 Y98.500 E12.3218
G1 X86.383 Y91.500 E12.6250
G1 X85.818 Y91.500 E12.6423
G1 X78.818 Y98.500 E12.9455
G1 X78.252 Y98.500 E12.9629
G1 X85.252 Y91.500 E13.2661
G1 X84.686 Y91.500 E13.2834
G1 X77.686 Y98.500 E13.5866
G1 X77.121 Y98.500 E13.6040
G1 X84.121 Y91.500 E13.9072
G1 X83.555 Y91.500 E13.9245
G1 X76.555 Y98.500 E14.2277
G1 X75.989 Y98.500 E14.2451
G1 X77.352 Y97.137 E14.3041
G1 X77.338 Y97.145 E14.3046
G1 X76.915 Y97.264 E14.3181
G1 X76.634 Y97.290 E14.3267
G1 X75.424 Y98.500 E14.3791
G1 X74.858 Y98.500 E14.3964
G1 X76.095 Y97.263 E14.4500
G1 X76.059 Y97.260 E14.4511
G1 X75.654 Y97.138 E14.4641
G1 X74.292 Y98.500 E14.5231
G1 X73.727 Y98.500 E14.5404
G1 X75.281 Y96.946 E14.6077
G1 X75.215 Y96.911 E14.6100
G1 X74.961 Y96.700 E14.6201
G1 X73.161 Y98.500 E14.6981
G1 X73.000 Y98.500 E14.7030
G1 X73.000 Y98.095 E14.7154
G1 X74.690 Y96.405 E14.7886
G1 X74.563 Y96.246 E14.7949
G1 X74.469 Y96.060 E14.8012
G1 X73.000 Y97.529 E14.8649
G1 X73.000 Y96.964 E14.8822
G1 X74.305 Y95.659 E14.9387
G1 X74.236 Y95.415 E14.9465
G1 X74.215 Y95.184 E14.9536
G1 X73.000 Y96.398 E15.0062
G1 X73.000 Y95.832 E15.0235
G1 X74.237 Y94.596 E15.0771
G1 X74.240 Y94.559 E15.0782
G1 X74.370 Y94.125 E15.0921
G1 X74.589 Y93.715 E15.1064
G1 X74.775 Y93.491 E15.1153
G1 X73.000 Y95.267 E15.1922
G1 X73.000 Y94.701 E15.2095
G1 X76.201 Y91.500 E15.3482
G1 X75.635 Y91.500 E15.3655
G1 X73.000 Y94.135 E15.4796
G1 X73.000 Y93.570 E15.4970
G1 X75.070 Y91.500 E15.5866
G1 X74.504 Y91.500 E15.6040
G1 X73.000 Y93.004 E15.6691
G1 X73.000 Y92.438 E15.6864
G1 X73.938 Y91.500 E15.7271
G1 X73.373 Y91.500 E15.7444
G1 X73.000 Y91.873 E15.7605
G1 X75.002 Y93.265 F4800
G92 E0
G1 X76.767 Y91.500 E0.0764 F1200
G1 X77.332 Y91.500 E0.0938
G1 X76.098 Y92.734 E0.1472
G1 X76.501 Y92.698 E0.1596
G1 X76.683 Y92.715 E0.1652
G1 X77.898 Y91.500 E0.2179
G1 X78.464 Y91.500 E0.2352
G1 X77.158 Y92.805 E0.2917
G1 X77.375 Y92.870 E0.2987
G1 X77.560 Y92.969 E0.3051
G1 X79.029 Y91.500 E0.3687
G1 X79.595 Y91.500 E0.3861
G1 X77.906 Y93.190 E0.4593
G1 X78.145 Y93.389 E0.4688
G1 X78.201 Y93.459 E0.4716
G1 X80.161 Y91.500 E0.5565
G1 X80.727 Y91.500 E0.5738
G1 X78.449 Y93.778 E0.6725
G1 X78.640 Y94.153 E0.6853
G1 X81.292 Y91.500 E0.8002
