; G-Code generated by Simplify3D(R) Version 3.0.2
; 11月 14, 2017 at 6:41:44 下午
; Settings Summary
;   processName,Process1
;   applyToModels,XY光轴固定件3
;   profileName,I3
;   profileVersion,2017-07-16 15:44:41
;   baseProfile,Default
;   printMaterial,PLA
;   printQuality,Medium
;   printExtruders,
;   extruderName,Extruder 1,Primary Extruder
;   extruderToolheadNumber,0,0
;   extruderDiameter,0.4,0.4
;   extruderAutoWidth,0,0
;   extruderWidth,0.4,0.4
;   extrusionMultiplier,0.9,0.9
;   extruderUseRetract,1,1
;   extruderRetractionDistance,3,3
;   extruderExtraRestartDistance,0,0
;   extruderRetractionZLift,0,0
;   extruderRetractionSpeed,1800,1800
;   extruderUseCoasting,0,0
;   extruderCoastingDistance,0.2,0.2
;   extruderUseWipe,0,0
;   extruderWipeDistance,5,5
;   primaryExtruder,0
;   layerHeight,0.2
;   topSolidLayers,3
;   bottomSolidLayers,3
;   perimeterOutlines,1
;   printPerimetersInsideOut,1
;   startPointOption,2
;   startPointOriginX,0
;   startPointOriginY,0
;   startPointOriginZ,300
;   sequentialIslands,0
;   spiralVaseMode,0
;   firstLayerHeightPercentage,80
;   firstLayerWidthPercentage,100
;   firstLayerUnderspeed,0.5
;   useRaft,0
;   raftExtruder,0
;   raftLayers,3
;   raftOffset,3
;   raftSeparationDistance,0.14
;   raftInfill,85
;   disableRaftBaseLayers,0
;   useSkirt,1
;   skirtExtruder,0
;   skirtLayers,1
;   skirtOutlines,2
;   skirtOffset,2
;   usePrimePillar,0
;   primePillarExtruder,999
;   primePillarWidth,12
;   primePillarLocation,7
;   primePillarSpeedMultiplier,1
;   useOozeShield,0
;   oozeShieldExtruder,999
;   oozeShieldOffset,2
;   oozeShieldOutlines,1
;   oozeShieldSidewallShape,1
;   oozeShieldSidewallAngle,30
;   oozeShieldSpeedMultiplier,1
;   infillExtruder,0
;   internalInfillPattern,Rectilinear
;   externalInfillPattern,Rectilinear
;   infillPercentage,90
;   outlineOverlapPercentage,25
;   infillExtrusionWidthPercentage,125
;   minInfillLength,5
;   infillLayerInterval,1
;   infillAngles,45,-45
;   overlapInfillAngles,0
;   generateSupport,1
;   supportExtruder,0
;   supportInfillPercentage,30
;   supportExtraInflation,0
;   denseSupportLayers,0
;   denseSupportInfillPercentage,70
;   supportLayerInterval,1
;   supportHorizontalPartOffset,0.3
;   supportUpperSeparationLayers,1
;   supportLowerSeparationLayers,1
;   supportType,0
;   supportGridSpacing,4
;   maxOverhangAngle,45
;   supportAngles,0
;   temperatureName,Extruder 1 Temperature,Heated Bed
;   temperatureNumber,0,0
;   temperatureSetpointCount,1,1
;   temperatureSetpointLayers,1,1
;   temperatureSetpointTemperatures,200,70
;   temperatureStabilizeAtStartup,1,1
;   temperatureHeatedBed,0,1
;   temperatureRelayBetweenLayers,0,0
;   temperatureRelayBetweenLoops,0,0
;   fanLayers,1,2
;   fanSpeeds,0,100
;   blipFanToFullPower,0
;   adjustSpeedForCooling,1
;   minSpeedLayerTime,15
;   minCoolingSpeedSlowdown,20
;   increaseFanForCooling,0
;   minFanLayerTime,45
;   maxCoolingFanSpeed,100
;   increaseFanForBridging,0
;   bridgingFanSpeed,100
;   use5D,1
;   relativeEdistances,0
;   allowEaxisZeroing,1
;   independentExtruderAxes,0
;   includeM10123,0
;   stickySupport,1
;   applyToolheadOffsets,0
;   gcodeXoffset,0
;   gcodeYoffset,0
;   gcodeZoffset,0
;   overrideMachineDefinition,1
;   machineTypeOverride,0
;   strokeXoverride,185
;   strokeYoverride,190
;   strokeZoverride,300
;   originOffsetXoverride,0
;   originOffsetYoverride,0
;   originOffsetZoverride,0
;   homeXdirOverride,-1
;   homeYdirOverride,-1
;   homeZdirOverride,-1
;   flipXoverride,1
;   flipYoverride,-1
;   flipZoverride,1
;   toolheadOffsets,0,0|0,0|0,0|0,0|0,0|0,0
;   overrideFirmwareConfiguration,1
;   firmwareTypeOverride,RepRap (Marlin/Repetier/Sprinter)
;   GPXconfigOverride,r2
;   baudRateOverride,250000
;   overridePrinterModels,0
;   printerModelsOverride
;   startingGcode,G28 ; home all axes
;   layerChangeGcode,
;   retractionGcode,
;   toolChangeGcode,
;   endingGcode,M104 S0 ; turn off extruder,M140 S0 ; turn off bed,M84 ; disable motors
;   createX3G,0
;   celebration,0
;   celebrationSong,Random Song
;   createMB5G,0
;   postProcessing,
;   defaultSpeed,3000
;   outlineUnderspeed,0.5
;   solidInfillUnderspeed,0.8
;   supportUnderspeed,0.8
;   rapidXYspeed,4800
;   rapidZspeed,1000
;   minBridgingArea,50
;   bridgingExtraInflation,0
;   bridgingExtrusionMultiplier,1
;   bridgingSpeedMultiplier,1
;   filamentDiameter,1.73
;   filamentPricePerKg,46
;   filamentDensity,1.25
;   useMinPrintHeight,0
;   minPrintHeight,0
;   useMaxPrintHeight,0
;   maxPrintHeight,0
;   useDiaphragm,0
;   diaphragmLayerInterval,20
;   robustSlicing,1
;   mergeAllIntoSolid,0
;   onlyRetractWhenCrossingOutline,1
;   retractBetweenLayers,1
;   useRetractionMinTravel,0
;   retractionMinTravel,3
;   retractWhileWiping,0
;   onlyWipeOutlines,1
;   avoidCrossingOutline,0
;   maxMovementDetourFactor,3
;   toolChangeRetractionDistance,12
;   toolChangeExtraRestartDistance,-0.5
;   toolChangeRetractionSpeed,600
;   allowThinWallGapFill,1
;   thinWallAllowedOverlapPercentage,10
;   horizontalSizeCompensation,0
G90
M82
M106 S0
M140 S70
M190 S70
M104 S200 T0
M109 S200 T0
G28 ; home all axes
G92 E0
G1 E-3.0000 F1800
G1 Z0.160 F1000
; layer 1, Z = 0.16
T0
; tool H0.200 W0.400
; skirt
G1 X74.336 Y88.041 F4800
G1 E0.0000 F540
G92 E0
G1 X74.557 Y87.950 E0.0073 F1500
G1 X88.298 Y87.950 E0.4282
G1 X88.546 Y87.803 E0.4370
G1 X88.566 Y87.792 E0.4377
G1 X88.723 Y87.715 E0.4431
G1 X88.744 Y87.705 E0.4438
G1 X89.793 Y87.284 E0.4784
G1 X89.815 Y87.276 E0.4791
G1 X89.984 Y87.223 E0.4846
G1 X90.006 Y87.217 E0.4853
G1 X91.070 Y86.969 E0.5187
G1 X91.092 Y86.965 E0.5194
G1 X91.263 Y86.939 E0.5247
G1 X91.285 Y86.936 E0.5254
G1 X92.347 Y86.853 E0.5580
G1 X92.364 Y86.852 E0.5585
G1 X92.495 Y86.849 E0.5625
G1 X92.512 Y86.850 E0.5631
G1 X93.095 Y86.870 E0.5810
G1 X93.112 Y86.871 E0.5815
G1 X93.242 Y86.883 E0.5855
G1 X93.259 Y86.885 E0.5860
G1 X94.324 Y87.045 E0.6190
G1 X94.347 Y87.049 E0.6197
G1 X94.519 Y87.089 E0.6251
G1 X94.542 Y87.095 E0.6258
G1 X95.622 Y87.431 E0.6605
G1 X95.644 Y87.439 E0.6612
G1 X95.808 Y87.505 E0.6666
G1 X95.829 Y87.514 E0.6673
G1 X96.717 Y87.950 E0.6976
G1 X110.443 Y87.950 E1.1180
G1 X110.664 Y88.041 E1.1253
G1 X112.004 Y89.382 E1.1834
G1 X112.095 Y89.602 E1.1907
G1 X112.095 Y101.498 E1.5551
G1 X112.004 Y101.718 E1.5624
G1 X110.664 Y103.059 E1.6205
G1 X110.443 Y103.150 E1.6278
G1 X102.658 Y103.150 E1.8662
G1 X102.635 Y103.149 E1.8669
G1 X102.460 Y103.136 E1.8723
G1 X102.438 Y103.133 E1.8730
G1 X97.821 Y102.425 E2.0161
G1 X97.257 Y102.851 E2.0377
G1 X97.171 Y102.896 E2.0407
G1 X96.460 Y103.134 E2.0636
G1 X96.364 Y103.150 E2.0666
G1 X88.615 Y103.150 E2.3040
G1 X88.514 Y103.133 E2.3071
G1 X87.768 Y102.868 E2.3314
G1 X87.678 Y102.818 E2.3345
G1 X87.193 Y102.423 E2.3537
G1 X82.562 Y103.133 E2.4972
G1 X82.540 Y103.136 E2.4979
G1 X82.365 Y103.149 E2.5032
G1 X82.342 Y103.150 E2.5039
G1 X74.557 Y103.150 E2.7424
G1 X74.336 Y103.059 E2.7497
G1 X72.996 Y101.718 E2.8078
G1 X72.905 Y101.498 E2.8151
G1 X72.905 Y89.602 E3.1794
G1 X72.996 Y89.382 E3.1868
G1 X74.336 Y88.041 E3.2448
G1 X74.563 Y88.380 F4800
G92 E0
G1 X74.636 Y88.350 E0.0024 F1500
G1 X88.408 Y88.350 E0.4243
G1 X88.743 Y88.151 E0.4362
G1 X88.750 Y88.148 E0.4364
G1 X88.893 Y88.077 E0.4413
G1 X88.900 Y88.074 E0.4416
G1 X89.935 Y87.658 E0.4757
G1 X89.942 Y87.655 E0.4760
G1 X90.097 Y87.606 E0.4809
G1 X90.104 Y87.604 E0.4812
G1 X91.154 Y87.361 E0.5142
G1 X91.161 Y87.359 E0.5144
G1 X91.317 Y87.335 E0.5192
G1 X91.324 Y87.335 E0.5194
G1 X92.373 Y87.252 E0.5517
G1 X92.378 Y87.252 E0.5518
G1 X92.498 Y87.250 E0.5555
G1 X92.503 Y87.250 E0.5557
G1 X93.076 Y87.270 E0.5732
G1 X93.081 Y87.270 E0.5734
G1 X93.199 Y87.281 E0.5770
G1 X93.205 Y87.282 E0.5772
G1 X94.257 Y87.439 E0.6098
G1 X94.265 Y87.441 E0.6100
G1 X94.422 Y87.477 E0.6150
G1 X94.430 Y87.479 E0.6152
G1 X95.495 Y87.811 E0.6494
G1 X95.503 Y87.814 E0.6496
G1 X95.653 Y87.874 E0.6546
G1 X95.660 Y87.877 E0.6548
G1 X96.609 Y88.343 E0.6872
G1 X96.614 Y88.345 E0.6874
G1 X96.622 Y88.350 E0.6877
G1 X110.364 Y88.350 E1.1086
G1 X110.437 Y88.380 E1.1110
G1 X111.665 Y89.608 E1.1642
G1 X111.695 Y89.682 E1.1666
G1 X111.695 Y101.418 E1.5261
G1 X111.665 Y101.492 E1.5285
G1 X110.437 Y102.720 E1.5817
G1 X110.364 Y102.750 E1.5842
G1 X102.665 Y102.750 E1.8200
G1 X102.658 Y102.750 E1.8202
G1 X102.498 Y102.738 E1.8251
G1 X102.491 Y102.737 E1.8253
G1 X97.715 Y102.004 E1.9733
G1 X97.042 Y102.512 E1.9991
G1 X97.013 Y102.527 E2.0001
G1 X96.364 Y102.745 E2.0211
G1 X96.332 Y102.750 E2.0221
G1 X88.649 Y102.750 E2.2574
G1 X88.615 Y102.744 E2.2585
G1 X87.934 Y102.502 E2.2806
G1 X87.904 Y102.486 E2.2817
G1 X87.307 Y102.001 E2.3052
G1 X82.509 Y102.737 E2.4539
G1 X82.502 Y102.738 E2.4541
G1 X82.342 Y102.750 E2.4590
G1 X82.335 Y102.750 E2.4593
G1 X74.636 Y102.750 E2.6951
G1 X74.563 Y102.720 E2.6975
G1 X73.335 Y101.492 E2.7507
G1 X73.305 Y101.418 E2.7531
G1 X73.305 Y89.682 E3.1126
G1 X73.335 Y89.608 E3.1151
G1 X74.563 Y88.380 E3.1682
G92 E0
G1 E-3.0000 F1800
; outer perimeter
G1 X75.705 Y90.750 F4800
G1 E0.0000 F1800
G92 E0
G1 X89.069 Y90.750 E0.4094 F750
G1 X89.489 Y90.479 E0.4247
G1 X89.884 Y90.264 E0.4384
G1 X90.297 Y90.079 E0.4523
G1 X90.741 Y89.920 E0.4667
G1 X91.163 Y89.805 E0.4801
G1 X91.605 Y89.719 E0.4939
G1 X92.062 Y89.667 E0.5080
G1 X92.485 Y89.650 E0.5210
G1 X92.924 Y89.666 E0.5344
G1 X93.366 Y89.715 E0.5481
G1 X93.807 Y89.798 E0.5618
G1 X94.245 Y89.916 E0.5757
G1 X94.689 Y90.073 E0.5901
G1 X95.089 Y90.251 E0.6035
G1 X95.485 Y90.464 E0.6173
G1 X95.931 Y90.750 E0.6335
G1 X109.295 Y90.750 E1.0429
G1 X109.295 Y100.350 E1.3369
G1 X102.761 Y100.350 E1.5371
G1 X96.924 Y99.455 E1.7180
G1 X96.554 Y99.832 E1.7342
G1 X96.220 Y100.126 E1.7478
G1 X95.923 Y100.350 E1.7592
G1 X93.195 Y100.350 E1.8427
G1 X93.195 Y99.788 E1.8599
G1 X93.431 Y99.747 E1.8673
G1 X93.830 Y99.638 E1.8799
G1 X94.210 Y99.494 E1.8924
G1 X94.554 Y99.325 E1.9041
G1 X94.902 Y99.114 E1.9166
G1 X95.229 Y98.869 E1.9291
G1 X95.504 Y98.622 E1.9404
G1 X95.751 Y98.359 E1.9515
G1 X96.007 Y98.032 E1.9642
G1 X96.209 Y97.717 E1.9757
G1 X96.401 Y97.350 E1.9883
G1 X96.554 Y96.972 E2.0008
G1 X96.672 Y96.575 E2.0135
G1 X96.751 Y96.164 E2.0263
G1 X96.791 Y95.745 E2.0392
G1 X96.790 Y95.323 E2.0522
G1 X96.747 Y94.904 E2.0651
G1 X96.664 Y94.494 E2.0779
G1 X96.542 Y94.095 E2.0906
G1 X96.382 Y93.710 E2.1034
G1 X96.190 Y93.351 E2.1159
G1 X95.980 Y93.032 E2.1276
G1 X95.735 Y92.723 E2.1397
G1 X95.463 Y92.438 E2.1517
G1 X95.157 Y92.173 E2.1641
G1 X94.831 Y91.939 E2.1764
G1 X94.474 Y91.732 E2.1891
G1 X94.090 Y91.557 E2.2020
G1 X93.707 Y91.424 E2.2144
G1 X93.308 Y91.327 E2.2270
G1 X92.906 Y91.269 E2.2394
G1 X92.500 Y91.250 E2.2519
G1 X92.094 Y91.269 E2.2643
G1 X91.692 Y91.327 E2.2768
G1 X91.293 Y91.424 E2.2893
G1 X90.910 Y91.557 E2.3018
G1 X90.526 Y91.732 E2.3147
G1 X90.169 Y91.939 E2.3273
G1 X89.855 Y92.163 E2.3391
G1 X89.560 Y92.417 E2.3511
G1 X89.286 Y92.699 E2.3631
G1 X89.029 Y93.019 E2.3757
G1 X88.810 Y93.351 E2.3879
G1 X88.618 Y93.710 E2.4003
G1 X88.458 Y94.095 E2.4131
G1 X88.336 Y94.494 E2.4259
G1 X88.253 Y94.904 E2.4387
G1 X88.210 Y95.323 E2.4516
G1 X88.209 Y95.745 E2.4645
G1 X88.249 Y96.164 E2.4774
G1 X88.328 Y96.575 E2.4902
G1 X88.446 Y96.972 E2.5029
G1 X88.599 Y97.349 E2.5154
G1 X88.775 Y97.690 E2.5271
G1 X88.984 Y98.019 E2.5391
G1 X89.239 Y98.348 E2.5518
G1 X89.475 Y98.601 E2.5624
G1 X89.759 Y98.859 E2.5742
G1 X90.097 Y99.113 E2.5871
G1 X90.419 Y99.310 E2.5987
G1 X90.790 Y99.494 E2.6114
G1 X91.170 Y99.638 E2.6238
G1 X91.569 Y99.747 E2.6365
G1 X91.805 Y99.788 E2.6438
G1 X91.805 Y100.350 E2.6610
G1 X89.077 Y100.350 E2.7446
G1 X88.792 Y100.135 E2.7555
G1 X88.468 Y99.852 E2.7687
G1 X88.075 Y99.455 E2.7858
G1 X82.239 Y100.350 E2.9666
G1 X75.705 Y100.350 E3.1668
G1 X75.705 Y90.750 E3.4608
; outer perimeter
G1 X79.284 Y93.561 F4800
G92 E0
G1 X79.091 Y93.772 E0.0088 F750
G1 X78.933 Y93.985 E0.0169
G1 X78.791 Y94.218 E0.0253
G1 X78.671 Y94.471 E0.0338
G1 X78.575 Y94.738 E0.0425
G1 X78.507 Y95.012 E0.0512
G1 X78.466 Y95.293 E0.0599
G1 X78.455 Y95.579 E0.0686
G1 X78.472 Y95.864 E0.0774
G1 X78.518 Y96.145 E0.0861
G1 X78.592 Y96.416 E0.0947
G1 X78.690 Y96.675 E0.1032
G1 X78.811 Y96.918 E0.1115
G1 X78.951 Y97.142 E0.1196
G1 X79.116 Y97.358 E0.1279
G1 X79.265 Y97.520 E0.1347
G1 X79.477 Y97.713 E0.1434
G1 X79.690 Y97.872 E0.1516
G1 X79.923 Y98.013 E0.1599
G1 X80.175 Y98.134 E0.1685
G1 X80.443 Y98.230 E0.1772
G1 X80.716 Y98.298 E0.1858
G1 X80.998 Y98.338 E0.1946
G1 X81.284 Y98.350 E0.2033
G1 X81.569 Y98.333 E0.2121
G1 X81.850 Y98.286 E0.2208
G1 X82.121 Y98.213 E0.2294
G1 X82.380 Y98.114 E0.2379
G1 X82.622 Y97.994 E0.2462
G1 X82.847 Y97.853 E0.2543
G1 X83.062 Y97.688 E0.2626
G1 X83.225 Y97.539 E0.2694
G1 X83.418 Y97.328 E0.2781
G1 X83.577 Y97.115 E0.2863
G1 X83.718 Y96.882 E0.2946
G1 X83.839 Y96.629 E0.3032
G1 X83.935 Y96.362 E0.3119
G1 X84.003 Y96.088 E0.3205
G1 X84.043 Y95.807 E0.3292
G1 X84.055 Y95.521 E0.3380
G1 X84.037 Y95.236 E0.3467
G1 X83.991 Y94.955 E0.3555
G1 X83.918 Y94.684 E0.3641
G1 X83.819 Y94.425 E0.3725
G1 X83.698 Y94.182 E0.3808
G1 X83.558 Y93.958 E0.3890
G1 X83.393 Y93.742 E0.3973
G1 X83.244 Y93.580 E0.4040
G1 X83.033 Y93.387 E0.4128
G1 X82.820 Y93.228 E0.4209
G1 X82.586 Y93.087 E0.4293
G1 X82.334 Y92.966 E0.4379
G1 X82.067 Y92.870 E0.4466
G1 X81.793 Y92.802 E0.4552
G1 X81.511 Y92.762 E0.4639
G1 X81.226 Y92.750 E0.4727
G1 X80.940 Y92.767 E0.4814
G1 X80.660 Y92.814 E0.4901
G1 X80.388 Y92.887 E0.4987
G1 X80.130 Y92.986 E0.5072
G1 X79.887 Y93.106 E0.5155
G1 X79.662 Y93.247 E0.5236
G1 X79.447 Y93.412 E0.5319
G1 X79.284 Y93.561 E0.5387
G92 E0
G1 E-3.0000 F1800
; outer perimeter
G1 X101.009 Y94.955 F4800
G1 E0.0000 F1800
G92 E0
G1 X100.963 Y95.236 E0.0087 F750
G1 X100.945 Y95.521 E0.0175
G1 X100.957 Y95.807 E0.0262
G1 X100.997 Y96.088 E0.0349
G1 X101.065 Y96.362 E0.0436
G1 X101.161 Y96.629 E0.0523
G1 X101.282 Y96.882 E0.0608
G1 X101.423 Y97.115 E0.0692
G1 X101.582 Y97.328 E0.0773
G1 X101.778 Y97.543 E0.0863
G1 X102.150 Y97.851 E0.1010
G1 X102.378 Y97.994 E0.1093
G1 X102.620 Y98.114 E0.1176
G1 X102.879 Y98.213 E0.1261
G1 X103.150 Y98.286 E0.1347
G1 X103.431 Y98.333 E0.1434
G1 X103.716 Y98.350 E0.1521
G1 X104.002 Y98.338 E0.1609
G1 X104.284 Y98.298 E0.1696
G1 X104.557 Y98.230 E0.1782
G1 X104.825 Y98.134 E0.1869
G1 X105.077 Y98.013 E0.1955
G1 X105.310 Y97.872 E0.2039
G1 X105.523 Y97.713 E0.2120
G1 X105.735 Y97.520 E0.2208
G1 X105.884 Y97.358 E0.2275
G1 X106.049 Y97.142 E0.2358
G1 X106.189 Y96.918 E0.2439
G1 X106.310 Y96.675 E0.2522
G1 X106.408 Y96.416 E0.2607
G1 X106.482 Y96.145 E0.2693
G1 X106.528 Y95.864 E0.2780
G1 X106.545 Y95.579 E0.2868
G1 X106.534 Y95.293 E0.2956
G1 X106.493 Y95.012 E0.3043
G1 X106.425 Y94.738 E0.3129
G1 X106.329 Y94.471 E0.3216
G1 X106.209 Y94.218 E0.3302
G1 X106.067 Y93.985 E0.3385
G1 X105.908 Y93.772 E0.3467
G1 X105.716 Y93.561 E0.3554
G1 X105.553 Y93.412 E0.3622
G1 X105.338 Y93.247 E0.3705
G1 X105.113 Y93.106 E0.3786
G1 X104.870 Y92.986 E0.3869
G1 X104.612 Y92.887 E0.3954
G1 X104.340 Y92.814 E0.4040
G1 X104.060 Y92.767 E0.4127
G1 X103.774 Y92.750 E0.4215
G1 X103.489 Y92.762 E0.4302
G1 X103.207 Y92.802 E0.4390
G1 X102.933 Y92.870 E0.4476
G1 X102.666 Y92.966 E0.4563
G1 X102.414 Y93.087 E0.4649
G1 X102.180 Y93.228 E0.4732
G1 X101.967 Y93.387 E0.4814
G1 X101.756 Y93.580 E0.4901
G1 X101.607 Y93.742 E0.4969
G1 X101.442 Y93.958 E0.5052
G1 X101.302 Y94.182 E0.5133
G1 X101.181 Y94.425 E0.5216
G1 X101.082 Y94.684 E0.5301
G1 X101.009 Y94.955 E0.5387
G92 E0
G1 E-3.0000 F1800
; solid layer
G1 X102.832 Y92.588 F4800
G1 E0.0000 F1800
G92 E0
G1 X104.370 Y91.050 E0.0666 F1200
G1 X104.935 Y91.050 E0.0839
G1 X103.526 Y92.460 E0.1450
G1 X103.778 Y92.450 E0.1527
G1 X104.083 Y92.468 E0.1621
G1 X105.501 Y91.050 E0.2235
G1 X106.067 Y91.050 E0.2409
G1 X104.556 Y92.561 E0.3063
G1 X104.704 Y92.601 E0.3110
G1 X104.977 Y92.705 E0.3200
G1 X106.632 Y91.050 E0.3917
G1 X107.198 Y91.050 E0.4090
G1 X105.348 Y92.900 E0.4891
G1 X105.509 Y93.000 E0.4949
G1 X105.682 Y93.132 E0.5016
G1 X107.764 Y91.050 E0.5918
G1 X108.329 Y91.050 E0.6091
G1 X105.977 Y93.402 E0.7110
G1 X106.140 Y93.581 E0.7184
G1 X106.236 Y93.709 E0.7233
G1 X108.895 Y91.050 E0.8385
