; G-Code generated by Simplify3D(R) Version 3.0.2
; 11月 14, 2017 at 6:42:05 下午
; Settings Summary
;   processName,Process1
;   applyToModels,XY右电机固定件
;   profileName,I3
;   profileVersion,2017-07-16 15:44:41
;   baseProfile,Default
;   printMaterial,PLA
;   printQuality,Medium
;   printExtruders,
;   extruderName,Extruder 1,Primary Extruder
;   extruderToolheadNumber,0,0
;   extruderDiameter,0.4,0.4
;   extruderAutoWidth,0,0
;   extruderWidth,0.4,0.4
;   extrusionMultiplier,0.9,0.9
;   extruderUseRetract,1,1
;   extruderRetractionDistance,3,3
;   extruderExtraRestartDistance,0,0
;   extruderRetractionZLift,0,0
;   extruderRetractionSpeed,1800,1800
;   extruderUseCoasting,0,0
;   extruderCoastingDistance,0.2,0.2
;   extruderUseWipe,0,0
;   extruderWipeDistance,5,5
;   primaryExtruder,0
;   layerHeight,0.2
;   topSolidLayers,3
;   bottomSolidLayers,3
;   perimeterOutlines,1
;   printPerimetersInsideOut,1
;   startPointOption,2
;   startPointOriginX,0
;   startPointOriginY,0
;   startPointOriginZ,300
;   sequentialIslands,0
;   spiralVaseMode,0
;   firstLayerHeightPercentage,80
;   firstLayerWidthPercentage,100
;   firstLayerUnderspeed,0.5
;   useRaft,0
;   raftExtruder,0
;   raftLayers,3
;   raftOffset,3
;   raftSeparationDistance,0.14
;   raftInfill,85
;   disableRaftBaseLayers,0
;   useSkirt,1
;   skirtExtruder,0
;   skirtLayers,1
;   skirtOutlines,2
;   skirtOffset,2
;   usePrimePillar,0
;   primePillarExtruder,999
;   primePillarWidth,12
;   primePillarLocation,7
;   primePillarSpeedMultiplier,1
;   useOozeShield,0
;   oozeShieldExtruder,999
;   oozeShieldOffset,2
;   oozeShieldOutlines,1
;   oozeShieldSidewallShape,1
;   oozeShieldSidewallAngle,30
;   oozeShieldSpeedMultiplier,1
;   infillExtruder,0
;   internalInfillPattern,Rectilinear
;   externalInfillPattern,Rectilinear
;   infillPercentage,90
;   outlineOverlapPercentage,25
;   infillExtrusionWidthPercentage,125
;   minInfillLength,5
;   infillLayerInterval,1
;   infillAngles,45,-45
;   overlapInfillAngles,0
;   generateSupport,1
;   supportExtruder,0
;   supportInfillPercentage,30
;   supportExtraInflation,0
;   denseSupportLayers,0
;   denseSupportInfillPercentage,70
;   supportLayerInterval,1
;   supportHorizontalPartOffset,0.3
;   supportUpperSeparationLayers,1
;   supportLowerSeparationLayers,1
;   supportType,0
;   supportGridSpacing,4
;   maxOverhangAngle,45
;   supportAngles,0
;   temperatureName,Extruder 1 Temperature,Heated Bed
;   temperatureNumber,0,0
;   temperatureSetpointCount,1,1
;   temperatureSetpointLayers,1,1
;   temperatureSetpointTemperatures,200,70
;   temperatureStabilizeAtStartup,1,1
;   temperatureHeatedBed,0,1
;   temperatureRelayBetweenLayers,0,0
;   temperatureRelayBetweenLoops,0,0
;   fanLayers,1,2
;   fanSpeeds,0,100
;   blipFanToFullPower,0
;   adjustSpeedForCooling,1
;   minSpeedLayerTime,15
;   minCoolingSpeedSlowdown,20
;   increaseFanForCooling,0
;   minFanLayerTime,45
;   maxCoolingFanSpeed,100
;   increaseFanForBridging,0
;   bridgingFanSpeed,100
;   use5D,1
;   relativeEdistances,0
;   allowEaxisZeroing,1
;   independentExtruderAxes,0
;   includeM10123,0
;   stickySupport,1
;   applyToolheadOffsets,0
;   gcodeXoffset,0
;   gcodeYoffset,0
;   gcodeZoffset,0
;   overrideMachineDefinition,1
;   machineTypeOverride,0
;   strokeXoverride,185
;   strokeYoverride,190
;   strokeZoverride,300
;   originOffsetXoverride,0
;   originOffsetYoverride,0
;   originOffsetZoverride,0
;   homeXdirOverride,-1
;   homeYdirOverride,-1
;   homeZdirOverride,-1
;   flipXoverride,1
;   flipYoverride,-1
;   flipZoverride,1
;   toolheadOffsets,0,0|0,0|0,0|0,0|0,0|0,0
;   overrideFirmwareConfiguration,1
;   firmwareTypeOverride,RepRap (Marlin/Repetier/Sprinter)
;   GPXconfigOverride,r2
;   baudRateOverride,250000
;   overridePrinterModels,0
;   printerModelsOverride
;   startingGcode,G28 ; home all axes
;   layerChangeGcode,
;   retractionGcode,
;   toolChangeGcode,
;   endingGcode,M104 S0 ; turn off extruder,M140 S0 ; turn off bed,M84 ; disable motors
;   createX3G,0
;   celebration,0
;   celebrationSong,Random Song
;   createMB5G,0
;   postProcessing,
;   defaultSpeed,3000
;   outlineUnderspeed,0.5
;   solidInfillUnderspeed,0.8
;   supportUnderspeed,0.8
;   rapidXYspeed,4800
;   rapidZspeed,1000
;   minBridgingArea,50
;   bridgingExtraInflation,0
;   bridgingExtrusionMultiplier,1
;   bridgingSpeedMultiplier,1
;   filamentDiameter,1.73
;   filamentPricePerKg,46
;   filamentDensity,1.25
;   useMinPrintHeight,0
;   minPrintHeight,0
;   useMaxPrintHeight,0
;   maxPrintHeight,0
;   useDiaphragm,0
;   diaphragmLayerInterval,20
;   robustSlicing,1
;   mergeAllIntoSolid,0
;   onlyRetractWhenCrossingOutline,1
;   retractBetweenLayers,1
;   useRetractionMinTravel,0
;   retractionMinTravel,3
;   retractWhileWiping,0
;   onlyWipeOutlines,1
;   avoidCrossingOutline,0
;   maxMovementDetourFactor,3
;   toolChangeRetractionDistance,12
;   toolChangeExtraRestartDistance,-0.5
;   toolChangeRetractionSpeed,600
;   allowThinWallGapFill,1
;   thinWallAllowedOverlapPercentage,10
;   horizontalSizeCompensation,0
G90
M82
M106 S0
M140 S70
M190 S70
M104 S200 T0
M109 S200 T0
G28 ; home all axes
G92 E0
G1 E-3.0000 F1800
G1 Z0.160 F1000
; layer 1, Z = 0.16
T0
; tool H0.200 W0.400
; skirt
G1 X64.331 Y77.491 F4800
G1 E0.0000 F540
G92 E0
G1 X64.551 Y77.400 E0.0073 F1500
G1 X82.899 Y77.400 E0.5693
G1 X82.899 Y59.052 E1.1313
G1 X82.990 Y58.832 E1.1386
G1 X84.331 Y57.491 E1.1967
G1 X84.551 Y57.400 E1.2040
G1 X91.449 Y57.400 E1.4153
G1 X91.669 Y57.491 E1.4226
G1 X93.010 Y58.832 E1.4806
G1 X93.101 Y59.052 E1.4879
G1 X93.101 Y77.400 E2.0499
G1 X114.449 Y77.400 E2.7038
G1 X114.669 Y77.491 E2.7111
G1 X116.010 Y78.832 E2.7692
G1 X116.101 Y79.052 E2.7765
G1 X116.101 Y82.400 E2.8791
G1 X120.449 Y82.400 E3.0122
G1 X120.669 Y82.491 E3.0195
G1 X122.010 Y83.832 E3.0776
G1 X122.101 Y84.052 E3.0849
G1 X122.101 Y130.948 E4.5213
G1 X122.010 Y131.168 E4.5286
G1 X120.669 Y132.509 E4.5867
G1 X120.449 Y132.600 E4.5940
G1 X69.551 Y132.600 E6.1530
G1 X69.331 Y132.509 E6.1603
G1 X67.990 Y131.168 E6.2184
G1 X67.899 Y130.948 E6.2257
G1 X67.899 Y114.102 E6.7417
G1 X64.551 Y114.102 E6.8442
G1 X64.331 Y114.011 E6.8516
G1 X62.990 Y112.670 E6.9096
G1 X62.899 Y112.450 E6.9169
G1 X62.899 Y79.052 E7.9399
G1 X62.990 Y78.832 E7.9472
G1 X64.331 Y77.491 E8.0053
G1 X64.557 Y77.830 F4800
G92 E0
G1 X64.631 Y77.800 E0.0024 F1500
G1 X83.299 Y77.800 E0.5742
G1 X83.299 Y59.132 E1.1461
G1 X83.329 Y59.058 E1.1485
G1 X84.557 Y57.830 E1.2017
G1 X84.631 Y57.800 E1.2041
G1 X91.369 Y57.800 E1.4105
G1 X91.443 Y57.830 E1.4130
G1 X92.671 Y59.058 E1.4661
G1 X92.701 Y59.132 E1.4686
G1 X92.701 Y77.800 E2.0404
G1 X114.369 Y77.800 E2.7041
G1 X114.443 Y77.830 E2.7065
G1 X115.671 Y79.058 E2.7597
G1 X115.701 Y79.132 E2.7622
G1 X115.701 Y82.800 E2.8745
G1 X120.369 Y82.800 E3.0175
G1 X120.443 Y82.830 E3.0199
G1 X121.671 Y84.058 E3.0731
G1 X121.701 Y84.132 E3.0756
G1 X121.701 Y130.868 E4.5071
G1 X121.671 Y130.942 E4.5096
G1 X120.443 Y132.170 E4.5627
G1 X120.369 Y132.200 E4.5652
G1 X69.631 Y132.200 E6.1193
G1 X69.557 Y132.170 E6.1217
G1 X68.329 Y130.942 E6.1749
G1 X68.299 Y130.868 E6.1774
G1 X68.299 Y113.702 E6.7032
G1 X64.631 Y113.702 E6.8155
G1 X64.557 Y113.672 E6.8180
G1 X63.329 Y112.444 E6.8712
G1 X63.299 Y112.370 E6.8736
G1 X63.299 Y79.132 E7.8917
G1 X63.329 Y79.058 E7.8941
G1 X64.557 Y77.830 E7.9473
G92 E0
G1 E-3.0000 F1800
; outer perimeter
G1 X65.699 Y80.200 F4800
G1 E0.0000 F1800
G92 E0
G1 X85.699 Y80.200 E0.6126 F750
G1 X85.699 Y60.200 E1.2252
G1 X90.301 Y60.200 E1.3662
G1 X90.301 Y80.200 E1.9788
G1 X113.301 Y80.200 E2.6833
G1 X113.301 Y85.200 E2.8364
G1 X119.301 Y85.200 E3.0202
G1 X119.301 Y129.800 E4.3863
G1 X70.699 Y129.800 E5.8750
G1 X70.699 Y111.302 E6.4416
G1 X65.699 Y111.302 E6.5948
G1 X65.699 Y80.200 E7.5474
; outer perimeter
G1 X80.867 Y91.680 F4800
G92 E0
G1 X80.742 Y91.854 E0.0066 F750
G1 X80.635 Y92.035 E0.0130
G1 X80.546 Y92.233 E0.0197
G1 X80.434 Y92.619 E0.0320
G1 X80.399 Y93.000 E0.0437
G1 X80.408 Y93.197 E0.0497
G1 X80.480 Y93.582 E0.0617
G1 X80.632 Y93.969 E0.0745
G1 X80.866 Y94.322 E0.0874
G1 X81.013 Y94.487 E0.0942
G1 X81.174 Y94.633 E0.1009
G1 X81.350 Y94.762 E0.1075
G1 X81.534 Y94.867 E0.1140
G1 X81.725 Y94.956 E0.1205
G1 X81.926 Y95.024 E0.1270
G1 X82.310 Y95.096 E0.1390
G1 X82.689 Y95.096 E0.1506
G1 X83.074 Y95.024 E0.1626
G1 X83.274 Y94.956 E0.1690
G1 X83.463 Y94.868 E0.1754
G1 X83.648 Y94.762 E0.1820
G1 X83.821 Y94.635 E0.1885
G1 X83.984 Y94.488 E0.1953
G1 X84.133 Y94.324 E0.2020
G1 X84.366 Y93.968 E0.2150
G1 X84.518 Y93.582 E0.2278
G1 X84.591 Y93.194 E0.2399
G1 X84.591 Y92.816 E0.2514
G1 X84.520 Y92.431 E0.2634
G1 X84.366 Y92.038 E0.2764
G1 X84.131 Y91.680 E0.2895
G1 X83.828 Y91.376 E0.3026
G1 X83.648 Y91.244 E0.3095
G1 X83.465 Y91.139 E0.3159
G1 X83.274 Y91.050 E0.3224
G1 X83.075 Y90.982 E0.3288
G1 X82.692 Y90.910 E0.3407
G1 X82.311 Y90.910 E0.3524
G1 X81.929 Y90.981 E0.3643
G1 X81.728 Y91.049 E0.3708
G1 X81.535 Y91.138 E0.3773
G1 X81.351 Y91.243 E0.3838
G1 X81.174 Y91.373 E0.3905
G1 X81.014 Y91.518 E0.3972
G1 X80.867 Y91.680 E0.4039
G92 E0
G1 E-3.0000 F1800
; outer perimeter
G1 X88.453 Y100.126 F4800
G1 E0.0000 F1800
G92 E0
G1 X88.029 Y100.636 E0.0203 F750
G1 X87.644 Y101.147 E0.0399
G1 X87.291 Y101.670 E0.0592
G1 X86.969 Y102.205 E0.0784
G1 X86.679 Y102.747 E0.0972
G1 X86.416 Y103.292 E0.1157
G1 X86.199 Y103.809 E0.1329
G1 X85.970 Y104.422 E0.1529
G1 X85.787 Y105.012 E0.1719
G1 X85.542 Y106.039 E0.2042
G1 X85.437 Y106.631 E0.2226
G1 X85.360 Y107.265 E0.2422
G1 X85.317 Y107.859 E0.2604
G1 X85.299 Y108.462 E0.2789
G1 X85.310 Y109.075 E0.2977
G1 X85.354 Y109.693 E0.3166
G1 X85.428 Y110.314 E0.3358
G1 X85.534 Y110.937 E0.3552
G1 X85.673 Y111.556 E0.3746
G1 X85.841 Y112.171 E0.3941
G1 X86.043 Y112.784 E0.4139
G1 X86.268 Y113.371 E0.4332
G1 X86.541 Y113.979 E0.4536
G1 X86.827 Y114.541 E0.4729
G1 X87.150 Y115.102 E0.4927
G1 X87.510 Y115.662 E0.5131
G1 X87.887 Y116.188 E0.5329
G1 X88.292 Y116.691 E0.5527
G1 X88.719 Y117.170 E0.5724
G1 X89.163 Y117.624 E0.5918
G1 X89.625 Y118.048 E0.6110
G1 X90.133 Y118.474 E0.6313
G1 X90.644 Y118.857 E0.6509
G1 X91.167 Y119.210 E0.6702
G1 X91.701 Y119.532 E0.6893
G1 X92.242 Y119.822 E0.7081
G1 X92.789 Y120.083 E0.7267
G1 X93.321 Y120.308 E0.7444
G1 X93.919 Y120.531 E0.7639
G1 X94.506 Y120.714 E0.7828
G1 X94.936 Y120.826 E0.7964
G1 X95.539 Y120.959 E0.8153
G1 X96.130 Y121.064 E0.8337
G1 X96.762 Y121.141 E0.8532
G1 X97.356 Y121.184 E0.8714
G1 X97.957 Y121.202 E0.8898
G1 X98.571 Y121.191 E0.9087
G1 X99.190 Y121.147 E0.9276
G1 X99.794 Y121.076 E0.9463
G1 X100.433 Y120.967 E0.9661
G1 X101.053 Y120.830 E0.9856
G1 X101.668 Y120.660 E1.0051
G1 X102.282 Y120.460 E1.0249
G1 X102.883 Y120.225 E1.0447
G1 X103.474 Y119.960 E1.0645
G1 X104.036 Y119.674 E1.0838
G1 X104.615 Y119.343 E1.1042
G1 X105.161 Y118.991 E1.1242
G1 X105.685 Y118.612 E1.1439
G1 X106.188 Y118.211 E1.1637
G1 X106.669 Y117.782 E1.1834
G1 X107.122 Y117.338 E1.2028
G1 X107.546 Y116.876 E1.2220
G1 X107.969 Y116.366 E1.2423
G1 X108.354 Y115.857 E1.2619
G1 X108.707 Y115.334 E1.2812
G1 X109.029 Y114.798 E1.3004
G1 X109.319 Y114.259 E1.3191
G1 X109.582 Y113.712 E1.3377
G1 X109.805 Y113.177 E1.3554
G1 X110.028 Y112.582 E1.3749
G1 X110.207 Y112.008 E1.3933
G1 X110.329 Y111.548 E1.4079
G1 X110.453 Y110.979 E1.4258
G1 X110.561 Y110.372 E1.4446
G1 X110.638 Y109.741 E1.4641
G1 X110.681 Y109.147 E1.4824
G1 X110.697 Y108.561 E1.5003
G1 X110.688 Y107.930 E1.5196
G1 X110.644 Y107.313 E1.5386
G1 X110.570 Y106.692 E1.5577
G1 X110.467 Y106.085 E1.5766
G1 X110.325 Y105.450 E1.5965
G1 X110.161 Y104.851 E1.6156
G1 X109.955 Y104.220 E1.6359
G1 X109.730 Y103.635 E1.6551
G1 X109.457 Y103.027 E1.6755
G1 X109.171 Y102.465 E1.6948
G1 X108.838 Y101.886 E1.7153
G1 X108.488 Y101.340 E1.7351
G1 X108.111 Y100.816 E1.7549
G1 X107.718 Y100.327 E1.7741
G1 X107.279 Y99.832 E1.7944
G1 X106.835 Y99.379 E1.8138
G1 X106.373 Y98.955 E1.8330
G1 X105.865 Y98.532 E1.8533
G1 X105.369 Y98.159 E1.8723
G1 X104.831 Y97.794 E1.8922
G1 X104.297 Y97.474 E1.9113
G1 X103.756 Y97.182 E1.9301
G1 X103.225 Y96.926 E1.9481
G1 X102.676 Y96.696 E1.9664
G1 X102.079 Y96.475 E1.9859
G1 X101.492 Y96.290 E2.0047
G1 X101.045 Y96.172 E2.0189
G1 X100.458 Y96.044 E2.0373
G1 X99.869 Y95.940 E2.0556
G1 X99.253 Y95.865 E2.0746
G1 X98.642 Y95.819 E2.0934
G1 X98.041 Y95.804 E2.1118
G1 X97.427 Y95.813 E2.1306
G1 X96.808 Y95.857 E2.1496
G1 X96.204 Y95.930 E2.1682
G1 X95.565 Y96.037 E2.1881
G1 X94.945 Y96.176 E2.2076
G1 X94.347 Y96.340 E2.2265
G1 X93.717 Y96.546 E2.2469
G1 X93.115 Y96.779 E2.2666
G1 X92.524 Y97.044 E2.2865
G1 X91.962 Y97.330 E2.3058
G1 X91.383 Y97.663 E2.3262
G1 X90.837 Y98.015 E2.3461
G1 X90.313 Y98.390 E2.3659
G1 X89.810 Y98.795 E2.3857
G1 X89.329 Y99.222 E2.4054
G1 X88.889 Y99.655 E2.4242
G1 X88.453 Y100.126 E2.4439
G92 E0
G1 E-3.0000 F1800
; outer perimeter
G1 X81.724 Y122.049 F4800
G1 E0.0000 F1800
G92 E0
G1 X81.349 Y122.244 E0.0130 F750
G1 X81.013 Y122.518 E0.0262
G1 X80.739 Y122.854 E0.0395
G1 X80.544 Y123.230 E0.0525
G1 X80.431 Y123.622 E0.0650
G1 X80.398 Y124.004 E0.0767
G1 X80.431 Y124.385 E0.0884
G1 X80.544 Y124.777 E0.1009
G1 X80.737 Y125.149 E0.1138
G1 X80.910 Y125.376 E0.1225
G1 X81.171 Y125.631 E0.1337
G1 X81.350 Y125.762 E0.1405
G1 X81.537 Y125.870 E0.1471
G1 X81.921 Y126.023 E0.1598
G1 X82.308 Y126.096 E0.1718
G1 X82.689 Y126.096 E0.1835
G1 X83.077 Y126.023 E0.1956
G1 X83.460 Y125.869 E0.2082
G1 X83.647 Y125.762 E0.2148
G1 X83.826 Y125.630 E0.2216
G1 X84.125 Y125.331 E0.2346
G1 X84.257 Y125.150 E0.2414
G1 X84.374 Y124.946 E0.2486
G1 X84.518 Y124.582 E0.2607
G1 X84.591 Y124.190 E0.2729
G1 X84.591 Y123.813 E0.2844
G1 X84.517 Y123.421 E0.2966
G1 X84.365 Y123.042 E0.3091
G1 X84.257 Y122.854 E0.3158
G1 X84.125 Y122.675 E0.3226
G1 X83.826 Y122.376 E0.3355
G1 X83.645 Y122.243 E0.3424
G1 X83.271 Y122.049 E0.3553
G1 X82.880 Y121.937 E0.3678
G1 X82.499 Y121.901 E0.3795
G1 X82.114 Y121.937 E0.3913
G1 X81.724 Y122.049 E0.4038
; outer perimeter
G1 X112.013 Y122.519 F4800
G92 E0
G1 X111.866 Y122.682 E0.0067 F750
G1 X111.733 Y122.865 E0.0137
G1 X111.539 Y123.243 E0.0267
G1 X111.431 Y123.622 E0.0387
G1 X111.398 Y124.005 E0.0505
G1 X111.432 Y124.385 E0.0622
G1 X111.544 Y124.777 E0.0747
G1 X111.741 Y125.155 E0.0877
G1 X112.010 Y125.484 E0.1008
G1 X112.174 Y125.633 E0.1076
G1 X112.354 Y125.765 E0.1144
G1 X112.725 Y125.957 E0.1272
G1 X113.119 Y126.070 E0.1397
G1 X113.529 Y126.103 E0.1523
G1 X113.882 Y126.069 E0.1632
G1 X114.274 Y125.955 E0.1757
G1 X114.643 Y125.764 E0.1884
G1 X114.822 Y125.633 E0.1952
G1 X114.986 Y125.484 E0.2020
G1 X115.237 Y125.181 E0.2141
G1 X115.363 Y124.969 E0.2216
G1 X115.454 Y124.769 E0.2283
G1 X115.564 Y124.385 E0.2406
G1 X115.600 Y124.000 E0.2524
G1 X115.564 Y123.620 E0.2641
G1 X115.452 Y123.230 E0.2766
G1 X115.257 Y122.854 E0.2895
G1 X114.983 Y122.518 E0.3028
G1 X114.647 Y122.244 E0.3161
G1 X114.271 Y122.049 E0.3290
G1 X113.878 Y121.936 E0.3416
G1 X113.499 Y121.901 E0.3532
G1 X113.116 Y121.937 E0.3650
G1 X112.724 Y122.049 E0.3775
G1 X112.351 Y122.243 E0.3904
G1 X112.175 Y122.372 E0.3971
G1 X112.013 Y122.519 E0.4038
; outer perimeter
G1 X111.480 Y92.423 F4800
G92 E0
G1 X111.408 Y92.807 E0.0120 F750
G1 X111.399 Y93.004 E0.0180
G1 X111.434 Y93.385 E0.0297
G1 X111.545 Y93.770 E0.0420
G1 X111.633 Y93.966 E0.0486
G1 X111.741 Y94.151 E0.0551
G1 X111.867 Y94.326 E0.0617
G1 X112.017 Y94.492 E0.0686
G1 X112.345 Y94.757 E0.0815
G1 X112.539 Y94.870 E0.0884
G1 X112.922 Y95.021 E0.1010
G1 X113.315 Y95.094 E0.1133
G1 X113.690 Y95.094 E0.1247
G1 X114.077 Y95.021 E0.1368
G1 X114.459 Y94.870 E0.1494
G1 X114.650 Y94.759 E0.1561
G1 X114.823 Y94.632 E0.1627
G1 X114.985 Y94.488 E0.1693
G1 X115.134 Y94.322 E0.1762
G1 X115.366 Y93.966 E0.1892
G1 X115.518 Y93.580 E0.2019
G1 X115.591 Y93.191 E0.2140
G1 X115.591 Y92.810 E0.2257
G1 X115.522 Y92.435 E0.2374
G1 X115.366 Y92.036 E0.2505
G1 X115.130 Y91.676 E0.2637
G1 X114.823 Y91.369 E0.2770
G1 X114.468 Y91.138 E0.2899
G1 X114.273 Y91.048 E0.2965
G1 X114.071 Y90.980 E0.3031
G1 X113.685 Y90.910 E0.3151
G1 X113.310 Y90.910 E0.3266
G1 X112.925 Y90.981 E0.3386
G1 X112.725 Y91.048 E0.3450
G1 X112.529 Y91.139 E0.3516
