; G-Code generated by Simplify3D(R) Version 3.0.2
; 11ÔÂ 14, 2017 at 6:43:59 ÏÂÎç
; Settings Summary
;   processName,Process1
;   applyToModels,XY×óÓÒ¼þ2
;   profileName,I3
;   profileVersion,2017-07-16 15:44:41
;   baseProfile,Default
;   printMaterial,PLA
;   printQuality,Medium
;   printExtruders,
;   extruderName,Extruder 1,Primary Extruder
;   extruderToolheadNumber,0,0
;   extruderDiameter,0.4,0.4
;   extruderAutoWidth,0,0
;   extruderWidth,0.4,0.4
;   extrusionMultiplier,0.9,0.9
;   extruderUseRetract,1,1
;   extruderRetractionDistance,3,3
;   extruderExtraRestartDistance,0,0
;   extruderRetractionZLift,0,0
;   extruderRetractionSpeed,1800,1800
;   extruderUseCoasting,0,0
;   extruderCoastingDistance,0.2,0.2
;   extruderUseWipe,0,0
;   extruderWipeDistance,5,5
;   primaryExtruder,0
;   layerHeight,0.2
;   topSolidLayers,3
;   bottomSolidLayers,3
;   perimeterOutlines,1
;   printPerimetersInsideOut,1
;   startPointOption,2
;   startPointOriginX,0
;   startPointOriginY,0
;   startPointOriginZ,300
;   sequentialIslands,0
;   spiralVaseMode,0
;   firstLayerHeightPercentage,80
;   firstLayerWidthPercentage,100
;   firstLayerUnderspeed,0.5
;   useRaft,0
;   raftExtruder,0
;   raftLayers,3
;   raftOffset,3
;   raftSeparationDistance,0.14
;   raftInfill,85
;   disableRaftBaseLayers,0
;   useSkirt,1
;   skirtExtruder,0
;   skirtLayers,1
;   skirtOutlines,2
;   skirtOffset,2
;   usePrimePillar,0
;   primePillarExtruder,999
;   primePillarWidth,12
;   primePillarLocation,7
;   primePillarSpeedMultiplier,1
;   useOozeShield,0
;   oozeShieldExtruder,999
;   oozeShieldOffset,2
;   oozeShieldOutlines,1
;   oozeShieldSidewallShape,1
;   oozeShieldSidewallAngle,30
;   oozeShieldSpeedMultiplier,1
;   infillExtruder,0
;   internalInfillPattern,Rectilinear
;   externalInfillPattern,Rectilinear
;   infillPercentage,90
;   outlineOverlapPercentage,25
;   infillExtrusionWidthPercentage,125
;   minInfillLength,5
;   infillLayerInterval,1
;   infillAngles,45,-45
;   overlapInfillAngles,0
;   generateSupport,1
;   supportExtruder,0
;   supportInfillPercentage,30
;   supportExtraInflation,0
;   denseSupportLayers,0
;   denseSupportInfillPercentage,70
;   supportLayerInterval,1
;   supportHorizontalPartOffset,0.3
;   supportUpperSeparationLayers,1
;   supportLowerSeparationLayers,1
;   supportType,0
;   supportGridSpacing,4
;   maxOverhangAngle,45
;   supportAngles,0
;   temperatureName,Extruder 1 Temperature,Heated Bed
;   temperatureNumber,0,0
;   temperatureSetpointCount,1,1
;   temperatureSetpointLayers,1,1
;   temperatureSetpointTemperatures,200,70
;   temperatureStabilizeAtStartup,1,1
;   temperatureHeatedBed,0,1
;   temperatureRelayBetweenLayers,0,0
;   temperatureRelayBetweenLoops,0,0
;   fanLayers,1,2
;   fanSpeeds,0,100
;   blipFanToFullPower,0
;   adjustSpeedForCooling,1
;   minSpeedLayerTime,15
;   minCoolingSpeedSlowdown,20
;   increaseFanForCooling,0
;   minFanLayerTime,45
;   maxCoolingFanSpeed,100
;   increaseFanForBridging,0
;   bridgingFanSpeed,100
;   use5D,1
;   relativeEdistances,0
;   allowEaxisZeroing,1
;   independentExtruderAxes,0
;   includeM10123,0
;   stickySupport,1
;   applyToolheadOffsets,0
;   gcodeXoffset,0
;   gcodeYoffset,0
;   gcodeZoffset,0
;   overrideMachineDefinition,1
;   machineTypeOverride,0
;   strokeXoverride,185
;   strokeYoverride,190
;   strokeZoverride,300
;   originOffsetXoverride,0
;   originOffsetYoverride,0
;   originOffsetZoverride,0
;   homeXdirOverride,-1
;   homeYdirOverride,-1
;   homeZdirOverride,-1
;   flipXoverride,1
;   flipYoverride,-1
;   flipZoverride,1
;   toolheadOffsets,0,0|0,0|0,0|0,0|0,0|0,0
;   overrideFirmwareConfiguration,1
;   firmwareTypeOverride,RepRap (Marlin/Repetier/Sprinter)
;   GPXconfigOverride,r2
;   baudRateOverride,250000
;   overridePrinterModels,0
;   printerModelsOverride
;   startingGcode,G28 ; home all axes
;   layerChangeGcode,
;   retractionGcode,
;   toolChangeGcode,
;   endingGcode,M104 S0 ; turn off extruder,M140 S0 ; turn off bed,M84 ; disable motors
;   createX3G,0
;   celebration,0
;   celebrationSong,Random Song
;   createMB5G,0
;   postProcessing,
;   defaultSpeed,3000
;   outlineUnderspeed,0.5
;   solidInfillUnderspeed,0.8
;   supportUnderspeed,0.8
;   rapidXYspeed,4800
;   rapidZspeed,1000
;   minBridgingArea,50
;   bridgingExtraInflation,0
;   bridgingExtrusionMultiplier,1
;   bridgingSpeedMultiplier,1
;   filamentDiameter,1.73
;   filamentPricePerKg,46
;   filamentDensity,1.25
;   useMinPrintHeight,0
;   minPrintHeight,0
;   useMaxPrintHeight,0
;   maxPrintHeight,0
;   useDiaphragm,0
;   diaphragmLayerInterval,20
;   robustSlicing,1
;   mergeAllIntoSolid,0
;   onlyRetractWhenCrossingOutline,1
;   retractBetweenLayers,1
;   useRetractionMinTravel,0
;   retractionMinTravel,3
;   retractWhileWiping,0
;   onlyWipeOutlines,1
;   avoidCrossingOutline,0
;   maxMovementDetourFactor,3
;   toolChangeRetractionDistance,12
;   toolChangeExtraRestartDistance,-0.5
;   toolChangeRetractionSpeed,600
;   allowThinWallGapFill,1
;   thinWallAllowedOverlapPercentage,10
;   horizontalSizeCompensation,0
G90
M82
M106 S0
M140 S70
M190 S70
M104 S200 T0
M109 S200 T0
G28 ; home all axes
G92 E0
G1 E-3.0000 F1800
G1 Z0.160 F1000
; layer 1, Z = 0.16
T0
; tool H0.200 W0.400
; skirt
G1 X60.357 Y86.233 F4800
G1 E0.0000 F540
G92 E0
G1 X60.374 Y86.222 E0.0006 F1500
G1 X61.439 Y85.538 E0.0394
G1 X61.457 Y85.528 E0.0400
G1 X61.593 Y85.453 E0.0448
G1 X61.611 Y85.444 E0.0454
G1 X62.737 Y84.920 E0.0834
G1 X62.755 Y84.912 E0.0840
G1 X62.893 Y84.859 E0.0886
G1 X62.911 Y84.852 E0.0892
G1 X64.063 Y84.487 E0.1262
G1 X64.081 Y84.482 E0.1268
G1 X64.226 Y84.447 E0.1313
G1 X64.245 Y84.443 E0.1319
G1 X65.411 Y84.234 E0.1682
G1 X65.425 Y84.231 E0.1686
G1 X65.534 Y84.217 E0.1720
G1 X65.548 Y84.216 E0.1724
G1 X66.172 Y84.164 E0.1916
G1 X66.184 Y84.164 E0.1920
G1 X66.277 Y84.160 E0.1948
G1 X66.290 Y84.160 E0.1952
G1 X75.400 Y84.152 E0.4743
G1 X75.400 Y77.543 E0.6767
G1 X75.423 Y77.427 E0.6803
G1 X75.773 Y76.583 E0.7083
G1 X75.838 Y76.485 E0.7119
G1 X79.485 Y72.838 E0.8699
G1 X79.583 Y72.773 E0.8735
G1 X80.427 Y72.423 E0.9015
G1 X80.543 Y72.400 E0.9051
G1 X87.955 Y72.400 E1.1321
G1 X88.176 Y72.491 E1.1395
G1 X89.516 Y73.834 E1.1976
G1 X89.608 Y74.055 E1.2049
G1 X89.602 Y78.500 E1.3411
G1 X89.511 Y78.720 E1.3484
G1 X88.171 Y80.059 E1.4064
G1 X87.950 Y80.150 E1.4137
G1 X87.388 Y80.150 E1.4309
G1 X87.385 Y83.187 E1.5239
G1 X87.391 Y109.350 E2.3253
G1 X87.948 Y109.350 E2.3424
G1 X88.169 Y109.441 E2.3497
G1 X89.509 Y110.780 E2.4077
G1 X89.600 Y111.000 E2.4150
G1 X89.605 Y115.946 E2.5665
G1 X89.514 Y116.167 E2.5738
G1 X88.173 Y117.509 E2.6319
G1 X87.953 Y117.600 E2.6392
G1 X80.543 Y117.600 E2.8662
G1 X80.427 Y117.577 E2.8698
G1 X79.583 Y117.227 E2.8978
G1 X79.485 Y117.162 E2.9014
G1 X75.838 Y113.515 E3.0594
G1 X75.773 Y113.417 E3.0630
G1 X75.423 Y112.573 E3.0910
G1 X75.400 Y112.457 E3.0946
G1 X75.400 Y105.850 E3.2970
G1 X66.697 Y105.850 E3.5635
G1 X66.687 Y105.850 E3.5638
G1 X66.611 Y105.847 E3.5662
G1 X66.601 Y105.847 E3.5665
G1 X65.448 Y105.770 E3.6019
G1 X65.433 Y105.769 E3.6023
G1 X65.322 Y105.756 E3.6057
G1 X65.308 Y105.754 E3.6062
G1 X64.682 Y105.651 E3.6256
G1 X64.667 Y105.648 E3.6261
G1 X64.559 Y105.625 E3.6295
G1 X64.545 Y105.622 E3.6299
G1 X63.398 Y105.317 E3.6662
G1 X63.385 Y105.313 E3.6667
G1 X63.279 Y105.280 E3.6701
G1 X63.266 Y105.275 E3.6705
G1 X62.674 Y105.056 E3.6899
G1 X62.664 Y105.052 E3.6902
G1 X62.590 Y105.021 E3.6926
G1 X62.580 Y105.017 E3.6929
G1 X61.966 Y104.739 E3.7136
G1 X61.952 Y104.732 E3.7141
G1 X61.847 Y104.678 E3.7177
G1 X61.833 Y104.671 E3.7182
G1 X60.760 Y104.045 E3.7562
G1 X60.743 Y104.034 E3.7568
G1 X60.617 Y103.949 E3.7615
G1 X60.601 Y103.938 E3.7621
G1 X59.606 Y103.166 E3.8007
G1 X59.591 Y103.153 E3.8013
G1 X59.473 Y103.048 E3.8061
G1 X59.458 Y103.034 E3.8067
G1 X58.564 Y102.120 E3.8459
G1 X58.554 Y102.108 E3.8464
G1 X58.474 Y102.018 E3.8501
G1 X58.464 Y102.006 E3.8505
G1 X58.044 Y101.476 E3.8713
G1 X58.035 Y101.464 E3.8717
G1 X57.969 Y101.371 E3.8752
G1 X57.961 Y101.359 E3.8757
G1 X57.298 Y100.326 E3.9133
G1 X57.290 Y100.312 E3.9137
G1 X57.231 Y100.209 E3.9174
G1 X57.224 Y100.195 E3.9179
G1 X56.933 Y99.619 E3.9376
G1 X56.929 Y99.611 E3.9379
G1 X56.899 Y99.545 E3.9401
G1 X56.895 Y99.537 E3.9404
G1 X56.645 Y98.953 E3.9599
G1 X56.640 Y98.939 E3.9603
G1 X56.600 Y98.832 E3.9638
G1 X56.596 Y98.818 E3.9643
G1 X56.245 Y97.704 E4.0000
G1 X56.241 Y97.691 E4.0005
G1 X56.214 Y97.589 E4.0037
G1 X56.211 Y97.576 E4.0041
G1 X56.081 Y96.977 E4.0229
G1 X56.078 Y96.962 E4.0233
G1 X56.059 Y96.849 E4.0268
G1 X56.057 Y96.835 E4.0273
G1 X55.920 Y95.638 E4.0642
G1 X55.919 Y95.620 E4.0647
G1 X55.911 Y95.479 E4.0690
G1 X55.911 Y95.461 E4.0696
G1 X55.920 Y94.375 E4.1029
G1 X55.920 Y94.361 E4.1033
G1 X55.925 Y94.258 E4.1065
G1 X55.926 Y94.245 E4.1069
G1 X55.988 Y93.615 E4.1262
G1 X55.990 Y93.601 E4.1267
G1 X56.006 Y93.488 E4.1302
G1 X56.009 Y93.474 E4.1306
G1 X56.240 Y92.311 E4.1670
G1 X56.245 Y92.292 E4.1675
G1 X56.282 Y92.152 E4.1720
G1 X56.287 Y92.134 E4.1726
G1 X56.677 Y90.967 E4.2102
G1 X56.684 Y90.948 E4.2109
G1 X56.744 Y90.803 E4.2157
G1 X56.752 Y90.784 E4.2163
G1 X57.322 Y89.633 E4.2556
G1 X57.331 Y89.615 E4.2562
G1 X57.408 Y89.483 E4.2609
G1 X57.419 Y89.466 E4.2616
G1 X58.097 Y88.458 E4.2988
G1 X58.105 Y88.446 E4.2992
G1 X58.173 Y88.356 E4.3027
G1 X58.182 Y88.344 E4.3031
G1 X58.613 Y87.823 E4.3238
G1 X58.620 Y87.815 E4.3242
G1 X58.676 Y87.752 E4.3267
G1 X58.684 Y87.744 E4.3271
G1 X59.153 Y87.254 E4.3479
G1 X59.164 Y87.243 E4.3483
G1 X59.249 Y87.163 E4.3519
G1 X59.260 Y87.153 E4.3524
G1 X60.217 Y86.338 E4.3909
G1 X60.233 Y86.326 E4.3915
G1 X60.357 Y86.233 E4.3962
G92 E0
G1 E-3.0000 F1800
G1 X95.400 Y78.499 F4800
G1 E0.0000 F1800
G92 E0
G1 X95.396 Y74.054 E0.1362 F1500
G1 X95.488 Y73.833 E0.1435
G1 X96.828 Y72.491 E0.2016
G1 X97.049 Y72.400 E0.2089
G1 X104.457 Y72.400 E0.4358
G1 X104.573 Y72.423 E0.4394
G1 X105.417 Y72.773 E0.4674
G1 X105.515 Y72.838 E0.4710
G1 X109.162 Y76.485 E0.6290
G1 X109.227 Y76.583 E0.6326
G1 X109.577 Y77.427 E0.6606
G1 X109.600 Y77.543 E0.6642
G1 X109.600 Y84.150 E0.8666
G1 X118.304 Y84.150 E1.1332
G1 X118.314 Y84.150 E1.1335
G1 X118.389 Y84.153 E1.1358
G1 X118.399 Y84.153 E1.1361
G1 X119.570 Y84.231 E1.1721
G1 X119.589 Y84.233 E1.1726
G1 X119.736 Y84.252 E1.1772
G1 X119.755 Y84.255 E1.1778
G1 X120.937 Y84.488 E1.2147
G1 X120.956 Y84.492 E1.2153
G1 X121.100 Y84.530 E1.2198
G1 X121.119 Y84.536 E1.2204
G1 X122.267 Y84.922 E1.2575
G1 X122.281 Y84.927 E1.2580
G1 X122.389 Y84.970 E1.2616
G1 X122.403 Y84.975 E1.2620
G1 X123.034 Y85.261 E1.2832
G1 X123.048 Y85.267 E1.2837
G1 X123.152 Y85.321 E1.2873
G1 X123.165 Y85.329 E1.2877
G1 X124.224 Y85.945 E1.3253
G1 X124.237 Y85.953 E1.3257
G1 X124.334 Y86.015 E1.3293
G1 X124.346 Y86.024 E1.3297
G1 X124.876 Y86.408 E1.3498
G1 X124.884 Y86.414 E1.3501
G1 X124.946 Y86.462 E1.3525
G1 X124.954 Y86.469 E1.3528
G1 X125.448 Y86.881 E1.3725
G1 X125.460 Y86.891 E1.3730
G1 X125.545 Y86.970 E1.3766
G1 X125.556 Y86.981 E1.3770
G1 X126.449 Y87.893 E1.4161
G1 X126.462 Y87.908 E1.4167
G1 X126.564 Y88.028 E1.4216
G1 X126.577 Y88.044 E1.4222
G1 X127.323 Y89.052 E1.4606
G1 X127.332 Y89.064 E1.4610
G1 X127.396 Y89.161 E1.4646
G1 X127.404 Y89.174 E1.4651
G1 X127.746 Y89.750 E1.4856
G1 X127.754 Y89.763 E1.4861
G1 X127.808 Y89.865 E1.4896
G1 X127.814 Y89.879 E1.4901
G1 X128.322 Y90.971 E1.5269
G1 X128.328 Y90.984 E1.5274
G1 X128.371 Y91.088 E1.5308
G1 X128.376 Y91.102 E1.5313
G1 X128.584 Y91.693 E1.5505
G1 X128.587 Y91.702 E1.5508
G1 X128.608 Y91.771 E1.5530
G1 X128.611 Y91.779 E1.5533
G1 X128.779 Y92.374 E1.5722
G1 X128.782 Y92.388 E1.5726
G1 X128.808 Y92.498 E1.5761
G1 X128.811 Y92.512 E1.5765
G1 X129.019 Y93.673 E1.6126
G1 X129.022 Y93.691 E1.6132
G1 X129.038 Y93.830 E1.6175
G1 X129.040 Y93.848 E1.6180
G1 X129.099 Y94.907 E1.6505
G1 X129.099 Y94.920 E1.6509
G1 X129.100 Y95.024 E1.6541
G1 X129.100 Y95.038 E1.6545
G1 X129.078 Y95.679 E1.6742
G1 X129.078 Y95.689 E1.6745
G1 X129.073 Y95.761 E1.6767
G1 X129.072 Y95.770 E1.6770
G1 X129.012 Y96.384 E1.6959
G1 X129.010 Y96.398 E1.6963
G1 X128.994 Y96.508 E1.6997
G1 X128.992 Y96.523 E1.7002
G1 X128.762 Y97.687 E1.7365
G1 X128.758 Y97.706 E1.7371
G1 X128.720 Y97.850 E1.7417
G1 X128.714 Y97.869 E1.7423
G1 X128.328 Y99.017 E1.7794
G1 X128.323 Y99.031 E1.7799
G1 X128.280 Y99.139 E1.7834
G1 X128.275 Y99.153 E1.7839
G1 X127.989 Y99.784 E1.8051
G1 X127.982 Y99.798 E1.8056
G1 X127.928 Y99.903 E1.8092
G1 X127.921 Y99.917 E1.8096
G1 X127.295 Y100.990 E1.8477
G1 X127.284 Y101.007 E1.8483
G1 X127.199 Y101.133 E1.8530
G1 X127.188 Y101.149 E1.8536
G1 X126.416 Y102.144 E1.8921
G1 X126.403 Y102.160 E1.8928
G1 X126.298 Y102.277 E1.8976
G1 X126.284 Y102.292 E1.8982
G1 X125.357 Y103.199 E1.9379
G1 X125.342 Y103.212 E1.9386
G1 X125.222 Y103.314 E1.9434
G1 X125.206 Y103.327 E1.9440
G1 X124.182 Y104.085 E1.9830
G1 X124.166 Y104.096 E1.9836
G1 X124.034 Y104.180 E1.9884
G1 X124.017 Y104.191 E1.9890
G1 X122.916 Y104.794 E2.0275
G1 X122.898 Y104.803 E2.0281
G1 X122.762 Y104.867 E2.0327
G1 X122.744 Y104.874 E2.0333
G1 X121.604 Y105.318 E2.0708
G1 X121.585 Y105.325 E2.0714
G1 X121.445 Y105.369 E2.0759
G1 X121.427 Y105.374 E2.0765
G1 X120.286 Y105.657 E2.1125
G1 X120.267 Y105.661 E2.1131
G1 X120.121 Y105.688 E2.1176
G1 X120.102 Y105.691 E2.1182
G1 X118.895 Y105.829 E2.1554
G1 X118.878 Y105.831 E2.1559
G1 X118.748 Y105.838 E2.1599
G1 X118.731 Y105.839 E2.1604
G1 X109.600 Y105.847 E2.4401
G1 X109.600 Y112.457 E2.6426
G1 X109.577 Y112.573 E2.6462
G1 X109.227 Y113.417 E2.6742
G1 X109.162 Y113.515 E2.6778
G1 X105.515 Y117.162 E2.8358
G1 X105.417 Y117.227 E2.8394
G1 X104.573 Y117.577 E2.8674
G1 X104.457 Y117.600 E2.8710
G1 X97.049 Y117.600 E3.0979
G1 X96.829 Y117.509 E3.1052
G1 X95.488 Y116.168 E3.1633
G1 X95.397 Y115.948 E3.1706
G1 X95.397 Y111.002 E3.3221
G1 X95.488 Y110.782 E3.3294
G1 X96.828 Y109.441 E3.3874
G1 X97.049 Y109.350 E3.3947
G1 X97.616 Y109.350 E3.4121
G1 X97.616 Y80.150 E4.3065
G1 X97.052 Y80.150 E4.3238
G1 X96.831 Y80.059 E4.3311
G1 X95.491 Y78.720 E4.3891
G1 X95.400 Y78.499 E4.3964
G1 X95.800 Y78.419 F4800
G92 E0
G1 X95.796 Y74.133 E0.1313 F1500
G1 X95.827 Y74.059 E0.1337
G1 X97.055 Y72.830 E0.1869
G1 X97.128 Y72.800 E0.1894
G1 X104.418 Y72.800 E0.4127
G1 X104.456 Y72.808 E0.4139
G1 X105.228 Y73.127 E0.4394
G1 X105.260 Y73.149 E0.4406
G1 X108.851 Y76.740 E0.5962
G1 X108.873 Y76.772 E0.5974
G1 X109.192 Y77.544 E0.6230
G1 X109.200 Y77.582 E0.6242
G1 X109.200 Y84.550 E0.8376
G1 X118.300 Y84.550 E1.1163
G1 X118.304 Y84.550 E1.1164
G1 X118.373 Y84.553 E1.1186
G1 X118.376 Y84.553 E1.1187
G1 X119.537 Y84.629 E1.1543
G1 X119.544 Y84.630 E1.1545
G1 X119.678 Y84.648 E1.1586
G1 X119.684 Y84.649 E1.1588
G1 X120.853 Y84.879 E1.1953
G1 X120.860 Y84.880 E1.1955
G1 X120.991 Y84.915 E1.1997
G1 X120.997 Y84.917 E1.1999
G1 X122.135 Y85.299 E1.2367
G1 X122.140 Y85.301 E1.2368
G1 X122.238 Y85.340 E1.2401
G1 X122.243 Y85.342 E1.2402
G1 X122.864 Y85.623 E1.2611
G1 X122.869 Y85.625 E1.2613
G1 X122.964 Y85.674 E1.2645
G1 X122.968 Y85.677 E1.2647
G1 X124.019 Y86.288 E1.3019
G1 X124.023 Y86.291 E1.3021
G1 X124.111 Y86.348 E1.3053
G1 X124.115 Y86.351 E1.3054
G1 X124.638 Y86.730 E1.3252
G1 X124.641 Y86.732 E1.3253
G1 X124.698 Y86.776 E1.3275
G1 X124.700 Y86.778 E1.3276
G1 X125.188 Y87.185 E1.3471
G1 X125.192 Y87.188 E1.3472
G1 X125.270 Y87.260 E1.3505
G1 X125.274 Y87.264 E1.3507
G1 X126.158 Y88.168 E1.3894
G1 X126.162 Y88.173 E1.3896
G1 X126.256 Y88.282 E1.3940
G1 X126.260 Y88.288 E1.3942
G1 X126.998 Y89.286 E1.4322
G1 X127.001 Y89.290 E1.4324
G1 X127.060 Y89.378 E1.4357
G1 X127.063 Y89.383 E1.4358
G1 X127.400 Y89.950 E1.4560
G1 X127.402 Y89.954 E1.4562
G1 X127.452 Y90.048 E1.4594
G1 X127.454 Y90.052 E1.4596
G1 X127.958 Y91.135 E1.4961
G1 X127.960 Y91.139 E1.4963
G1 X127.999 Y91.235 E1.4994
G1 X128.000 Y91.239 E1.4996
G1 X128.205 Y91.823 E1.5185
G1 X128.206 Y91.826 E1.5186
G1 X128.226 Y91.888 E1.5206
G1 X128.227 Y91.891 E1.5207
G1 X128.392 Y92.478 E1.5394
G1 X128.394 Y92.483 E1.5396
G1 X128.417 Y92.583 E1.5427
G1 X128.418 Y92.588 E1.5428
G1 X128.624 Y93.738 E1.5786
G1 X128.625 Y93.744 E1.5788
