; G-Code generated by Simplify3D(R) Version 3.0.2
; 11月 14, 2017 at 6:43:17 下午
; Settings Summary
;   processName,Process1
;   applyToModels,XY左电机固定光轴件
;   profileName,I3
;   profileVersion,2017-07-16 15:44:41
;   baseProfile,Default
;   printMaterial,PLA
;   printQuality,Medium
;   printExtruders,
;   extruderName,Extruder 1,Primary Extruder
;   extruderToolheadNumber,0,0
;   extruderDiameter,0.4,0.4
;   extruderAutoWidth,0,0
;   extruderWidth,0.4,0.4
;   extrusionMultiplier,0.9,0.9
;   extruderUseRetract,1,1
;   extruderRetractionDistance,3,3
;   extruderExtraRestartDistance,0,0
;   extruderRetractionZLift,0,0
;   extruderRetractionSpeed,1800,1800
;   extruderUseCoasting,0,0
;   extruderCoastingDistance,0.2,0.2
;   extruderUseWipe,0,0
;   extruderWipeDistance,5,5
;   primaryExtruder,0
;   layerHeight,0.2
;   topSolidLayers,3
;   bottomSolidLayers,3
;   perimeterOutlines,1
;   printPerimetersInsideOut,1
;   startPointOption,2
;   startPointOriginX,0
;   startPointOriginY,0
;   startPointOriginZ,300
;   sequentialIslands,0
;   spiralVaseMode,0
;   firstLayerHeightPercentage,80
;   firstLayerWidthPercentage,100
;   firstLayerUnderspeed,0.5
;   useRaft,0
;   raftExtruder,0
;   raftLayers,3
;   raftOffset,3
;   raftSeparationDistance,0.14
;   raftInfill,85
;   disableRaftBaseLayers,0
;   useSkirt,1
;   skirtExtruder,0
;   skirtLayers,1
;   skirtOutlines,2
;   skirtOffset,2
;   usePrimePillar,0
;   primePillarExtruder,999
;   primePillarWidth,12
;   primePillarLocation,7
;   primePillarSpeedMultiplier,1
;   useOozeShield,0
;   oozeShieldExtruder,999
;   oozeShieldOffset,2
;   oozeShieldOutlines,1
;   oozeShieldSidewallShape,1
;   oozeShieldSidewallAngle,30
;   oozeShieldSpeedMultiplier,1
;   infillExtruder,0
;   internalInfillPattern,Rectilinear
;   externalInfillPattern,Rectilinear
;   infillPercentage,90
;   outlineOverlapPercentage,25
;   infillExtrusionWidthPercentage,125
;   minInfillLength,5
;   infillLayerInterval,1
;   infillAngles,45,-45
;   overlapInfillAngles,0
;   generateSupport,1
;   supportExtruder,0
;   supportInfillPercentage,30
;   supportExtraInflation,0
;   denseSupportLayers,0
;   denseSupportInfillPercentage,70
;   supportLayerInterval,1
;   supportHorizontalPartOffset,0.3
;   supportUpperSeparationLayers,1
;   supportLowerSeparationLayers,1
;   supportType,0
;   supportGridSpacing,4
;   maxOverhangAngle,45
;   supportAngles,0
;   temperatureName,Extruder 1 Temperature,Heated Bed
;   temperatureNumber,0,0
;   temperatureSetpointCount,1,1
;   temperatureSetpointLayers,1,1
;   temperatureSetpointTemperatures,200,70
;   temperatureStabilizeAtStartup,1,1
;   temperatureHeatedBed,0,1
;   temperatureRelayBetweenLayers,0,0
;   temperatureRelayBetweenLoops,0,0
;   fanLayers,1,2
;   fanSpeeds,0,100
;   blipFanToFullPower,0
;   adjustSpeedForCooling,1
;   minSpeedLayerTime,15
;   minCoolingSpeedSlowdown,20
;   increaseFanForCooling,0
;   minFanLayerTime,45
;   maxCoolingFanSpeed,100
;   increaseFanForBridging,0
;   bridgingFanSpeed,100
;   use5D,1
;   relativeEdistances,0
;   allowEaxisZeroing,1
;   independentExtruderAxes,0
;   includeM10123,0
;   stickySupport,1
;   applyToolheadOffsets,0
;   gcodeXoffset,0
;   gcodeYoffset,0
;   gcodeZoffset,0
;   overrideMachineDefinition,1
;   machineTypeOverride,0
;   strokeXoverride,185
;   strokeYoverride,190
;   strokeZoverride,300
;   originOffsetXoverride,0
;   originOffsetYoverride,0
;   originOffsetZoverride,0
;   homeXdirOverride,-1
;   homeYdirOverride,-1
;   homeZdirOverride,-1
;   flipXoverride,1
;   flipYoverride,-1
;   flipZoverride,1
;   toolheadOffsets,0,0|0,0|0,0|0,0|0,0|0,0
;   overrideFirmwareConfiguration,1
;   firmwareTypeOverride,RepRap (Marlin/Repetier/Sprinter)
;   GPXconfigOverride,r2
;   baudRateOverride,250000
;   overridePrinterModels,0
;   printerModelsOverride
;   startingGcode,G28 ; home all axes
;   layerChangeGcode,
;   retractionGcode,
;   toolChangeGcode,
;   endingGcode,M104 S0 ; turn off extruder,M140 S0 ; turn off bed,M84 ; disable motors
;   createX3G,0
;   celebration,0
;   celebrationSong,Random Song
;   createMB5G,0
;   postProcessing,
;   defaultSpeed,3000
;   outlineUnderspeed,0.5
;   solidInfillUnderspeed,0.8
;   supportUnderspeed,0.8
;   rapidXYspeed,4800
;   rapidZspeed,1000
;   minBridgingArea,50
;   bridgingExtraInflation,0
;   bridgingExtrusionMultiplier,1
;   bridgingSpeedMultiplier,1
;   filamentDiameter,1.73
;   filamentPricePerKg,46
;   filamentDensity,1.25
;   useMinPrintHeight,0
;   minPrintHeight,0
;   useMaxPrintHeight,0
;   maxPrintHeight,0
;   useDiaphragm,0
;   diaphragmLayerInterval,20
;   robustSlicing,1
;   mergeAllIntoSolid,0
;   onlyRetractWhenCrossingOutline,1
;   retractBetweenLayers,1
;   useRetractionMinTravel,0
;   retractionMinTravel,3
;   retractWhileWiping,0
;   onlyWipeOutlines,1
;   avoidCrossingOutline,0
;   maxMovementDetourFactor,3
;   toolChangeRetractionDistance,12
;   toolChangeExtraRestartDistance,-0.5
;   toolChangeRetractionSpeed,600
;   allowThinWallGapFill,1
;   thinWallAllowedOverlapPercentage,10
;   horizontalSizeCompensation,0
G90
M82
M106 S0
M140 S70
M190 S70
M104 S200 T0
M109 S200 T0
G28 ; home all axes
G92 E0
G1 E-3.0000 F1800
G1 Z0.160 F1000
; layer 1, Z = 0.16
T0
; tool H0.200 W0.400
; skirt
G1 X71.207 Y88.041 F4800
G1 E0.0000 F540
G92 E0
G1 X71.427 Y87.950 E0.0073 F1500
G1 X85.157 Y87.950 E0.4279
G1 X85.282 Y87.874 E0.4323
G1 X85.295 Y87.867 E0.4328
G1 X85.398 Y87.812 E0.4364
G1 X85.411 Y87.805 E0.4368
G1 X85.904 Y87.572 E0.4535
G1 X85.919 Y87.565 E0.4540
G1 X86.029 Y87.520 E0.4577
G1 X86.044 Y87.514 E0.4582
G1 X86.963 Y87.191 E0.4880
G1 X86.982 Y87.185 E0.4886
G1 X87.132 Y87.144 E0.4934
G1 X87.152 Y87.139 E0.4940
G1 X88.101 Y86.944 E0.5237
G1 X88.122 Y86.940 E0.5243
G1 X88.277 Y86.919 E0.5291
G1 X88.298 Y86.917 E0.5298
G1 X89.293 Y86.852 E0.5603
G1 X89.309 Y86.851 E0.5608
G1 X89.429 Y86.849 E0.5645
G1 X89.445 Y86.850 E0.5650
G1 X89.975 Y86.870 E0.5812
G1 X89.990 Y86.871 E0.5817
G1 X90.106 Y86.882 E0.5853
G1 X90.122 Y86.884 E0.5857
G1 X91.089 Y87.021 E0.6156
G1 X91.109 Y87.024 E0.6163
G1 X91.261 Y87.056 E0.6210
G1 X91.281 Y87.061 E0.6217
G1 X92.205 Y87.323 E0.6511
G1 X92.223 Y87.329 E0.6517
G1 X92.365 Y87.380 E0.6563
G1 X92.383 Y87.387 E0.6569
G1 X93.244 Y87.758 E0.6856
G1 X93.262 Y87.766 E0.6862
G1 X93.398 Y87.836 E0.6909
G1 X93.416 Y87.846 E0.6915
G1 X93.589 Y87.950 E0.6977
G1 X113.573 Y87.950 E1.3098
G1 X113.793 Y88.041 E1.3171
G1 X115.134 Y89.382 E1.3752
G1 X115.225 Y89.602 E1.3825
G1 X115.225 Y101.498 E1.7468
G1 X115.134 Y101.718 E1.7542
G1 X113.793 Y103.059 E1.8122
G1 X113.573 Y103.150 E1.8195
G1 X99.537 Y103.150 E2.2494
G1 X99.515 Y103.149 E2.2501
G1 X99.340 Y103.136 E2.2555
G1 X99.317 Y103.133 E2.2562
G1 X94.700 Y102.425 E2.3993
G1 X94.140 Y102.849 E2.4208
G1 X94.054 Y102.895 E2.4238
G1 X93.341 Y103.134 E2.4468
G1 X93.245 Y103.150 E2.4498
G1 X85.485 Y103.150 E2.6875
G1 X85.384 Y103.133 E2.6906
G1 X84.638 Y102.868 E2.7149
G1 X84.549 Y102.818 E2.7180
G1 X84.063 Y102.423 E2.7372
G1 X79.433 Y103.133 E2.8807
G1 X79.410 Y103.136 E2.8814
G1 X79.235 Y103.149 E2.8867
G1 X79.213 Y103.150 E2.8874
G1 X71.427 Y103.150 E3.1259
G1 X71.207 Y103.059 E3.1332
G1 X69.866 Y101.718 E3.1913
G1 X69.775 Y101.498 E3.1986
G1 X69.775 Y89.602 E3.5629
G1 X69.866 Y89.382 E3.5703
G1 X71.207 Y88.041 E3.6283
G1 X71.433 Y88.380 F4800
G92 E0
G1 X71.507 Y88.350 E0.0024 F1500
G1 X85.268 Y88.350 E0.4240
G1 X85.485 Y88.219 E0.4317
G1 X85.489 Y88.217 E0.4319
G1 X85.582 Y88.167 E0.4351
G1 X85.587 Y88.164 E0.4353
G1 X86.071 Y87.935 E0.4516
G1 X86.075 Y87.933 E0.4518
G1 X86.177 Y87.892 E0.4552
G1 X86.182 Y87.890 E0.4553
G1 X87.089 Y87.571 E0.4848
G1 X87.095 Y87.569 E0.4850
G1 X87.233 Y87.531 E0.4893
G1 X87.239 Y87.529 E0.4896
G1 X88.175 Y87.337 E0.5188
G1 X88.182 Y87.336 E0.5190
G1 X88.324 Y87.317 E0.5234
G1 X88.331 Y87.316 E0.5236
G1 X89.314 Y87.251 E0.5538
G1 X89.319 Y87.251 E0.5540
G1 X89.429 Y87.249 E0.5573
G1 X89.435 Y87.250 E0.5575
G1 X89.954 Y87.270 E0.5734
G1 X89.959 Y87.270 E0.5736
G1 X90.065 Y87.280 E0.5769
G1 X90.070 Y87.280 E0.5770
G1 X91.026 Y87.416 E0.6066
G1 X91.033 Y87.417 E0.6068
G1 X91.172 Y87.446 E0.6111
G1 X91.178 Y87.448 E0.6113
G1 X92.089 Y87.706 E0.6403
G1 X92.096 Y87.708 E0.6405
G1 X92.225 Y87.754 E0.6448
G1 X92.231 Y87.757 E0.6450
G1 X93.079 Y88.122 E0.6732
G1 X93.085 Y88.125 E0.6734
G1 X93.210 Y88.189 E0.6777
G1 X93.216 Y88.192 E0.6779
G1 X93.478 Y88.350 E0.6873
G1 X113.493 Y88.350 E1.3004
G1 X113.567 Y88.380 E1.3028
G1 X114.795 Y89.608 E1.3560
G1 X114.825 Y89.682 E1.3584
G1 X114.825 Y101.418 E1.7179
G1 X114.795 Y101.492 E1.7204
G1 X113.567 Y102.720 E1.7736
G1 X113.493 Y102.750 E1.7760
G1 X99.545 Y102.750 E2.2032
G1 X99.537 Y102.750 E2.2035
G1 X99.378 Y102.738 E2.2084
G1 X99.371 Y102.737 E2.2086
G1 X94.593 Y102.004 E2.3566
G1 X93.924 Y102.511 E2.3823
G1 X93.896 Y102.526 E2.3833
G1 X93.245 Y102.745 E2.4044
G1 X93.213 Y102.750 E2.4054
G1 X85.519 Y102.750 E2.6410
G1 X85.486 Y102.744 E2.6421
G1 X84.804 Y102.502 E2.6642
G1 X84.774 Y102.486 E2.6653
G1 X84.178 Y102.001 E2.6888
G1 X79.379 Y102.737 E2.8375
G1 X79.372 Y102.738 E2.8377
G1 X79.213 Y102.750 E2.8426
G1 X79.205 Y102.750 E2.8429
G1 X71.507 Y102.750 E3.0786
G1 X71.433 Y102.720 E3.0811
G1 X70.205 Y101.492 E3.1343
G1 X70.175 Y101.418 E3.1367
G1 X70.175 Y89.682 E3.4962
G1 X70.205 Y89.608 E3.4986
G1 X71.433 Y88.380 E3.5518
G92 E0
G1 E-3.0000 F1800
; outer perimeter
G1 X72.575 Y90.750 F4800
G1 E0.0000 F1800
G92 E0
G1 X85.940 Y90.750 E0.4094 F750
G1 X86.319 Y90.503 E0.4232
G1 X86.668 Y90.308 E0.4355
G1 X87.042 Y90.131 E0.4481
G1 X87.414 Y89.985 E0.4604
G1 X87.805 Y89.863 E0.4729
G1 X88.180 Y89.773 E0.4848
G1 X88.574 Y89.705 E0.4970
G1 X88.985 Y89.663 E0.5097
G1 X89.403 Y89.650 E0.5225
G1 X89.800 Y89.666 E0.5346
G1 X90.202 Y89.709 E0.5470
G1 X90.605 Y89.780 E0.5596
G1 X90.968 Y89.869 E0.5710
G1 X91.356 Y89.993 E0.5835
G1 X91.695 Y90.126 E0.5946
G1 X92.053 Y90.293 E0.6067
G1 X92.402 Y90.486 E0.6189
G1 X92.810 Y90.750 E0.6338
G1 X112.425 Y90.750 E1.2346
G1 X112.425 Y100.350 E1.5287
G1 X99.640 Y100.350 E1.9203
G1 X93.804 Y99.455 E2.1011
G1 X93.434 Y99.831 E2.1173
G1 X93.112 Y100.115 E2.1305
G1 X92.802 Y100.350 E2.1424
G1 X90.075 Y100.350 E2.2259
G1 X90.075 Y99.788 E2.2431
G1 X90.301 Y99.749 E2.2501
G1 X90.692 Y99.644 E2.2625
G1 X91.084 Y99.496 E2.2754
G1 X91.460 Y99.311 E2.2882
G1 X91.808 Y99.096 E2.3007
G1 X92.125 Y98.856 E2.3129
G1 X92.419 Y98.588 E2.3251
G1 X92.675 Y98.307 E2.3367
G1 X92.917 Y97.989 E2.3490
G1 X93.128 Y97.649 E2.3612
G1 X93.311 Y97.281 E2.3738
G1 X93.461 Y96.889 E2.3867
G1 X93.572 Y96.488 E2.3994
G1 X93.643 Y96.076 E2.4122
G1 X93.674 Y95.655 E2.4252
G1 X93.664 Y95.233 E2.4381
G1 X93.612 Y94.815 E2.4510
G1 X93.521 Y94.408 E2.4638
G1 X93.392 Y94.016 E2.4764
G1 X93.230 Y93.645 E2.4888
G1 X93.046 Y93.311 E2.5005
G1 X92.830 Y92.990 E2.5123
G1 X92.567 Y92.669 E2.5250
G1 X92.332 Y92.428 E2.5354
G1 X92.019 Y92.158 E2.5480
G1 X91.697 Y91.931 E2.5601
G1 X91.347 Y91.729 E2.5725
G1 X90.971 Y91.557 E2.5851
G1 X90.574 Y91.420 E2.5980
G1 X90.169 Y91.324 E2.6107
G1 X89.753 Y91.266 E2.6236
G1 X89.331 Y91.250 E2.6365
G1 X88.910 Y91.275 E2.6495
G1 X88.495 Y91.341 E2.6623
G1 X88.093 Y91.445 E2.6751
G1 X87.708 Y91.586 E2.6876
G1 X87.345 Y91.759 E2.6999
G1 X87.007 Y91.961 E2.7120
G1 X86.681 Y92.198 E2.7243
G1 X86.389 Y92.455 E2.7362
G1 X86.157 Y92.699 E2.7466
G1 X85.901 Y93.016 E2.7590
G1 X85.681 Y93.348 E2.7712
G1 X85.489 Y93.708 E2.7837
G1 X85.329 Y94.092 E2.7965
G1 X85.207 Y94.492 E2.8093
G1 X85.124 Y94.901 E2.8221
G1 X85.081 Y95.320 E2.8350
G1 X85.079 Y95.742 E2.8479
G1 X85.119 Y96.162 E2.8608
G1 X85.198 Y96.573 E2.8736
G1 X85.316 Y96.970 E2.8863
G1 X85.469 Y97.348 E2.8988
G1 X85.645 Y97.689 E2.9106
G1 X85.854 Y98.018 E2.9225
G1 X86.109 Y98.347 E2.9353
G1 X86.345 Y98.601 E2.9459
G1 X86.640 Y98.868 E2.9581
G1 X86.967 Y99.113 E2.9706
G1 X87.302 Y99.317 E2.9826
G1 X87.660 Y99.493 E2.9948
G1 X88.040 Y99.638 E3.0073
G1 X88.439 Y99.747 E3.0199
G1 X88.675 Y99.788 E3.0273
G1 X88.675 Y100.350 E3.0445
G1 X85.948 Y100.350 E3.1280
G1 X85.662 Y100.135 E3.1390
G1 X85.338 Y99.852 E3.1522
G1 X84.946 Y99.455 E3.1693
G1 X79.110 Y100.350 E3.3501
G1 X72.575 Y100.350 E3.5503
G1 X72.575 Y90.750 E3.8443
; outer perimeter
G1 X76.155 Y93.561 F4800
G92 E0
G1 X75.962 Y93.772 E0.0088 F750
G1 X75.803 Y93.985 E0.0169
G1 X75.662 Y94.218 E0.0253
G1 X75.541 Y94.471 E0.0338
G1 X75.445 Y94.738 E0.0425
G1 X75.377 Y95.012 E0.0512
G1 X75.337 Y95.293 E0.0599
G1 X75.325 Y95.579 E0.0686
G1 X75.342 Y95.864 E0.0774
G1 X75.389 Y96.145 E0.0861
G1 X75.462 Y96.416 E0.0947
G1 X75.561 Y96.675 E0.1032
G1 X75.681 Y96.918 E0.1115
G1 X75.822 Y97.142 E0.1196
G1 X75.987 Y97.358 E0.1279
G1 X76.136 Y97.520 E0.1347
G1 X76.347 Y97.713 E0.1434
G1 X76.560 Y97.872 E0.1516
G1 X76.793 Y98.013 E0.1599
G1 X77.046 Y98.134 E0.1685
G1 X77.313 Y98.230 E0.1772
G1 X77.587 Y98.298 E0.1858
G1 X77.868 Y98.338 E0.1946
G1 X78.154 Y98.350 E0.2033
G1 X78.439 Y98.333 E0.2121
G1 X78.720 Y98.286 E0.2208
G1 X78.991 Y98.213 E0.2294
G1 X79.250 Y98.114 E0.2379
G1 X79.493 Y97.993 E0.2462
G1 X79.721 Y97.851 E0.2544
G1 X80.092 Y97.543 E0.2692
G1 X80.288 Y97.328 E0.2781
G1 X80.447 Y97.115 E0.2862
G1 X80.588 Y96.882 E0.2946
G1 X80.709 Y96.629 E0.3032
G1 X80.805 Y96.362 E0.3119
G1 X80.873 Y96.088 E0.3205
G1 X80.913 Y95.807 E0.3292
G1 X80.925 Y95.521 E0.3380
G1 X80.908 Y95.235 E0.3467
G1 X80.861 Y94.955 E0.3554
G1 X80.788 Y94.684 E0.3641
G1 X80.689 Y94.425 E0.3725
G1 X80.569 Y94.182 E0.3808
G1 X80.428 Y93.958 E0.3889
G1 X80.263 Y93.742 E0.3973
G1 X80.114 Y93.580 E0.4040
G1 X79.903 Y93.387 E0.4128
G1 X79.690 Y93.228 E0.4209
G1 X79.457 Y93.087 E0.4293
G1 X79.204 Y92.966 E0.4378
G1 X78.937 Y92.870 E0.4465
G1 X78.663 Y92.802 E0.4552
G1 X78.382 Y92.761 E0.4639
G1 X78.096 Y92.750 E0.4727
G1 X77.811 Y92.767 E0.4814
G1 X77.530 Y92.814 E0.4901
G1 X77.259 Y92.887 E0.4987
G1 X77.000 Y92.986 E0.5072
G1 X76.757 Y93.106 E0.5155
G1 X76.533 Y93.247 E0.5236
G1 X76.317 Y93.411 E0.5319
G1 X76.155 Y93.561 E0.5387
G92 E0
G1 E-3.0000 F1800
; outer perimeter
G1 X105.128 Y95.012 F4800
G1 E0.0000 F1800
G92 E0
G1 X105.089 Y95.267 E0.0079 F750
G1 X105.075 Y95.551 E0.0166
G1 X105.089 Y95.832 E0.0252
G1 X105.132 Y96.114 E0.0340
G1 X105.204 Y96.391 E0.0427
G1 X105.304 Y96.659 E0.0515
G1 X105.429 Y96.914 E0.0602
G1 X105.578 Y97.152 E0.0688
G1 X105.748 Y97.371 E0.0773
G1 X105.941 Y97.575 E0.0859
G1 X106.141 Y97.749 E0.0940
G1 X106.354 Y97.901 E0.1020
G1 X106.556 Y98.020 E0.1092
G1 X106.802 Y98.136 E0.1175
G1 X107.051 Y98.226 E0.1257
G1 X107.295 Y98.289 E0.1334
G1 X107.592 Y98.336 E0.1426
G1 X107.876 Y98.350 E0.1513
G1 X108.158 Y98.336 E0.1599
G1 X108.439 Y98.293 E0.1686
G1 X108.716 Y98.221 E0.1774
G1 X108.984 Y98.121 E0.1862
G1 X109.239 Y97.996 E0.1949
G1 X109.477 Y97.847 E0.2035
G1 X109.696 Y97.677 E0.2120
G1 X109.900 Y97.484 E0.2206
G1 X110.074 Y97.283 E0.2287
G1 X110.226 Y97.071 E0.2367
G1 X110.345 Y96.869 E0.2439
G1 X110.465 Y96.614 E0.2525
G1 X110.551 Y96.374 E0.2603
G1 X110.614 Y96.130 E0.2680
G1 X110.661 Y95.833 E0.2772
G1 X110.675 Y95.549 E0.2860
G1 X110.661 Y95.267 E0.2946
G1 X110.618 Y94.986 E0.3033
G1 X110.546 Y94.709 E0.3121
G1 X110.446 Y94.441 E0.3208
G1 X110.321 Y94.186 E0.3295
G1 X110.172 Y93.948 E0.3381
G1 X110.002 Y93.729 E0.3466
G1 X109.809 Y93.525 E0.3552
G1 X109.609 Y93.351 E0.3634
G1 X109.396 Y93.199 E0.3714
G1 X109.194 Y93.080 E0.3785
G1 X108.939 Y92.960 E0.3872
G1 X108.698 Y92.873 E0.3950
G1 X108.413 Y92.803 E0.4040
G1 X108.158 Y92.764 E0.4119
G1 X107.874 Y92.750 E0.4206
G1 X107.592 Y92.764 E0.4293
G1 X107.311 Y92.807 E0.4380
G1 X107.034 Y92.879 E0.4467
G1 X106.766 Y92.979 E0.4555
G1 X106.511 Y93.104 E0.4642
G1 X106.273 Y93.253 E0.4728
G1 X106.054 Y93.423 E0.4813
G1 X105.850 Y93.616 E0.4899
G1 X105.676 Y93.816 E0.4980
G1 X105.524 Y94.029 E0.5060
G1 X105.405 Y94.231 E0.5132
G1 X105.285 Y94.486 E0.5219
G1 X105.198 Y94.727 E0.5297
G1 X105.128 Y95.012 E0.5387
G92 E0
G1 E-3.0000 F1800
; solid layer
G1 X106.694 Y92.685 F4800
G1 E0.0000 F1800
G92 E0
G1 X108.329 Y91.050 E0.0708 F1200
G1 X108.895 Y91.050 E0.0882
G1 X107.465 Y92.480 E0.1501
G1 X107.562 Y92.465 E0.1531
G1 X107.874 Y92.449 E0.1627
G1 X108.052 Y92.458 E0.1682
