; G-Code generated by Simplify3D(R) Version 3.0.2
; 11ÔÂ 14, 2017 at 6:47:38 ÏÂÎç
; Settings Summary
;   processName,Process1
;   applyToModels,Z¹âÖá¼Ð4
;   profileName,I3
;   profileVersion,2017-07-16 15:44:41
;   baseProfile,Default
;   printMaterial,PLA
;   printQuality,Medium
;   printExtruders,
;   extruderName,Extruder 1,Primary Extruder
;   extruderToolheadNumber,0,0
;   extruderDiameter,0.4,0.4
;   extruderAutoWidth,0,0
;   extruderWidth,0.4,0.4
;   extrusionMultiplier,0.9,0.9
;   extruderUseRetract,1,1
;   extruderRetractionDistance,3,3
;   extruderExtraRestartDistance,0,0
;   extruderRetractionZLift,0,0
;   extruderRetractionSpeed,1800,1800
;   extruderUseCoasting,0,0
;   extruderCoastingDistance,0.2,0.2
;   extruderUseWipe,0,0
;   extruderWipeDistance,5,5
;   primaryExtruder,0
;   layerHeight,0.2
;   topSolidLayers,3
;   bottomSolidLayers,3
;   perimeterOutlines,1
;   printPerimetersInsideOut,1
;   startPointOption,2
;   startPointOriginX,0
;   startPointOriginY,0
;   startPointOriginZ,300
;   sequentialIslands,0
;   spiralVaseMode,0
;   firstLayerHeightPercentage,80
;   firstLayerWidthPercentage,100
;   firstLayerUnderspeed,0.5
;   useRaft,0
;   raftExtruder,0
;   raftLayers,3
;   raftOffset,3
;   raftSeparationDistance,0.14
;   raftInfill,85
;   disableRaftBaseLayers,0
;   useSkirt,1
;   skirtExtruder,0
;   skirtLayers,1
;   skirtOutlines,2
;   skirtOffset,2
;   usePrimePillar,0
;   primePillarExtruder,999
;   primePillarWidth,12
;   primePillarLocation,7
;   primePillarSpeedMultiplier,1
;   useOozeShield,0
;   oozeShieldExtruder,999
;   oozeShieldOffset,2
;   oozeShieldOutlines,1
;   oozeShieldSidewallShape,1
;   oozeShieldSidewallAngle,30
;   oozeShieldSpeedMultiplier,1
;   infillExtruder,0
;   internalInfillPattern,Rectilinear
;   externalInfillPattern,Rectilinear
;   infillPercentage,90
;   outlineOverlapPercentage,25
;   infillExtrusionWidthPercentage,125
;   minInfillLength,5
;   infillLayerInterval,1
;   infillAngles,45,-45
;   overlapInfillAngles,0
;   generateSupport,1
;   supportExtruder,0
;   supportInfillPercentage,30
;   supportExtraInflation,0
;   denseSupportLayers,0
;   denseSupportInfillPercentage,70
;   supportLayerInterval,1
;   supportHorizontalPartOffset,0.3
;   supportUpperSeparationLayers,1
;   supportLowerSeparationLayers,1
;   supportType,0
;   supportGridSpacing,4
;   maxOverhangAngle,45
;   supportAngles,0
;   temperatureName,Extruder 1 Temperature,Heated Bed
;   temperatureNumber,0,0
;   temperatureSetpointCount,1,1
;   temperatureSetpointLayers,1,1
;   temperatureSetpointTemperatures,200,70
;   temperatureStabilizeAtStartup,1,1
;   temperatureHeatedBed,0,1
;   temperatureRelayBetweenLayers,0,0
;   temperatureRelayBetweenLoops,0,0
;   fanLayers,1,2
;   fanSpeeds,0,100
;   blipFanToFullPower,0
;   adjustSpeedForCooling,1
;   minSpeedLayerTime,15
;   minCoolingSpeedSlowdown,20
;   increaseFanForCooling,0
;   minFanLayerTime,45
;   maxCoolingFanSpeed,100
;   increaseFanForBridging,0
;   bridgingFanSpeed,100
;   use5D,1
;   relativeEdistances,0
;   allowEaxisZeroing,1
;   independentExtruderAxes,0
;   includeM10123,0
;   stickySupport,1
;   applyToolheadOffsets,0
;   gcodeXoffset,0
;   gcodeYoffset,0
;   gcodeZoffset,0
;   overrideMachineDefinition,1
;   machineTypeOverride,0
;   strokeXoverride,185
;   strokeYoverride,190
;   strokeZoverride,300
;   originOffsetXoverride,0
;   originOffsetYoverride,0
;   originOffsetZoverride,0
;   homeXdirOverride,-1
;   homeYdirOverride,-1
;   homeZdirOverride,-1
;   flipXoverride,1
;   flipYoverride,-1
;   flipZoverride,1
;   toolheadOffsets,0,0|0,0|0,0|0,0|0,0|0,0
;   overrideFirmwareConfiguration,1
;   firmwareTypeOverride,RepRap (Marlin/Repetier/Sprinter)
;   GPXconfigOverride,r2
;   baudRateOverride,250000
;   overridePrinterModels,0
;   printerModelsOverride
;   startingGcode,G28 ; home all axes
;   layerChangeGcode,
;   retractionGcode,
;   toolChangeGcode,
;   endingGcode,M104 S0 ; turn off extruder,M140 S0 ; turn off bed,M84 ; disable motors
;   createX3G,0
;   celebration,0
;   celebrationSong,Random Song
;   createMB5G,0
;   postProcessing,
;   defaultSpeed,3000
;   outlineUnderspeed,0.5
;   solidInfillUnderspeed,0.8
;   supportUnderspeed,0.8
;   rapidXYspeed,4800
;   rapidZspeed,1000
;   minBridgingArea,50
;   bridgingExtraInflation,0
;   bridgingExtrusionMultiplier,1
;   bridgingSpeedMultiplier,1
;   filamentDiameter,1.73
;   filamentPricePerKg,46
;   filamentDensity,1.25
;   useMinPrintHeight,0
;   minPrintHeight,0
;   useMaxPrintHeight,0
;   maxPrintHeight,0
;   useDiaphragm,0
;   diaphragmLayerInterval,20
;   robustSlicing,1
;   mergeAllIntoSolid,0
;   onlyRetractWhenCrossingOutline,1
;   retractBetweenLayers,1
;   useRetractionMinTravel,0
;   retractionMinTravel,3
;   retractWhileWiping,0
;   onlyWipeOutlines,1
;   avoidCrossingOutline,0
;   maxMovementDetourFactor,3
;   toolChangeRetractionDistance,12
;   toolChangeExtraRestartDistance,-0.5
;   toolChangeRetractionSpeed,600
;   allowThinWallGapFill,1
;   thinWallAllowedOverlapPercentage,10
;   horizontalSizeCompensation,0
G90
M82
M106 S0
M140 S70
M190 S70
M104 S200 T0
M109 S200 T0
G28 ; home all axes
G92 E0
G1 E-3.0000 F1800
G1 Z0.160 F1000
; layer 1, Z = 0.16
T0
; tool H0.200 W0.400
; skirt
G1 X83.592 Y69.470 F4800
G1 E0.0000 F540
G92 E0
G1 X83.601 Y69.458 E0.0005 F1500
G1 X84.018 Y68.987 E0.0197
G1 X84.028 Y68.975 E0.0202
G1 X84.112 Y68.890 E0.0239
G1 X84.123 Y68.879 E0.0243
G1 X84.560 Y68.477 E0.0425
G1 X84.570 Y68.468 E0.0430
G1 X84.655 Y68.397 E0.0463
G1 X84.667 Y68.388 E0.0468
G1 X85.190 Y67.992 E0.0669
G1 X85.203 Y67.983 E0.0674
G1 X85.303 Y67.915 E0.0711
G1 X85.316 Y67.907 E0.0716
G1 X85.849 Y67.585 E0.0906
G1 X85.863 Y67.578 E0.0911
G1 X85.967 Y67.522 E0.0947
G1 X85.981 Y67.515 E0.0952
G1 X86.545 Y67.249 E0.1143
G1 X86.559 Y67.243 E0.1148
G1 X86.664 Y67.200 E0.1182
G1 X86.678 Y67.195 E0.1187
G1 X87.257 Y66.989 E0.1375
G1 X87.271 Y66.985 E0.1380
G1 X87.382 Y66.951 E0.1415
G1 X87.396 Y66.948 E0.1420
G1 X87.979 Y66.805 E0.1604
G1 X87.993 Y66.801 E0.1608
G1 X88.102 Y66.780 E0.1642
G1 X88.117 Y66.778 E0.1646
G1 X88.694 Y66.694 E0.1825
G1 X88.708 Y66.692 E0.1830
G1 X88.817 Y66.682 E0.1863
G1 X88.831 Y66.681 E0.1867
G1 X89.401 Y66.653 E0.2042
G1 X89.408 Y66.652 E0.2044
G1 X89.465 Y66.651 E0.2062
G1 X89.472 Y66.651 E0.2064
G1 X95.565 Y66.651 E0.3930
G1 X95.579 Y66.652 E0.3934
G1 X95.683 Y66.656 E0.3966
G1 X95.697 Y66.657 E0.3971
G1 X96.713 Y66.750 E0.4283
G1 X96.734 Y66.752 E0.4290
G1 X96.890 Y66.778 E0.4338
G1 X96.910 Y66.782 E0.4344
G1 X97.501 Y66.919 E0.4530
G1 X97.515 Y66.923 E0.4534
G1 X97.620 Y66.952 E0.4568
G1 X97.634 Y66.957 E0.4572
G1 X98.198 Y67.146 E0.4755
G1 X98.211 Y67.151 E0.4759
G1 X98.316 Y67.192 E0.4793
G1 X98.329 Y67.197 E0.4798
G1 X98.884 Y67.446 E0.4984
G1 X98.898 Y67.452 E0.4989
G1 X99.001 Y67.505 E0.5024
G1 X99.014 Y67.512 E0.5029
G1 X99.549 Y67.819 E0.5218
G1 X99.562 Y67.827 E0.5222
G1 X99.659 Y67.890 E0.5258
G1 X99.671 Y67.898 E0.5262
G1 X100.179 Y68.262 E0.5454
G1 X100.191 Y68.271 E0.5458
G1 X100.284 Y68.345 E0.5495
G1 X100.295 Y68.355 E0.5499
G1 X100.765 Y68.770 E0.5691
G1 X100.776 Y68.781 E0.5696
G1 X100.859 Y68.862 E0.5732
G1 X100.870 Y68.873 E0.5736
G1 X101.295 Y69.334 E0.5928
G1 X101.305 Y69.346 E0.5933
G1 X101.380 Y69.436 E0.5969
G1 X101.390 Y69.448 E0.5974
G1 X101.766 Y69.949 E0.6166
G1 X101.775 Y69.962 E0.6170
G1 X101.841 Y70.060 E0.6207
G1 X101.849 Y70.073 E0.6211
G1 X102.167 Y70.604 E0.6401
G1 X102.175 Y70.617 E0.6406
G1 X102.227 Y70.716 E0.6440
G1 X102.234 Y70.729 E0.6444
G1 X102.501 Y71.292 E0.6635
G1 X102.507 Y71.306 E0.6640
G1 X102.553 Y71.417 E0.6677
G1 X102.558 Y71.432 E0.6682
G1 X102.763 Y72.013 E0.6870
G1 X102.767 Y72.027 E0.6875
G1 X102.799 Y72.135 E0.6909
G1 X102.803 Y72.149 E0.6914
G1 X102.946 Y72.729 E0.7097
G1 X102.949 Y72.743 E0.7101
G1 X102.969 Y72.849 E0.7134
G1 X102.972 Y72.863 E0.7139
G1 X103.057 Y73.441 E0.7318
G1 X103.059 Y73.456 E0.7322
G1 X103.070 Y73.570 E0.7357
G1 X103.071 Y73.584 E0.7362
G1 X103.098 Y74.155 E0.7537
G1 X103.098 Y74.163 E0.7539
G1 X103.099 Y74.217 E0.7555
G1 X103.100 Y74.224 E0.7558
G1 X103.100 Y97.803 E1.4780
G1 X103.100 Y97.803 E1.4780
G1 X103.099 Y113.786 E1.9676
G1 X103.099 Y113.793 E1.9678
G1 X103.098 Y113.841 E1.9692
G1 X103.098 Y113.847 E1.9694
G1 X103.071 Y114.491 E1.9892
G1 X103.070 Y114.504 E1.9896
G1 X103.061 Y114.607 E1.9927
G1 X103.060 Y114.620 E1.9931
G1 X102.957 Y115.402 E2.0173
G1 X102.955 Y115.416 E2.0177
G1 X102.934 Y115.527 E2.0212
G1 X102.931 Y115.541 E2.0216
G1 X102.756 Y116.292 E2.0453
G1 X102.753 Y116.306 E2.0457
G1 X102.724 Y116.410 E2.0490
G1 X102.719 Y116.423 E2.0494
G1 X102.469 Y117.171 E2.0736
G1 X102.464 Y117.185 E2.0740
G1 X102.423 Y117.291 E2.0775
G1 X102.417 Y117.305 E2.0780
G1 X102.087 Y118.040 E2.1027
G1 X102.081 Y118.054 E2.1031
G1 X102.029 Y118.155 E2.1066
G1 X102.022 Y118.168 E2.1071
G1 X101.615 Y118.879 E2.1321
G1 X101.607 Y118.892 E2.1326
G1 X101.544 Y118.990 E2.1362
G1 X101.535 Y119.002 E2.1367
G1 X101.053 Y119.674 E2.1620
G1 X101.044 Y119.686 E2.1624
G1 X100.972 Y119.776 E2.1660
G1 X100.962 Y119.788 E2.1664
G1 X100.411 Y120.412 E2.1919
G1 X100.401 Y120.424 E2.1924
G1 X100.317 Y120.509 E2.1961
G1 X100.306 Y120.520 E2.1966
G1 X99.693 Y121.084 E2.2221
G1 X99.682 Y121.094 E2.2225
G1 X99.593 Y121.168 E2.2261
G1 X99.581 Y121.177 E2.2265
G1 X98.917 Y121.674 E2.2519
G1 X98.905 Y121.683 E2.2524
G1 X98.808 Y121.748 E2.2560
G1 X98.795 Y121.756 E2.2564
G1 X98.091 Y122.179 E2.2816
G1 X98.078 Y122.187 E2.2821
G1 X97.977 Y122.241 E2.2856
G1 X97.963 Y122.248 E2.2860
G1 X97.216 Y122.600 E2.3113
G1 X97.202 Y122.606 E2.3118
G1 X97.094 Y122.651 E2.3154
G1 X97.080 Y122.656 E2.3159
G1 X96.312 Y122.927 E2.3408
G1 X96.298 Y122.932 E2.3413
G1 X96.190 Y122.964 E2.3447
G1 X96.176 Y122.968 E2.3452
G1 X95.405 Y123.158 E2.3695
G1 X95.390 Y123.161 E2.3699
G1 X95.280 Y123.183 E2.3734
G1 X95.266 Y123.185 E2.3738
G1 X94.501 Y123.296 E2.3975
G1 X94.487 Y123.298 E2.3979
G1 X94.379 Y123.308 E2.4012
G1 X94.365 Y123.309 E2.4017
G1 X93.600 Y123.347 E2.4251
G1 X93.593 Y123.347 E2.4254
G1 X93.535 Y123.349 E2.4271
G1 X93.528 Y123.349 E2.4273
G1 X91.462 Y123.349 E2.4906
G1 X91.456 Y123.349 E2.4908
G1 X91.406 Y123.348 E2.4923
G1 X91.399 Y123.347 E2.4925
G1 X90.754 Y123.319 E2.5123
G1 X90.741 Y123.318 E2.5127
G1 X90.641 Y123.310 E2.5158
G1 X90.628 Y123.308 E2.5162
G1 X89.847 Y123.205 E2.5403
G1 X89.832 Y123.203 E2.5408
G1 X89.722 Y123.183 E2.5442
G1 X89.707 Y123.180 E2.5447
G1 X88.956 Y123.005 E2.5683
G1 X88.943 Y123.001 E2.5687
G1 X88.839 Y122.972 E2.5720
G1 X88.825 Y122.968 E2.5725
G1 X88.077 Y122.718 E2.5966
G1 X88.063 Y122.713 E2.5971
G1 X87.957 Y122.671 E2.6006
G1 X87.943 Y122.666 E2.6010
G1 X87.208 Y122.336 E2.6257
G1 X87.195 Y122.330 E2.6262
G1 X87.093 Y122.278 E2.6297
G1 X87.080 Y122.271 E2.6301
G1 X86.370 Y121.863 E2.6552
G1 X86.357 Y121.855 E2.6557
G1 X86.259 Y121.792 E2.6592
G1 X86.246 Y121.784 E2.6597
G1 X85.574 Y121.301 E2.6850
G1 X85.562 Y121.292 E2.6855
G1 X85.471 Y121.219 E2.6891
G1 X85.459 Y121.210 E2.6895
G1 X84.836 Y120.659 E2.7150
G1 X84.825 Y120.649 E2.7155
G1 X84.741 Y120.567 E2.7191
G1 X84.731 Y120.556 E2.7195
G1 X84.166 Y119.943 E2.7450
G1 X84.156 Y119.932 E2.7455
G1 X84.081 Y119.842 E2.7491
G1 X84.072 Y119.830 E2.7496
G1 X83.575 Y119.166 E2.7750
G1 X83.566 Y119.154 E2.7754
G1 X83.500 Y119.056 E2.7790
G1 X83.492 Y119.044 E2.7795
G1 X83.069 Y118.340 E2.8046
G1 X83.062 Y118.327 E2.8051
G1 X83.008 Y118.225 E2.8086
G1 X83.001 Y118.212 E2.8091
G1 X82.648 Y117.465 E2.8344
G1 X82.642 Y117.451 E2.8349
G1 X82.598 Y117.343 E2.8384
G1 X82.592 Y117.329 E2.8389
G1 X82.321 Y116.560 E2.8639
G1 X82.317 Y116.546 E2.8643
G1 X82.284 Y116.439 E2.8678
G1 X82.280 Y116.424 E2.8682
G1 X82.090 Y115.653 E2.8925
G1 X82.087 Y115.639 E2.8930
G1 X82.066 Y115.529 E2.8964
G1 X82.063 Y115.514 E2.8969
G1 X81.952 Y114.748 E2.9206
G1 X81.951 Y114.734 E2.9210
G1 X81.940 Y114.625 E2.9244
G1 X81.939 Y114.611 E2.9248
G1 X81.902 Y113.847 E2.9482
G1 X81.902 Y113.839 E2.9485
G1 X81.901 Y113.783 E2.9502
G1 X81.900 Y113.776 E2.9504
G1 X81.918 Y73.758 E4.1762
G1 X81.918 Y73.738 E4.1768
G1 X81.928 Y73.587 E4.1814
G1 X81.930 Y73.568 E4.1820
G1 X82.012 Y72.955 E4.2010
G1 X82.014 Y72.940 E4.2014
G1 X82.034 Y72.828 E4.2049
G1 X82.037 Y72.814 E4.2053
G1 X82.174 Y72.232 E4.2236
G1 X82.177 Y72.219 E4.2240
G1 X82.206 Y72.117 E4.2273
G1 X82.210 Y72.104 E4.2277
G1 X82.394 Y71.555 E4.2454
G1 X82.399 Y71.541 E4.2459
G1 X82.441 Y71.433 E4.2494
G1 X82.447 Y71.419 E4.2499
G1 X82.697 Y70.865 E4.2685
G1 X82.703 Y70.851 E4.2690
G1 X82.754 Y70.751 E4.2724
G1 X82.761 Y70.738 E4.2729
G1 X83.068 Y70.203 E4.2918
G1 X83.076 Y70.191 E4.2922
G1 X83.138 Y70.093 E4.2958
G1 X83.147 Y70.080 E4.2962
G1 X83.510 Y69.574 E4.3153
G1 X83.519 Y69.562 E4.3158
G1 X83.592 Y69.470 E4.3194
G1 X83.901 Y69.723 F4800
G92 E0
G1 X83.905 Y69.719 E0.0002 F1500
G1 X84.314 Y69.255 E0.0191
G1 X84.318 Y69.252 E0.0193
G1 X84.394 Y69.174 E0.0226
G1 X84.398 Y69.170 E0.0228
G1 X84.827 Y68.775 E0.0406
G1 X84.831 Y68.772 E0.0408
G1 X84.908 Y68.707 E0.0439
G1 X84.912 Y68.704 E0.0440
G1 X85.427 Y68.314 E0.0638
G1 X85.431 Y68.311 E0.0640
G1 X85.523 Y68.249 E0.0673
G1 X85.527 Y68.247 E0.0675
G1 X86.051 Y67.930 E0.0863
G1 X86.056 Y67.928 E0.0864
G1 X86.151 Y67.877 E0.0897
G1 X86.156 Y67.874 E0.0899
G1 X86.711 Y67.613 E0.1087
G1 X86.715 Y67.611 E0.1088
G1 X86.812 Y67.572 E0.1120
G1 X86.816 Y67.570 E0.1122
G1 X87.386 Y67.368 E0.1307
G1 X87.391 Y67.366 E0.1308
G1 X87.492 Y67.336 E0.1341
G1 X87.496 Y67.335 E0.1342
G1 X88.070 Y67.194 E0.1523
G1 X88.074 Y67.193 E0.1525
G1 X88.174 Y67.174 E0.1556
G1 X88.179 Y67.173 E0.1557
G1 X88.747 Y67.091 E0.1733
G1 X88.752 Y67.090 E0.1734
G1 X88.851 Y67.080 E0.1765
G1 X88.855 Y67.080 E0.1766
G1 X89.418 Y67.052 E0.1939
G1 X89.421 Y67.052 E0.1940
G1 X89.472 Y67.051 E0.1955
G1 X89.475 Y67.051 E0.1956
G1 X95.561 Y67.051 E0.3820
G1 X95.565 Y67.051 E0.3822
G1 X95.660 Y67.056 E0.3851
G1 X95.665 Y67.056 E0.3852
G1 X96.670 Y67.148 E0.4162
G1 X96.677 Y67.148 E0.4164
G1 X96.820 Y67.171 E0.4208
G1 X96.827 Y67.173 E0.4210
G1 X97.406 Y67.308 E0.4392
G1 X97.410 Y67.309 E0.4394
G1 X97.506 Y67.336 E0.4424
G1 X97.511 Y67.337 E0.4426
G1 X98.066 Y67.524 E0.4605
G1 X98.070 Y67.525 E0.4606
G1 X98.166 Y67.562 E0.4638
G1 X98.170 Y67.564 E0.4639
G1 X98.716 Y67.809 E0.4822
G1 X98.720 Y67.811 E0.4824
G1 X98.815 Y67.859 E0.4856
G1 X98.819 Y67.861 E0.4858
G1 X99.345 Y68.164 E0.5044
G1 X99.350 Y68.166 E0.5045
G1 X99.438 Y68.223 E0.5078
G1 X99.442 Y68.226 E0.5079
G1 X99.942 Y68.584 E0.5267
G1 X99.946 Y68.587 E0.5269
G1 X100.030 Y68.654 E0.5302
G1 X100.034 Y68.658 E0.5304
G1 X100.496 Y69.067 E0.5493
G1 X100.500 Y69.070 E0.5494
G1 X100.576 Y69.144 E0.5527
G1 X100.579 Y69.148 E0.5528
G1 X100.998 Y69.602 E0.5717
G1 X101.001 Y69.605 E0.5719
G1 X101.070 Y69.688 E0.5752
G1 X101.073 Y69.692 E0.5753
G1 X101.442 Y70.185 E0.5942
G1 X101.445 Y70.189 E0.5943
G1 X101.506 Y70.279 E0.5977
G1 X101.509 Y70.283 E0.5978
G1 X101.822 Y70.806 E0.6165
G1 X101.824 Y70.810 E0.6166
G1 X101.872 Y70.900 E0.6198
G1 X101.875 Y70.905 E0.6199
G1 X102.137 Y71.458 E0.6387
G1 X102.139 Y71.463 E0.6388
G1 X102.181 Y71.565 E0.6422
G1 X102.183 Y71.569 E0.6424
G1 X102.384 Y72.141 E0.6609
G1 X102.385 Y72.146 E0.6611
G1 X102.415 Y72.244 E0.6642
G1 X102.416 Y72.249 E0.6644
G1 X102.556 Y72.820 E0.6824
G1 X102.557 Y72.825 E0.6825
G1 X102.576 Y72.922 E0.6855
G1 X102.577 Y72.926 E0.6857
G1 X102.661 Y73.495 E0.7033
G1 X102.661 Y73.500 E0.7034
G1 X102.671 Y73.603 E0.7066
G1 X102.672 Y73.608 E0.7068
G1 X102.698 Y74.172 E0.7241
G1 X102.698 Y74.174 E0.7241
G1 X102.699 Y74.224 E0.7257
G1 X102.700 Y74.226 E0.7257
G1 X102.700 Y97.883 E1.4503
G1 X102.700 Y97.883 E1.4503
G1 X102.699 Y113.784 E1.9374
G1 X102.699 Y113.786 E1.9375
G1 X102.698 Y113.830 E1.9388
G1 X102.698 Y113.832 E1.9389
G1 X102.672 Y114.470 E1.9584
G1 X102.671 Y114.474 E1.9586
G1 X102.663 Y114.568 E1.9614
G1 X102.663 Y114.572 E1.9616
G1 X102.561 Y115.344 E1.9854
G1 X102.560 Y115.349 E1.9856
G1 X102.542 Y115.450 E1.9887
G1 X102.541 Y115.455 E1.9889
G1 X102.368 Y116.197 E2.0122
G1 X102.367 Y116.202 E2.0124
G1 X102.340 Y116.296 E2.0154
