; G-Code generated by Simplify3D(R) Version 3.0.2
; 11ÔÂ 14, 2017 at 6:47:55 ÏÂÎç
; Settings Summary
;   processName,Process1
;   applyToModels,Z¹âÖá¼Ð6
;   profileName,I3
;   profileVersion,2017-07-16 15:44:41
;   baseProfile,Default
;   printMaterial,PLA
;   printQuality,Medium
;   printExtruders,
;   extruderName,Extruder 1,Primary Extruder
;   extruderToolheadNumber,0,0
;   extruderDiameter,0.4,0.4
;   extruderAutoWidth,0,0
;   extruderWidth,0.4,0.4
;   extrusionMultiplier,0.9,0.9
;   extruderUseRetract,1,1
;   extruderRetractionDistance,3,3
;   extruderExtraRestartDistance,0,0
;   extruderRetractionZLift,0,0
;   extruderRetractionSpeed,1800,1800
;   extruderUseCoasting,0,0
;   extruderCoastingDistance,0.2,0.2
;   extruderUseWipe,0,0
;   extruderWipeDistance,5,5
;   primaryExtruder,0
;   layerHeight,0.2
;   topSolidLayers,3
;   bottomSolidLayers,3
;   perimeterOutlines,1
;   printPerimetersInsideOut,1
;   startPointOption,2
;   startPointOriginX,0
;   startPointOriginY,0
;   startPointOriginZ,300
;   sequentialIslands,0
;   spiralVaseMode,0
;   firstLayerHeightPercentage,80
;   firstLayerWidthPercentage,100
;   firstLayerUnderspeed,0.5
;   useRaft,0
;   raftExtruder,0
;   raftLayers,3
;   raftOffset,3
;   raftSeparationDistance,0.14
;   raftInfill,85
;   disableRaftBaseLayers,0
;   useSkirt,1
;   skirtExtruder,0
;   skirtLayers,1
;   skirtOutlines,2
;   skirtOffset,2
;   usePrimePillar,0
;   primePillarExtruder,999
;   primePillarWidth,12
;   primePillarLocation,7
;   primePillarSpeedMultiplier,1
;   useOozeShield,0
;   oozeShieldExtruder,999
;   oozeShieldOffset,2
;   oozeShieldOutlines,1
;   oozeShieldSidewallShape,1
;   oozeShieldSidewallAngle,30
;   oozeShieldSpeedMultiplier,1
;   infillExtruder,0
;   internalInfillPattern,Rectilinear
;   externalInfillPattern,Rectilinear
;   infillPercentage,90
;   outlineOverlapPercentage,25
;   infillExtrusionWidthPercentage,125
;   minInfillLength,5
;   infillLayerInterval,1
;   infillAngles,45,-45
;   overlapInfillAngles,0
;   generateSupport,1
;   supportExtruder,0
;   supportInfillPercentage,30
;   supportExtraInflation,0
;   denseSupportLayers,0
;   denseSupportInfillPercentage,70
;   supportLayerInterval,1
;   supportHorizontalPartOffset,0.3
;   supportUpperSeparationLayers,1
;   supportLowerSeparationLayers,1
;   supportType,0
;   supportGridSpacing,4
;   maxOverhangAngle,45
;   supportAngles,0
;   temperatureName,Extruder 1 Temperature,Heated Bed
;   temperatureNumber,0,0
;   temperatureSetpointCount,1,1
;   temperatureSetpointLayers,1,1
;   temperatureSetpointTemperatures,200,70
;   temperatureStabilizeAtStartup,1,1
;   temperatureHeatedBed,0,1
;   temperatureRelayBetweenLayers,0,0
;   temperatureRelayBetweenLoops,0,0
;   fanLayers,1,2
;   fanSpeeds,0,100
;   blipFanToFullPower,0
;   adjustSpeedForCooling,1
;   minSpeedLayerTime,15
;   minCoolingSpeedSlowdown,20
;   increaseFanForCooling,0
;   minFanLayerTime,45
;   maxCoolingFanSpeed,100
;   increaseFanForBridging,0
;   bridgingFanSpeed,100
;   use5D,1
;   relativeEdistances,0
;   allowEaxisZeroing,1
;   independentExtruderAxes,0
;   includeM10123,0
;   stickySupport,1
;   applyToolheadOffsets,0
;   gcodeXoffset,0
;   gcodeYoffset,0
;   gcodeZoffset,0
;   overrideMachineDefinition,1
;   machineTypeOverride,0
;   strokeXoverride,185
;   strokeYoverride,190
;   strokeZoverride,300
;   originOffsetXoverride,0
;   originOffsetYoverride,0
;   originOffsetZoverride,0
;   homeXdirOverride,-1
;   homeYdirOverride,-1
;   homeZdirOverride,-1
;   flipXoverride,1
;   flipYoverride,-1
;   flipZoverride,1
;   toolheadOffsets,0,0|0,0|0,0|0,0|0,0|0,0
;   overrideFirmwareConfiguration,1
;   firmwareTypeOverride,RepRap (Marlin/Repetier/Sprinter)
;   GPXconfigOverride,r2
;   baudRateOverride,250000
;   overridePrinterModels,0
;   printerModelsOverride
;   startingGcode,G28 ; home all axes
;   layerChangeGcode,
;   retractionGcode,
;   toolChangeGcode,
;   endingGcode,M104 S0 ; turn off extruder,M140 S0 ; turn off bed,M84 ; disable motors
;   createX3G,0
;   celebration,0
;   celebrationSong,Random Song
;   createMB5G,0
;   postProcessing,
;   defaultSpeed,3000
;   outlineUnderspeed,0.5
;   solidInfillUnderspeed,0.8
;   supportUnderspeed,0.8
;   rapidXYspeed,4800
;   rapidZspeed,1000
;   minBridgingArea,50
;   bridgingExtraInflation,0
;   bridgingExtrusionMultiplier,1
;   bridgingSpeedMultiplier,1
;   filamentDiameter,1.73
;   filamentPricePerKg,46
;   filamentDensity,1.25
;   useMinPrintHeight,0
;   minPrintHeight,0
;   useMaxPrintHeight,0
;   maxPrintHeight,0
;   useDiaphragm,0
;   diaphragmLayerInterval,20
;   robustSlicing,1
;   mergeAllIntoSolid,0
;   onlyRetractWhenCrossingOutline,1
;   retractBetweenLayers,1
;   useRetractionMinTravel,0
;   retractionMinTravel,3
;   retractWhileWiping,0
;   onlyWipeOutlines,1
;   avoidCrossingOutline,0
;   maxMovementDetourFactor,3
;   toolChangeRetractionDistance,12
;   toolChangeExtraRestartDistance,-0.5
;   toolChangeRetractionSpeed,600
;   allowThinWallGapFill,1
;   thinWallAllowedOverlapPercentage,10
;   horizontalSizeCompensation,0
G90
M82
M106 S0
M140 S70
M190 S70
M104 S200 T0
M109 S200 T0
G28 ; home all axes
G92 E0
G1 E-3.0000 F1800
G1 Z0.160 F1000
; layer 1, Z = 0.16
T0
; tool H0.200 W0.400
; skirt
G1 X83.601 Y69.458 F4800
G1 E0.0000 F540
G92 E0
G1 X84.018 Y68.987 E0.0193 F1500
G1 X84.028 Y68.975 E0.0197
G1 X84.112 Y68.890 E0.0234
G1 X84.123 Y68.879 E0.0239
G1 X84.586 Y68.453 E0.0432
G1 X84.598 Y68.443 E0.0436
G1 X84.688 Y68.368 E0.0472
G1 X84.700 Y68.358 E0.0477
G1 X85.200 Y67.985 E0.0668
G1 X85.212 Y67.976 E0.0673
G1 X85.306 Y67.913 E0.0707
G1 X85.319 Y67.905 E0.0712
G1 X85.849 Y67.585 E0.0902
G1 X85.863 Y67.578 E0.0906
G1 X85.967 Y67.522 E0.0943
G1 X85.981 Y67.515 E0.0947
G1 X86.545 Y67.249 E0.1138
G1 X86.559 Y67.243 E0.1143
G1 X86.664 Y67.200 E0.1178
G1 X86.678 Y67.195 E0.1182
G1 X87.257 Y66.989 E0.1371
G1 X87.271 Y66.985 E0.1375
G1 X87.382 Y66.951 E0.1411
G1 X87.396 Y66.948 E0.1415
G1 X87.979 Y66.805 E0.1599
G1 X87.993 Y66.801 E0.1603
G1 X88.102 Y66.780 E0.1637
G1 X88.117 Y66.778 E0.1642
G1 X88.694 Y66.694 E0.1821
G1 X88.708 Y66.692 E0.1825
G1 X88.815 Y66.682 E0.1858
G1 X88.829 Y66.681 E0.1862
G1 X89.384 Y66.653 E0.2032
G1 X89.391 Y66.653 E0.2035
G1 X89.449 Y66.651 E0.2052
G1 X89.456 Y66.651 E0.2054
G1 X95.522 Y66.651 E0.3913
G1 X95.528 Y66.651 E0.3914
G1 X95.575 Y66.652 E0.3929
G1 X95.581 Y66.652 E0.3930
G1 X96.059 Y66.671 E0.4077
G1 X96.072 Y66.672 E0.4081
G1 X96.176 Y66.681 E0.4113
G1 X96.189 Y66.682 E0.4117
G1 X96.792 Y66.761 E0.4303
G1 X96.807 Y66.764 E0.4308
G1 X96.918 Y66.784 E0.4342
G1 X96.932 Y66.787 E0.4347
G1 X97.501 Y66.919 E0.4526
G1 X97.515 Y66.923 E0.4530
G1 X97.620 Y66.952 E0.4564
G1 X97.634 Y66.957 E0.4568
G1 X98.198 Y67.146 E0.4750
G1 X98.211 Y67.151 E0.4755
G1 X98.316 Y67.192 E0.4789
G1 X98.329 Y67.197 E0.4794
G1 X98.884 Y67.446 E0.4980
G1 X98.898 Y67.452 E0.4984
G1 X99.001 Y67.505 E0.5020
G1 X99.014 Y67.512 E0.5024
G1 X99.549 Y67.819 E0.5213
G1 X99.562 Y67.827 E0.5218
G1 X99.659 Y67.890 E0.5253
G1 X99.671 Y67.898 E0.5258
G1 X100.179 Y68.262 E0.5449
G1 X100.191 Y68.271 E0.5454
G1 X100.284 Y68.345 E0.5490
G1 X100.295 Y68.355 E0.5495
G1 X100.765 Y68.770 E0.5687
G1 X100.776 Y68.781 E0.5692
G1 X100.859 Y68.862 E0.5727
G1 X100.870 Y68.873 E0.5732
G1 X101.295 Y69.334 E0.5924
G1 X101.305 Y69.346 E0.5929
G1 X101.380 Y69.436 E0.5965
G1 X101.390 Y69.448 E0.5969
G1 X101.766 Y69.949 E0.6161
G1 X101.775 Y69.962 E0.6166
G1 X101.841 Y70.060 E0.6202
G1 X101.849 Y70.073 E0.6207
G1 X102.167 Y70.604 E0.6397
G1 X102.175 Y70.617 E0.6401
G1 X102.227 Y70.716 E0.6436
G1 X102.234 Y70.729 E0.6440
G1 X102.501 Y71.292 E0.6631
G1 X102.507 Y71.306 E0.6636
G1 X102.553 Y71.417 E0.6672
G1 X102.558 Y71.432 E0.6677
G1 X102.763 Y72.013 E0.6866
G1 X102.767 Y72.027 E0.6871
G1 X102.799 Y72.135 E0.6905
G1 X102.803 Y72.149 E0.6909
G1 X102.946 Y72.729 E0.7092
G1 X102.949 Y72.743 E0.7097
G1 X102.969 Y72.849 E0.7130
G1 X102.972 Y72.863 E0.7134
G1 X103.057 Y73.441 E0.7313
G1 X103.059 Y73.455 E0.7317
G1 X103.070 Y73.568 E0.7352
G1 X103.071 Y73.583 E0.7357
G1 X103.098 Y74.138 E0.7527
G1 X103.098 Y74.146 E0.7529
G1 X103.099 Y74.201 E0.7546
G1 X103.099 Y74.208 E0.7548
G1 X103.100 Y98.699 E1.5050
G1 X103.100 Y98.699 E1.5050
G1 X103.100 Y113.772 E1.9667
G1 X103.099 Y113.779 E1.9669
G1 X103.098 Y113.825 E1.9683
G1 X103.098 Y113.831 E1.9685
G1 X103.072 Y114.475 E1.9882
G1 X103.071 Y114.488 E1.9886
G1 X103.063 Y114.590 E1.9918
G1 X103.061 Y114.603 E1.9922
G1 X102.957 Y115.399 E2.0168
G1 X102.955 Y115.414 E2.0172
G1 X102.935 Y115.526 E2.0207
G1 X102.932 Y115.540 E2.0212
G1 X102.756 Y116.292 E2.0448
G1 X102.753 Y116.306 E2.0453
G1 X102.724 Y116.410 E2.0486
G1 X102.719 Y116.423 E2.0490
G1 X102.469 Y117.171 E2.0732
G1 X102.464 Y117.185 E2.0736
G1 X102.423 Y117.291 E2.0771
G1 X102.417 Y117.305 E2.0775
G1 X102.087 Y118.040 E2.1022
G1 X102.081 Y118.054 E2.1027
G1 X102.029 Y118.155 E2.1062
G1 X102.022 Y118.168 E2.1066
G1 X101.615 Y118.879 E2.1317
G1 X101.607 Y118.892 E2.1322
G1 X101.544 Y118.990 E2.1358
G1 X101.535 Y119.002 E2.1362
G1 X101.053 Y119.674 E2.1615
G1 X101.044 Y119.686 E2.1620
G1 X100.972 Y119.776 E2.1655
G1 X100.962 Y119.788 E2.1660
G1 X100.411 Y120.412 E2.1915
G1 X100.401 Y120.424 E2.1920
G1 X100.317 Y120.509 E2.1956
G1 X100.306 Y120.520 E2.1961
G1 X99.693 Y121.084 E2.2216
G1 X99.682 Y121.094 E2.2221
G1 X99.593 Y121.168 E2.2256
G1 X99.581 Y121.177 E2.2261
G1 X98.917 Y121.674 E2.2515
G1 X98.905 Y121.683 E2.2520
G1 X98.808 Y121.748 E2.2555
G1 X98.795 Y121.756 E2.2560
G1 X98.091 Y122.179 E2.2812
G1 X98.078 Y122.187 E2.2816
G1 X97.977 Y122.241 E2.2851
G1 X97.963 Y122.248 E2.2856
G1 X97.216 Y122.600 E2.3109
G1 X97.202 Y122.606 E2.3114
G1 X97.094 Y122.651 E2.3149
G1 X97.080 Y122.656 E2.3154
G1 X96.312 Y122.927 E2.3404
G1 X96.298 Y122.932 E2.3408
G1 X96.190 Y122.964 E2.3443
G1 X96.176 Y122.968 E2.3447
G1 X95.405 Y123.158 E2.3690
G1 X95.390 Y123.161 E2.3695
G1 X95.280 Y123.183 E2.3729
G1 X95.266 Y123.185 E2.3734
G1 X94.501 Y123.296 E2.3971
G1 X94.487 Y123.298 E2.3975
G1 X94.380 Y123.308 E2.4008
G1 X94.366 Y123.309 E2.4012
G1 X93.612 Y123.347 E2.4243
G1 X93.603 Y123.347 E2.4246
G1 X93.534 Y123.349 E2.4267
G1 X93.525 Y123.349 E2.4270
G1 X90.838 Y123.324 E2.5093
G1 X90.820 Y123.323 E2.5099
G1 X90.681 Y123.314 E2.5141
G1 X90.663 Y123.312 E2.5147
G1 X89.849 Y123.206 E2.5398
G1 X89.835 Y123.203 E2.5403
G1 X89.723 Y123.183 E2.5437
G1 X89.708 Y123.180 E2.5442
G1 X88.956 Y123.005 E2.5679
G1 X88.943 Y123.001 E2.5683
G1 X88.839 Y122.972 E2.5716
G1 X88.825 Y122.968 E2.5720
G1 X88.077 Y122.718 E2.5962
G1 X88.063 Y122.713 E2.5966
G1 X87.957 Y122.671 E2.6001
G1 X87.943 Y122.666 E2.6006
G1 X87.208 Y122.336 E2.6253
G1 X87.195 Y122.330 E2.6257
G1 X87.093 Y122.278 E2.6292
G1 X87.080 Y122.271 E2.6297
G1 X86.370 Y121.863 E2.6547
G1 X86.357 Y121.855 E2.6552
G1 X86.259 Y121.792 E2.6588
G1 X86.246 Y121.784 E2.6593
G1 X85.574 Y121.301 E2.6846
G1 X85.562 Y121.292 E2.6851
G1 X85.471 Y121.219 E2.6886
G1 X85.459 Y121.210 E2.6891
G1 X84.836 Y120.659 E2.7146
G1 X84.825 Y120.649 E2.7150
G1 X84.741 Y120.567 E2.7186
G1 X84.731 Y120.556 E2.7191
G1 X84.166 Y119.943 E2.7446
G1 X84.156 Y119.932 E2.7451
G1 X84.081 Y119.842 E2.7487
G1 X84.072 Y119.830 E2.7491
G1 X83.575 Y119.166 E2.7745
G1 X83.566 Y119.154 E2.7750
G1 X83.500 Y119.056 E2.7786
G1 X83.492 Y119.044 E2.7790
G1 X83.069 Y118.340 E2.8042
G1 X83.062 Y118.327 E2.8046
G1 X83.008 Y118.225 E2.8082
G1 X83.001 Y118.212 E2.8086
G1 X82.648 Y117.465 E2.8339
G1 X82.642 Y117.451 E2.8344
G1 X82.598 Y117.343 E2.8380
G1 X82.592 Y117.329 E2.8384
G1 X82.321 Y116.560 E2.8634
G1 X82.317 Y116.546 E2.8639
G1 X82.284 Y116.439 E2.8673
G1 X82.280 Y116.424 E2.8678
G1 X82.090 Y115.653 E2.8921
G1 X82.087 Y115.639 E2.8925
G1 X82.066 Y115.529 E2.8960
G1 X82.063 Y115.514 E2.8964
G1 X81.953 Y114.749 E2.9201
G1 X81.951 Y114.735 E2.9205
G1 X81.940 Y114.626 E2.9239
G1 X81.939 Y114.612 E2.9243
G1 X81.903 Y113.863 E2.9473
G1 X81.902 Y113.856 E2.9475
G1 X81.901 Y113.799 E2.9492
G1 X81.901 Y113.792 E2.9495
G1 X81.917 Y73.773 E4.1753
G1 X81.917 Y73.753 E4.1759
G1 X81.927 Y73.604 E4.1804
G1 X81.929 Y73.585 E4.1810
G1 X82.011 Y72.960 E4.2003
G1 X82.013 Y72.945 E4.2008
G1 X82.033 Y72.835 E4.2042
G1 X82.036 Y72.821 E4.2047
G1 X82.164 Y72.269 E4.2220
G1 X82.167 Y72.256 E4.2224
G1 X82.196 Y72.154 E4.2257
G1 X82.200 Y72.141 E4.2261
G1 X82.392 Y71.560 E4.2448
G1 X82.397 Y71.546 E4.2453
G1 X82.440 Y71.435 E4.2489
G1 X82.446 Y71.421 E4.2494
G1 X82.697 Y70.865 E4.2681
G1 X82.703 Y70.851 E4.2685
G1 X82.754 Y70.751 E4.2720
G1 X82.761 Y70.738 E4.2724
G1 X83.068 Y70.203 E4.2913
G1 X83.076 Y70.191 E4.2918
G1 X83.138 Y70.093 E4.2953
G1 X83.147 Y70.080 E4.2958
G1 X83.510 Y69.574 E4.3149
G1 X83.519 Y69.562 E4.3154
G1 X83.592 Y69.470 E4.3189
G1 X83.601 Y69.458 E4.3194
G1 X83.905 Y69.719 F4800
G92 E0
G1 X84.314 Y69.255 E0.0190 F1500
G1 X84.318 Y69.252 E0.0191
G1 X84.394 Y69.174 E0.0225
G1 X84.398 Y69.170 E0.0226
G1 X84.853 Y68.751 E0.0416
G1 X84.857 Y68.747 E0.0417
G1 X84.940 Y68.679 E0.0450
G1 X84.944 Y68.676 E0.0452
G1 X85.436 Y68.308 E0.0640
G1 X85.440 Y68.306 E0.0641
G1 X85.526 Y68.248 E0.0673
G1 X85.530 Y68.245 E0.0675
G1 X86.051 Y67.930 E0.0861
G1 X86.056 Y67.928 E0.0863
G1 X86.151 Y67.877 E0.0896
G1 X86.156 Y67.874 E0.0897
G1 X86.711 Y67.613 E0.1085
G1 X86.715 Y67.611 E0.1087
G1 X86.812 Y67.572 E0.1119
G1 X86.816 Y67.570 E0.1120
G1 X87.386 Y67.368 E0.1305
G1 X87.391 Y67.366 E0.1307
G1 X87.492 Y67.336 E0.1339
G1 X87.496 Y67.335 E0.1341
G1 X88.070 Y67.194 E0.1522
G1 X88.074 Y67.193 E0.1523
G1 X88.174 Y67.174 E0.1554
G1 X88.179 Y67.173 E0.1556
G1 X88.747 Y67.091 E0.1731
G1 X88.751 Y67.090 E0.1733
G1 X88.849 Y67.081 E0.1763
G1 X88.854 Y67.080 E0.1764
G1 X89.401 Y67.053 E0.1932
G1 X89.404 Y67.053 E0.1933
G1 X89.456 Y67.051 E0.1949
G1 X89.459 Y67.051 E0.1950
G1 X95.520 Y67.051 E0.3807
G1 X95.522 Y67.051 E0.3807
G1 X95.565 Y67.052 E0.3820
G1 X95.567 Y67.052 E0.3821
G1 X96.038 Y67.071 E0.3965
G1 X96.043 Y67.071 E0.3967
G1 X96.137 Y67.079 E0.3996
G1 X96.142 Y67.080 E0.3997
G1 X96.735 Y67.157 E0.4180
G1 X96.740 Y67.158 E0.4182
G1 X96.842 Y67.176 E0.4214
G1 X96.847 Y67.177 E0.4215
G1 X97.406 Y67.308 E0.4391
G1 X97.410 Y67.309 E0.4392
G1 X97.506 Y67.336 E0.4423
G1 X97.511 Y67.337 E0.4424
G1 X98.066 Y67.524 E0.4604
G1 X98.070 Y67.525 E0.4605
G1 X98.166 Y67.562 E0.4636
G1 X98.170 Y67.564 E0.4638
G1 X98.716 Y67.809 E0.4821
G1 X98.720 Y67.811 E0.4823
G1 X98.815 Y67.859 E0.4855
G1 X98.819 Y67.861 E0.4857
G1 X99.345 Y68.164 E0.5043
G1 X99.350 Y68.166 E0.5044
G1 X99.438 Y68.223 E0.5076
G1 X99.442 Y68.226 E0.5078
G1 X99.942 Y68.584 E0.5266
G1 X99.946 Y68.587 E0.5268
G1 X100.030 Y68.654 E0.5301
G1 X100.034 Y68.658 E0.5302
G1 X100.496 Y69.067 E0.5491
G1 X100.500 Y69.070 E0.5493
G1 X100.576 Y69.144 E0.5525
G1 X100.579 Y69.148 E0.5527
G1 X100.998 Y69.602 E0.5716
G1 X101.001 Y69.605 E0.5717
G1 X101.070 Y69.688 E0.5750
G1 X101.073 Y69.692 E0.5752
G1 X101.442 Y70.185 E0.5941
G1 X101.445 Y70.189 E0.5942
G1 X101.506 Y70.279 E0.5975
G1 X101.509 Y70.283 E0.5977
G1 X101.822 Y70.806 E0.6163
G1 X101.824 Y70.810 E0.6165
G1 X101.872 Y70.900 E0.6196
G1 X101.875 Y70.905 E0.6198
G1 X102.137 Y71.458 E0.6386
G1 X102.139 Y71.463 E0.6387
G1 X102.181 Y71.565 E0.6421
G1 X102.183 Y71.569 E0.6422
G1 X102.384 Y72.141 E0.6608
G1 X102.385 Y72.146 E0.6610
G1 X102.415 Y72.244 E0.6641
G1 X102.416 Y72.249 E0.6642
G1 X102.556 Y72.820 E0.6823
G1 X102.557 Y72.825 E0.6824
G1 X102.576 Y72.922 E0.6854
G1 X102.577 Y72.926 E0.6856
G1 X102.660 Y73.494 E0.7032
G1 X102.661 Y73.499 E0.7033
G1 X102.671 Y73.602 E0.7065
G1 X102.671 Y73.607 E0.7066
G1 X102.698 Y74.155 E0.7234
G1 X102.698 Y74.157 E0.7235
G1 X102.699 Y74.208 E0.7251
G1 X102.699 Y74.210 E0.7251
G1 X102.700 Y98.619 E1.4728
G1 X102.700 Y98.619 E1.4728
G1 X102.700 Y113.770 E1.9369
G1 X102.699 Y113.772 E1.9369
G1 X102.699 Y113.815 E1.9382
G1 X102.699 Y113.817 E1.9383
G1 X102.673 Y114.454 E1.9578
G1 X102.672 Y114.458 E1.9579
G1 X102.664 Y114.552 E1.9608
G1 X102.664 Y114.556 E1.9609
G1 X102.561 Y115.342 E1.9852
G1 X102.560 Y115.347 E1.9854
G1 X102.542 Y115.450 E1.9886
G1 X102.541 Y115.454 E1.9887
G1 X102.368 Y116.197 E2.0121
