; G-Code generated by Simplify3D(R) Version 3.0.2
; 11ÔÂ 14, 2017 at 6:50:01 ÏÂÎç
; Settings Summary
;   processName,Process1
;   applyToModels,ZÍÐÅÌ¼þ2
;   profileName,I3
;   profileVersion,2017-07-16 15:44:41
;   baseProfile,Default
;   printMaterial,PLA
;   printQuality,Medium
;   printExtruders,
;   extruderName,Extruder 1,Primary Extruder
;   extruderToolheadNumber,0,0
;   extruderDiameter,0.4,0.4
;   extruderAutoWidth,0,0
;   extruderWidth,0.4,0.4
;   extrusionMultiplier,0.9,0.9
;   extruderUseRetract,1,1
;   extruderRetractionDistance,3,3
;   extruderExtraRestartDistance,0,0
;   extruderRetractionZLift,0,0
;   extruderRetractionSpeed,1800,1800
;   extruderUseCoasting,0,0
;   extruderCoastingDistance,0.2,0.2
;   extruderUseWipe,0,0
;   extruderWipeDistance,5,5
;   primaryExtruder,0
;   layerHeight,0.2
;   topSolidLayers,3
;   bottomSolidLayers,3
;   perimeterOutlines,1
;   printPerimetersInsideOut,1
;   startPointOption,2
;   startPointOriginX,0
;   startPointOriginY,0
;   startPointOriginZ,300
;   sequentialIslands,0
;   spiralVaseMode,0
;   firstLayerHeightPercentage,80
;   firstLayerWidthPercentage,100
;   firstLayerUnderspeed,0.5
;   useRaft,0
;   raftExtruder,0
;   raftLayers,3
;   raftOffset,3
;   raftSeparationDistance,0.14
;   raftInfill,85
;   disableRaftBaseLayers,0
;   useSkirt,1
;   skirtExtruder,0
;   skirtLayers,1
;   skirtOutlines,2
;   skirtOffset,2
;   usePrimePillar,0
;   primePillarExtruder,999
;   primePillarWidth,12
;   primePillarLocation,7
;   primePillarSpeedMultiplier,1
;   useOozeShield,0
;   oozeShieldExtruder,999
;   oozeShieldOffset,2
;   oozeShieldOutlines,1
;   oozeShieldSidewallShape,1
;   oozeShieldSidewallAngle,30
;   oozeShieldSpeedMultiplier,1
;   infillExtruder,0
;   internalInfillPattern,Rectilinear
;   externalInfillPattern,Rectilinear
;   infillPercentage,90
;   outlineOverlapPercentage,25
;   infillExtrusionWidthPercentage,125
;   minInfillLength,5
;   infillLayerInterval,1
;   infillAngles,45,-45
;   overlapInfillAngles,0
;   generateSupport,1
;   supportExtruder,0
;   supportInfillPercentage,30
;   supportExtraInflation,0
;   denseSupportLayers,0
;   denseSupportInfillPercentage,70
;   supportLayerInterval,1
;   supportHorizontalPartOffset,0.3
;   supportUpperSeparationLayers,1
;   supportLowerSeparationLayers,1
;   supportType,0
;   supportGridSpacing,4
;   maxOverhangAngle,45
;   supportAngles,0
;   temperatureName,Extruder 1 Temperature,Heated Bed
;   temperatureNumber,0,0
;   temperatureSetpointCount,1,1
;   temperatureSetpointLayers,1,1
;   temperatureSetpointTemperatures,200,70
;   temperatureStabilizeAtStartup,1,1
;   temperatureHeatedBed,0,1
;   temperatureRelayBetweenLayers,0,0
;   temperatureRelayBetweenLoops,0,0
;   fanLayers,1,2
;   fanSpeeds,0,100
;   blipFanToFullPower,0
;   adjustSpeedForCooling,1
;   minSpeedLayerTime,15
;   minCoolingSpeedSlowdown,20
;   increaseFanForCooling,0
;   minFanLayerTime,45
;   maxCoolingFanSpeed,100
;   increaseFanForBridging,0
;   bridgingFanSpeed,100
;   use5D,1
;   relativeEdistances,0
;   allowEaxisZeroing,1
;   independentExtruderAxes,0
;   includeM10123,0
;   stickySupport,1
;   applyToolheadOffsets,0
;   gcodeXoffset,0
;   gcodeYoffset,0
;   gcodeZoffset,0
;   overrideMachineDefinition,1
;   machineTypeOverride,0
;   strokeXoverride,185
;   strokeYoverride,190
;   strokeZoverride,300
;   originOffsetXoverride,0
;   originOffsetYoverride,0
;   originOffsetZoverride,0
;   homeXdirOverride,-1
;   homeYdirOverride,-1
;   homeZdirOverride,-1
;   flipXoverride,1
;   flipYoverride,-1
;   flipZoverride,1
;   toolheadOffsets,0,0|0,0|0,0|0,0|0,0|0,0
;   overrideFirmwareConfiguration,1
;   firmwareTypeOverride,RepRap (Marlin/Repetier/Sprinter)
;   GPXconfigOverride,r2
;   baudRateOverride,250000
;   overridePrinterModels,0
;   printerModelsOverride
;   startingGcode,G28 ; home all axes
;   layerChangeGcode,
;   retractionGcode,
;   toolChangeGcode,
;   endingGcode,M104 S0 ; turn off extruder,M140 S0 ; turn off bed,M84 ; disable motors
;   createX3G,0
;   celebration,0
;   celebrationSong,Random Song
;   createMB5G,0
;   postProcessing,
;   defaultSpeed,3000
;   outlineUnderspeed,0.5
;   solidInfillUnderspeed,0.8
;   supportUnderspeed,0.8
;   rapidXYspeed,4800
;   rapidZspeed,1000
;   minBridgingArea,50
;   bridgingExtraInflation,0
;   bridgingExtrusionMultiplier,1
;   bridgingSpeedMultiplier,1
;   filamentDiameter,1.73
;   filamentPricePerKg,46
;   filamentDensity,1.25
;   useMinPrintHeight,0
;   minPrintHeight,0
;   useMaxPrintHeight,0
;   maxPrintHeight,0
;   useDiaphragm,0
;   diaphragmLayerInterval,20
;   robustSlicing,1
;   mergeAllIntoSolid,0
;   onlyRetractWhenCrossingOutline,1
;   retractBetweenLayers,1
;   useRetractionMinTravel,0
;   retractionMinTravel,3
;   retractWhileWiping,0
;   onlyWipeOutlines,1
;   avoidCrossingOutline,0
;   maxMovementDetourFactor,3
;   toolChangeRetractionDistance,12
;   toolChangeExtraRestartDistance,-0.5
;   toolChangeRetractionSpeed,600
;   allowThinWallGapFill,1
;   thinWallAllowedOverlapPercentage,10
;   horizontalSizeCompensation,0
G90
M82
M106 S0
M140 S70
M190 S70
M104 S200 T0
M109 S200 T0
G28 ; home all axes
G92 E0
G1 E-3.0000 F1800
G1 Z0.160 F1000
; layer 1, Z = 0.16
T0
; tool H0.200 W0.400
; skirt
G1 X72.992 Y73.430 F4800
G1 E0.0000 F540
G92 E0
G1 X74.332 Y72.089 E0.0581 F1500
G1 X74.553 Y71.998 E0.0654
G1 X110.447 Y71.998 E1.1648
G1 X110.668 Y72.089 E1.1721
G1 X112.008 Y73.430 E1.2302
G1 X112.100 Y73.650 E1.2375
G1 X112.100 Y116.350 E2.5454
G1 X112.008 Y116.570 E2.5527
G1 X110.668 Y117.911 E2.6108
G1 X110.447 Y118.002 E2.6181
G1 X74.553 Y118.002 E3.7176
G1 X74.332 Y117.911 E3.7249
G1 X72.992 Y116.570 E3.7829
G1 X72.900 Y116.350 E3.7902
G1 X72.900 Y73.650 E5.0981
G1 X72.992 Y73.430 E5.1054
G1 X73.331 Y73.656 F4800
G92 E0
G1 X74.559 Y72.428 E0.0532 F1500
G1 X74.632 Y72.398 E0.0556
G1 X110.368 Y72.398 E1.1502
G1 X110.441 Y72.428 E1.1526
G1 X111.669 Y73.656 E1.2058
G1 X111.700 Y73.730 E1.2083
G1 X111.700 Y116.270 E2.5113
G1 X111.669 Y116.344 E2.5137
G1 X110.441 Y117.572 E2.5669
G1 X110.368 Y117.602 E2.5694
G1 X74.632 Y117.602 E3.6639
G1 X74.559 Y117.572 E3.6664
G1 X73.331 Y116.344 E3.7196
G1 X73.300 Y116.270 E3.7220
G1 X73.300 Y73.730 E5.0250
G1 X73.331 Y73.656 E5.0275
G92 E0
G1 E-3.0000 F1800
; outer perimeter
G1 X75.701 Y74.798 F4800
G1 E0.0000 F1800
G92 E0
G1 X109.299 Y74.798 E1.0291 F750
G1 X109.299 Y115.202 E2.2667
G1 X75.701 Y115.202 E3.2959
G1 X75.701 Y74.798 E4.5335
; outer perimeter
G1 X82.673 Y82.994 F4800
G92 E0
G1 X82.490 Y83.201 E0.0085 F750
G1 X82.330 Y83.421 E0.0168
G1 X82.205 Y83.631 E0.0243
G1 X82.084 Y83.881 E0.0328
G1 X81.991 Y84.135 E0.0411
G1 X81.920 Y84.404 E0.0496
G1 X81.874 Y84.686 E0.0583
G1 X81.855 Y84.976 E0.0673
G1 X81.867 Y85.271 E0.0763
G1 X81.909 Y85.565 E0.0854
G1 X81.981 Y85.856 E0.0946
G1 X82.083 Y86.138 E0.1038
G1 X82.212 Y86.405 E0.1129
G1 X82.367 Y86.656 E0.1219
G1 X82.543 Y86.887 E0.1308
G1 X82.737 Y87.095 E0.1395
G1 X82.945 Y87.278 E0.1480
G1 X83.166 Y87.437 E0.1563
G1 X83.387 Y87.568 E0.1642
G1 X83.625 Y87.682 E0.1723
G1 X83.879 Y87.776 E0.1806
G1 X84.148 Y87.848 E0.1891
G1 X84.430 Y87.894 E0.1978
G1 X84.720 Y87.911 E0.2067
G1 X85.015 Y87.900 E0.2158
G1 X85.310 Y87.858 E0.2249
G1 X85.600 Y87.786 E0.2341
G1 X85.882 Y87.684 E0.2432
G1 X86.150 Y87.554 E0.2524
G1 X86.401 Y87.400 E0.2614
G1 X86.631 Y87.224 E0.2703
G1 X86.838 Y87.029 E0.2790
G1 X87.021 Y86.822 E0.2875
G1 X87.181 Y86.602 E0.2958
G1 X87.313 Y86.379 E0.3037
G1 X87.427 Y86.141 E0.3118
G1 X87.520 Y85.887 E0.3201
G1 X87.591 Y85.619 E0.3286
G1 X87.637 Y85.337 E0.3373
G1 X87.656 Y85.047 E0.3462
G1 X87.644 Y84.752 E0.3553
G1 X87.602 Y84.458 E0.3644
G1 X87.530 Y84.166 E0.3736
G1 X87.428 Y83.885 E0.3827
G1 X87.299 Y83.617 E0.3918
G1 X87.144 Y83.366 E0.4009
G1 X86.967 Y83.136 E0.4098
G1 X86.773 Y82.928 E0.4185
G1 X86.565 Y82.745 E0.4270
G1 X86.345 Y82.586 E0.4353
G1 X86.123 Y82.454 E0.4432
G1 X85.885 Y82.341 E0.4513
G1 X85.632 Y82.247 E0.4595
G1 X85.363 Y82.175 E0.4681
G1 X85.081 Y82.129 E0.4768
G1 X84.791 Y82.112 E0.4857
G1 X84.496 Y82.123 E0.4947
G1 X84.201 Y82.164 E0.5039
G1 X83.911 Y82.237 E0.5130
G1 X83.629 Y82.339 E0.5222
G1 X83.361 Y82.469 E0.5313
G1 X83.110 Y82.623 E0.5404
G1 X82.880 Y82.799 E0.5492
G1 X82.673 Y82.994 E0.5579
G92 E0
G1 E-3.0000 F1800
; outer perimeter
G1 X97.596 Y83.832 F4800
G1 E0.0000 F1800
G92 E0
G1 X97.489 Y84.107 E0.0090 F750
G1 X97.411 Y84.394 E0.0182
G1 X97.362 Y84.689 E0.0273
G1 X97.344 Y84.989 E0.0365
G1 X97.357 Y85.286 E0.0456
G1 X97.400 Y85.577 E0.0546
G1 X97.470 Y85.859 E0.0635
G1 X97.567 Y86.126 E0.0722
G1 X97.686 Y86.377 E0.0807
G1 X97.825 Y86.611 E0.0891
G1 X97.988 Y86.832 E0.0975
G1 X98.150 Y87.018 E0.1050
G1 X98.346 Y87.204 E0.1133
G1 X98.565 Y87.375 E0.1218
G1 X98.805 Y87.529 E0.1306
G1 X99.065 Y87.661 E0.1395
G1 X99.339 Y87.767 E0.1485
G1 X99.627 Y87.845 E0.1576
G1 X99.923 Y87.893 E0.1668
G1 X100.222 Y87.911 E0.1760
G1 X100.519 Y87.899 E0.1851
G1 X100.811 Y87.856 E0.1941
G1 X101.092 Y87.785 E0.2030
G1 X101.359 Y87.689 E0.2117
G1 X101.609 Y87.570 E0.2202
G1 X101.842 Y87.432 E0.2285
G1 X102.052 Y87.279 E0.2364
G1 X102.251 Y87.106 E0.2445
G1 X102.437 Y86.910 E0.2528
G1 X102.609 Y86.691 E0.2613
G1 X102.763 Y86.451 E0.2701
G1 X102.894 Y86.191 E0.2790
G1 X103.000 Y85.916 E0.2880
G1 X103.078 Y85.629 E0.2971
G1 X103.127 Y85.334 E0.3063
G1 X103.145 Y85.034 E0.3155
G1 X103.132 Y84.737 E0.3246
G1 X103.089 Y84.446 E0.3336
G1 X103.018 Y84.164 E0.3425
G1 X102.922 Y83.897 E0.3512
G1 X102.804 Y83.646 E0.3597
G1 X102.664 Y83.413 E0.3680
G1 X102.513 Y83.204 E0.3759
G1 X102.339 Y83.005 E0.3840
G1 X102.143 Y82.819 E0.3923
G1 X101.924 Y82.648 E0.4008
G1 X101.684 Y82.494 E0.4095
G1 X101.424 Y82.362 E0.4184
G1 X101.150 Y82.256 E0.4275
G1 X100.862 Y82.178 E0.4366
G1 X100.566 Y82.129 E0.4458
G1 X100.268 Y82.112 E0.4549
G1 X99.970 Y82.124 E0.4641
G1 X99.678 Y82.167 E0.4731
G1 X99.415 Y82.233 E0.4814
G1 X99.130 Y82.333 E0.4907
G1 X98.879 Y82.453 E0.4992
G1 X98.647 Y82.591 E0.5075
G1 X98.437 Y82.744 E0.5154
G1 X98.238 Y82.917 E0.5235
G1 X98.052 Y83.112 E0.5317
G1 X97.880 Y83.331 E0.5403
G1 X97.726 Y83.573 E0.5490
G1 X97.596 Y83.832 E0.5579
; outer perimeter
G1 X96.847 Y98.373 F4800
G92 E0
G1 X96.620 Y98.650 E0.0110 F750
G1 X96.458 Y98.946 E0.0213
G1 X96.352 Y99.270 E0.0317
G1 X96.307 Y99.627 E0.0427
G1 X96.334 Y99.999 E0.0542
G1 X96.432 Y100.349 E0.0653
G1 X96.613 Y100.702 E0.0775
G1 X96.849 Y100.991 E0.0889
G1 X97.126 Y101.218 E0.0999
G1 X97.423 Y101.379 E0.1102
G1 X97.747 Y101.485 E0.1207
G1 X98.103 Y101.531 E0.1317
G1 X98.475 Y101.505 E0.1431
G1 X98.842 Y101.400 E0.1548
G1 X99.178 Y101.224 E0.1664
G1 X99.467 Y100.989 E0.1778
G1 X99.694 Y100.712 E0.1888
G1 X99.856 Y100.414 E0.1991
G1 X99.962 Y100.091 E0.2096
G1 X100.007 Y99.735 E0.2206
G1 X99.982 Y99.379 E0.2315
G1 X99.877 Y98.997 E0.2436
G1 X99.701 Y98.659 E0.2553
G1 X99.475 Y98.383 E0.2662
G1 X99.188 Y98.144 E0.2777
G1 X98.891 Y97.982 E0.2880
G1 X98.567 Y97.876 E0.2985
G1 X98.211 Y97.830 E0.3095
G1 X97.856 Y97.855 E0.3204
G1 X97.473 Y97.960 E0.3325
G1 X97.136 Y98.137 E0.3442
G1 X96.847 Y98.373 E0.3556
G92 E0
G1 E-3.0000 F1800
; outer perimeter
G1 X89.468 Y100.510 F4800
G1 E0.0000 F1800
G92 E0
G1 X89.001 Y100.838 E0.0175 F750
G1 X88.561 Y101.217 E0.0353
G1 X88.171 Y101.630 E0.0527
G1 X87.801 Y102.110 E0.0712
G1 X87.493 Y102.613 E0.0893
G1 X87.240 Y103.141 E0.1072
G1 X87.044 Y103.687 E0.1250
G1 X86.907 Y104.240 E0.1425
G1 X86.826 Y104.794 E0.1596
G1 X86.800 Y105.339 E0.1763
G1 X86.824 Y105.869 E0.1926
G1 X86.895 Y106.374 E0.2082
G1 X87.012 Y106.877 E0.2240
G1 X87.179 Y107.381 E0.2403
G1 X87.398 Y107.881 E0.2570
G1 X87.672 Y108.369 E0.2742
G1 X88.001 Y108.837 E0.2916
G1 X88.380 Y109.277 E0.3094
G1 X88.806 Y109.678 E0.3274
G1 X89.273 Y110.036 E0.3454
G1 X89.776 Y110.344 E0.3634
G1 X90.304 Y110.598 E0.3814
G1 X90.850 Y110.793 E0.3992
G1 X91.403 Y110.931 E0.4166
G1 X91.956 Y111.011 E0.4337
G1 X92.501 Y111.038 E0.4505
G1 X93.031 Y111.013 E0.4667
G1 X93.537 Y110.943 E0.4823
G1 X94.039 Y110.826 E0.4981
G1 X94.543 Y110.659 E0.5144
G1 X95.043 Y110.439 E0.5311
G1 X95.532 Y110.165 E0.5483
G1 X95.999 Y109.837 E0.5658
G1 X96.439 Y109.459 E0.5836
G1 X96.841 Y109.032 E0.6015
G1 X97.199 Y108.564 E0.6195
G1 X97.507 Y108.062 E0.6376
G1 X97.760 Y107.534 E0.6555
G1 X97.956 Y106.989 E0.6733
G1 X98.093 Y106.435 E0.6908
G1 X98.174 Y105.881 E0.7079
G1 X98.200 Y105.337 E0.7246
G1 X98.176 Y104.806 E0.7409
G1 X98.105 Y104.300 E0.7565
G1 X97.988 Y103.798 E0.7723
G1 X97.821 Y103.294 E0.7886
G1 X97.602 Y102.794 E0.8053
G1 X97.328 Y102.306 E0.8225
G1 X96.999 Y101.838 E0.8399
G1 X96.620 Y101.398 E0.8577
G1 X96.194 Y100.997 E0.8757
G1 X95.727 Y100.639 E0.8937
G1 X95.224 Y100.331 E0.9117
G1 X94.696 Y100.077 E0.9297
G1 X94.150 Y99.882 E0.9475
G1 X93.597 Y99.744 E0.9649
G1 X93.043 Y99.664 E0.9821
G1 X92.500 Y99.638 E0.9987
G1 X91.969 Y99.662 E1.0150
G1 X91.463 Y99.732 E1.0306
G1 X90.961 Y99.849 E1.0464
G1 X90.457 Y100.016 E1.0627
G1 X89.957 Y100.237 E1.0794
G1 X89.468 Y100.510 E1.0966
G92 E0
G1 E-3.0000 F1800
; outer perimeter
G1 X86.113 Y97.981 F4800
G1 E0.0000 F1800
G92 E0
G1 X85.794 Y98.156 E0.0112 F750
G1 X85.509 Y98.397 E0.0226
G1 X85.288 Y98.678 E0.0335
G1 X85.131 Y98.978 E0.0439
G1 X85.031 Y99.303 E0.0543
G1 X84.993 Y99.660 E0.0653
G1 X85.025 Y100.031 E0.0767
G1 X85.130 Y100.380 E0.0879
G1 X85.318 Y100.729 E0.1000
G1 X85.559 Y101.014 E0.1115
G1 X85.841 Y101.236 E0.1224
G1 X86.140 Y101.393 E0.1328
G1 X86.465 Y101.493 E0.1432
G1 X86.823 Y101.532 E0.1542
G1 X87.194 Y101.498 E0.1656
G1 X87.542 Y101.394 E0.1768
G1 X87.892 Y101.206 E0.1889
G1 X88.177 Y100.964 E0.2004
G1 X88.398 Y100.684 E0.2113
G1 X88.555 Y100.384 E0.2217
G1 X88.656 Y100.058 E0.2321
G1 X88.695 Y99.702 E0.2431
G1 X88.660 Y99.330 E0.2546
G1 X88.556 Y98.982 E0.2657
G1 X88.369 Y98.632 E0.2779
G1 X88.126 Y98.347 E0.2893
G1 X87.847 Y98.125 E0.3002
G1 X87.547 Y97.968 E0.3106
G1 X87.220 Y97.869 E0.3211
G1 X86.865 Y97.830 E0.3320
G1 X86.492 Y97.863 E0.3435
G1 X86.113 Y97.981 E0.3556
G92 E0
G1 E-3.0000 F1800
; outer perimeter
G1 X86.117 Y109.292 F4800
G1 E0.0000 F1800
G92 E0
G1 X85.820 Y109.453 E0.0103 F750
G1 X85.567 Y109.655 E0.0203
G1 X85.322 Y109.939 E0.0317
G1 X85.149 Y110.251 E0.0427
G1 X85.026 Y110.646 E0.0554
G1 X84.993 Y111.009 E0.0665
G1 X85.033 Y111.379 E0.0779
G1 X85.141 Y111.721 E0.0889
G1 X85.301 Y112.018 E0.0992
G1 X85.515 Y112.283 E0.1097
G1 X85.788 Y112.515 E0.1206
G1 X86.099 Y112.688 E0.1315
G1 X86.461 Y112.805 E0.1432
G1 X86.857 Y112.845 E0.1554
G1 X87.228 Y112.805 E0.1668
G1 X87.569 Y112.697 E0.1778
G1 X87.867 Y112.536 E0.1881
G1 X88.132 Y112.323 E0.1986
G1 X88.364 Y112.050 E0.2095
G1 X88.538 Y111.738 E0.2205
G1 X88.658 Y111.360 E0.2326
G1 X88.694 Y110.981 E0.2443
G1 X88.654 Y110.610 E0.2557
G1 X88.545 Y110.268 E0.2667
G1 X88.385 Y109.971 E0.2771
G1 X88.171 Y109.706 E0.2875
G1 X87.898 Y109.474 E0.2985
G1 X87.587 Y109.300 E0.3094
G1 X87.208 Y109.180 E0.3216
G1 X86.829 Y109.143 E0.3332
G1 X86.458 Y109.184 E0.3446
G1 X86.117 Y109.292 E0.3556
G92 E0
G1 E-3.0000 F1800
; outer perimeter
G1 X97.134 Y109.452 F4800
G1 E0.0000 F1800
G92 E0
G1 X96.828 Y109.705 E0.0122 F750
G1 X96.597 Y109.998 E0.0236
G1 X96.434 Y110.318 E0.0346
G1 X96.340 Y110.642 E0.0449
G1 X96.306 Y110.980 E0.0553
G1 X96.338 Y111.338 E0.0663
G1 X96.438 Y111.680 E0.0772
G1 X96.614 Y112.017 E0.0889
G1 X96.868 Y112.323 E0.1011
G1 X97.161 Y112.555 E0.1125
G1 X97.480 Y112.717 E0.1235
G1 X97.804 Y112.811 E0.1338
G1 X98.143 Y112.845 E0.1442
G1 X98.501 Y112.813 E0.1552
G1 X98.858 Y112.707 E0.1667
G1 X99.180 Y112.537 E0.1778
G1 X99.485 Y112.284 E0.1900
G1 X99.717 Y111.991 E0.2014
G1 X99.879 Y111.671 E0.2124
G1 X99.974 Y111.346 E0.2227
G1 X100.007 Y111.008 E0.2332
G1 X99.976 Y110.650 E0.2442
G1 X99.870 Y110.293 E0.2556
G1 X99.699 Y109.972 E0.2667
G1 X99.446 Y109.665 E0.2789
G1 X99.153 Y109.434 E0.2903
G1 X98.834 Y109.272 E0.3013
G1 X98.509 Y109.178 E0.3116
G1 X98.170 Y109.143 E0.3221
G1 X97.812 Y109.176 E0.3331
G1 X97.440 Y109.289 E0.3450
G1 X97.134 Y109.452 E0.3556
G92 E0
G1 E-3.0000 F1800
; solid layer
G1 X100.208 Y111.617 F4800
G1 E0.0000 F1800
G92 E0
G1 X108.999 Y102.825 E0.3808 F1200
