; G-Code generated by Simplify3D(R) Version 3.0.2
; 11月 14, 2017 at 6:51:28 下午
; Settings Summary
;   processName,Process1
;   applyToModels,Z直线轴承固定件1
;   profileName,I3
;   profileVersion,2017-07-16 15:44:41
;   baseProfile,Default
;   printMaterial,PLA
;   printQuality,Medium
;   printExtruders,
;   extruderName,Extruder 1,Primary Extruder
;   extruderToolheadNumber,0,0
;   extruderDiameter,0.4,0.4
;   extruderAutoWidth,0,0
;   extruderWidth,0.4,0.4
;   extrusionMultiplier,0.9,0.9
;   extruderUseRetract,1,1
;   extruderRetractionDistance,3,3
;   extruderExtraRestartDistance,0,0
;   extruderRetractionZLift,0,0
;   extruderRetractionSpeed,1800,1800
;   extruderUseCoasting,0,0
;   extruderCoastingDistance,0.2,0.2
;   extruderUseWipe,0,0
;   extruderWipeDistance,5,5
;   primaryExtruder,0
;   layerHeight,0.2
;   topSolidLayers,3
;   bottomSolidLayers,3
;   perimeterOutlines,1
;   printPerimetersInsideOut,1
;   startPointOption,2
;   startPointOriginX,0
;   startPointOriginY,0
;   startPointOriginZ,300
;   sequentialIslands,0
;   spiralVaseMode,0
;   firstLayerHeightPercentage,80
;   firstLayerWidthPercentage,100
;   firstLayerUnderspeed,0.5
;   useRaft,0
;   raftExtruder,0
;   raftLayers,3
;   raftOffset,3
;   raftSeparationDistance,0.14
;   raftInfill,85
;   disableRaftBaseLayers,0
;   useSkirt,1
;   skirtExtruder,0
;   skirtLayers,1
;   skirtOutlines,2
;   skirtOffset,2
;   usePrimePillar,0
;   primePillarExtruder,999
;   primePillarWidth,12
;   primePillarLocation,7
;   primePillarSpeedMultiplier,1
;   useOozeShield,0
;   oozeShieldExtruder,999
;   oozeShieldOffset,2
;   oozeShieldOutlines,1
;   oozeShieldSidewallShape,1
;   oozeShieldSidewallAngle,30
;   oozeShieldSpeedMultiplier,1
;   infillExtruder,0
;   internalInfillPattern,Rectilinear
;   externalInfillPattern,Rectilinear
;   infillPercentage,90
;   outlineOverlapPercentage,25
;   infillExtrusionWidthPercentage,125
;   minInfillLength,5
;   infillLayerInterval,1
;   infillAngles,45,-45
;   overlapInfillAngles,0
;   generateSupport,1
;   supportExtruder,0
;   supportInfillPercentage,30
;   supportExtraInflation,0
;   denseSupportLayers,0
;   denseSupportInfillPercentage,70
;   supportLayerInterval,1
;   supportHorizontalPartOffset,0.3
;   supportUpperSeparationLayers,1
;   supportLowerSeparationLayers,1
;   supportType,0
;   supportGridSpacing,4
;   maxOverhangAngle,45
;   supportAngles,0
;   temperatureName,Extruder 1 Temperature,Heated Bed
;   temperatureNumber,0,0
;   temperatureSetpointCount,1,1
;   temperatureSetpointLayers,1,1
;   temperatureSetpointTemperatures,200,70
;   temperatureStabilizeAtStartup,1,1
;   temperatureHeatedBed,0,1
;   temperatureRelayBetweenLayers,0,0
;   temperatureRelayBetweenLoops,0,0
;   fanLayers,1,2
;   fanSpeeds,0,100
;   blipFanToFullPower,0
;   adjustSpeedForCooling,1
;   minSpeedLayerTime,15
;   minCoolingSpeedSlowdown,20
;   increaseFanForCooling,0
;   minFanLayerTime,45
;   maxCoolingFanSpeed,100
;   increaseFanForBridging,0
;   bridgingFanSpeed,100
;   use5D,1
;   relativeEdistances,0
;   allowEaxisZeroing,1
;   independentExtruderAxes,0
;   includeM10123,0
;   stickySupport,1
;   applyToolheadOffsets,0
;   gcodeXoffset,0
;   gcodeYoffset,0
;   gcodeZoffset,0
;   overrideMachineDefinition,1
;   machineTypeOverride,0
;   strokeXoverride,185
;   strokeYoverride,190
;   strokeZoverride,300
;   originOffsetXoverride,0
;   originOffsetYoverride,0
;   originOffsetZoverride,0
;   homeXdirOverride,-1
;   homeYdirOverride,-1
;   homeZdirOverride,-1
;   flipXoverride,1
;   flipYoverride,-1
;   flipZoverride,1
;   toolheadOffsets,0,0|0,0|0,0|0,0|0,0|0,0
;   overrideFirmwareConfiguration,1
;   firmwareTypeOverride,RepRap (Marlin/Repetier/Sprinter)
;   GPXconfigOverride,r2
;   baudRateOverride,250000
;   overridePrinterModels,0
;   printerModelsOverride
;   startingGcode,G28 ; home all axes
;   layerChangeGcode,
;   retractionGcode,
;   toolChangeGcode,
;   endingGcode,M104 S0 ; turn off extruder,M140 S0 ; turn off bed,M84 ; disable motors
;   createX3G,0
;   celebration,0
;   celebrationSong,Random Song
;   createMB5G,0
;   postProcessing,
;   defaultSpeed,3000
;   outlineUnderspeed,0.5
;   solidInfillUnderspeed,0.8
;   supportUnderspeed,0.8
;   rapidXYspeed,4800
;   rapidZspeed,1000
;   minBridgingArea,50
;   bridgingExtraInflation,0
;   bridgingExtrusionMultiplier,1
;   bridgingSpeedMultiplier,1
;   filamentDiameter,1.73
;   filamentPricePerKg,46
;   filamentDensity,1.25
;   useMinPrintHeight,0
;   minPrintHeight,0
;   useMaxPrintHeight,0
;   maxPrintHeight,0
;   useDiaphragm,0
;   diaphragmLayerInterval,20
;   robustSlicing,1
;   mergeAllIntoSolid,0
;   onlyRetractWhenCrossingOutline,1
;   retractBetweenLayers,1
;   useRetractionMinTravel,0
;   retractionMinTravel,3
;   retractWhileWiping,0
;   onlyWipeOutlines,1
;   avoidCrossingOutline,0
;   maxMovementDetourFactor,3
;   toolChangeRetractionDistance,12
;   toolChangeExtraRestartDistance,-0.5
;   toolChangeRetractionSpeed,600
;   allowThinWallGapFill,1
;   thinWallAllowedOverlapPercentage,10
;   horizontalSizeCompensation,0
G90
M82
M106 S0
M140 S70
M190 S70
M104 S200 T0
M109 S200 T0
G28 ; home all axes
G92 E0
G1 E-3.0000 F1800
G1 Z0.160 F1000
; layer 1, Z = 0.16
T0
; tool H0.200 W0.400
; skirt
G1 X74.991 Y64.332 F4800
G1 E0.0000 F540
G92 E0
G1 X76.332 Y62.991 E0.0581 F1500
G1 X76.552 Y62.900 E0.0654
G1 X108.448 Y62.900 E1.0423
G1 X108.668 Y62.991 E1.0497
G1 X110.009 Y64.332 E1.1077
G1 X110.100 Y64.552 E1.1150
G1 X110.100 Y125.448 E2.9803
G1 X110.009 Y125.668 E2.9876
G1 X108.668 Y127.009 E3.0456
G1 X108.448 Y127.100 E3.0530
G1 X76.552 Y127.100 E4.0299
G1 X76.332 Y127.009 E4.0372
G1 X74.991 Y125.668 E4.0953
G1 X74.900 Y125.448 E4.1026
G1 X74.900 Y64.552 E5.9679
G1 X74.991 Y64.332 E5.9752
G1 X75.330 Y64.558 F4800
G92 E0
G1 X76.558 Y63.330 E0.0532 F1500
G1 X76.632 Y63.300 E0.0556
G1 X108.368 Y63.300 E1.0277
G1 X108.442 Y63.330 E1.0302
G1 X109.670 Y64.558 E1.0833
G1 X109.700 Y64.632 E1.0858
G1 X109.700 Y125.368 E2.9462
G1 X109.670 Y125.442 E2.9486
G1 X108.442 Y126.670 E3.0018
G1 X108.368 Y126.700 E3.0042
G1 X76.632 Y126.700 E3.9763
G1 X76.558 Y126.670 E3.9787
G1 X75.330 Y125.442 E4.0319
G1 X75.300 Y125.368 E4.0344
G1 X75.300 Y64.632 E5.8947
G1 X75.330 Y64.558 E5.8972
G92 E0
G1 E-3.0000 F1800
; outer perimeter
G1 X77.700 Y65.700 F4800
G1 E0.0000 F1800
G92 E0
G1 X107.300 Y65.700 E0.9067 F750
G1 X107.300 Y124.300 E2.7016
G1 X77.700 Y124.300 E3.6082
G1 X77.700 Y65.700 E5.4032
; outer perimeter
G1 X80.050 Y78.205 F4800
G92 E0
G1 X79.729 Y78.317 E0.0104 F750
G1 X79.419 Y78.498 E0.0214
G1 X79.139 Y78.745 E0.0328
G1 X78.911 Y79.050 E0.0445
G1 X78.751 Y79.395 E0.0562
G1 X78.665 Y79.758 E0.0676
G1 X78.653 Y80.115 E0.0785
G1 X78.705 Y80.450 E0.0889
G1 X78.817 Y80.771 E0.0993
G1 X78.998 Y81.081 E0.1103
G1 X79.245 Y81.361 E0.1218
G1 X79.550 Y81.589 E0.1334
G1 X79.895 Y81.749 E0.1451
G1 X80.258 Y81.835 E0.1565
G1 X80.615 Y81.847 E0.1675
G1 X80.950 Y81.795 E0.1778
G1 X81.271 Y81.683 E0.1882
G1 X81.581 Y81.502 E0.1992
G1 X81.861 Y81.255 E0.2107
G1 X82.089 Y80.950 E0.2223
G1 X82.249 Y80.605 E0.2340
G1 X82.335 Y80.242 E0.2454
G1 X82.347 Y79.885 E0.2564
G1 X82.295 Y79.550 E0.2667
G1 X82.183 Y79.229 E0.2772
G1 X82.002 Y78.919 E0.2882
G1 X81.755 Y78.639 E0.2996
G1 X81.450 Y78.411 E0.3112
G1 X81.105 Y78.251 E0.3229
G1 X80.742 Y78.165 E0.3343
G1 X80.385 Y78.153 E0.3453
G1 X80.050 Y78.205 E0.3557
; outer perimeter
G1 X102.838 Y79.185 F4800
G92 E0
G1 X102.708 Y79.535 E0.0114 F750
G1 X102.651 Y79.911 E0.0231
G1 X102.672 Y80.291 E0.0348
G1 X102.767 Y80.651 E0.0462
G1 X102.925 Y80.973 E0.0571
G1 X103.129 Y81.243 E0.0675
G1 X103.379 Y81.473 E0.0779
G1 X103.685 Y81.662 E0.0889
G1 X104.035 Y81.792 E0.1003
G1 X104.411 Y81.849 E0.1120
G1 X104.791 Y81.828 E0.1237
G1 X105.151 Y81.733 E0.1351
G1 X105.473 Y81.575 E0.1460
G1 X105.743 Y81.371 E0.1564
G1 X105.973 Y81.121 E0.1668
G1 X106.162 Y80.815 E0.1778
G1 X106.292 Y80.465 E0.1893
G1 X106.349 Y80.089 E0.2009
G1 X106.328 Y79.709 E0.2126
G1 X106.233 Y79.349 E0.2240
G1 X106.075 Y79.027 E0.2350
G1 X105.871 Y78.757 E0.2453
G1 X105.621 Y78.527 E0.2557
G1 X105.315 Y78.338 E0.2667
G1 X104.965 Y78.208 E0.2782
G1 X104.589 Y78.151 E0.2898
G1 X104.209 Y78.172 E0.3015
G1 X103.849 Y78.267 E0.3129
G1 X103.527 Y78.425 E0.3239
G1 X103.257 Y78.629 E0.3342
G1 X103.027 Y78.879 E0.3447
G1 X102.838 Y79.185 E0.3557
G92 E0
G1 E-3.0000 F1800
; outer perimeter
G1 X103.527 Y107.925 F4800
G1 E0.0000 F1800
G92 E0
G1 X103.257 Y108.129 E0.0104 F750
G1 X103.027 Y108.379 E0.0208
G1 X102.838 Y108.685 E0.0318
G1 X102.708 Y109.035 E0.0432
G1 X102.651 Y109.411 E0.0549
G1 X102.672 Y109.791 E0.0665
G1 X102.767 Y110.151 E0.0780
G1 X102.925 Y110.473 E0.0889
G1 X103.129 Y110.743 E0.0993
G1 X103.379 Y110.973 E0.1097
G1 X103.685 Y111.162 E0.1207
G1 X104.035 Y111.292 E0.1321
G1 X104.411 Y111.349 E0.1438
G1 X104.791 Y111.328 E0.1554
G1 X105.151 Y111.233 E0.1669
G1 X105.473 Y111.075 E0.1778
G1 X105.743 Y110.871 E0.1882
G1 X105.973 Y110.621 E0.1986
G1 X106.162 Y110.315 E0.2096
G1 X106.292 Y109.965 E0.2210
G1 X106.349 Y109.589 E0.2327
G1 X106.328 Y109.209 E0.2444
G1 X106.233 Y108.849 E0.2558
G1 X106.075 Y108.527 E0.2667
G1 X105.871 Y108.257 E0.2771
G1 X105.621 Y108.027 E0.2875
G1 X105.315 Y107.838 E0.2985
G1 X104.965 Y107.708 E0.3100
G1 X104.589 Y107.651 E0.3216
G1 X104.209 Y107.672 E0.3333
G1 X103.849 Y107.767 E0.3447
G1 X103.527 Y107.925 E0.3557
; outer perimeter
G1 X80.385 Y107.653 F4800
G92 E0
G1 X80.050 Y107.705 E0.0104 F750
G1 X79.729 Y107.817 E0.0208
G1 X79.419 Y107.998 E0.0318
G1 X79.139 Y108.245 E0.0432
G1 X78.911 Y108.550 E0.0549
G1 X78.751 Y108.895 E0.0665
G1 X78.665 Y109.258 E0.0780
G1 X78.653 Y109.615 E0.0889
G1 X78.705 Y109.950 E0.0993
G1 X78.817 Y110.271 E0.1097
G1 X78.998 Y110.581 E0.1207
G1 X79.245 Y110.861 E0.1321
G1 X79.550 Y111.089 E0.1438
G1 X79.895 Y111.249 E0.1554
G1 X80.258 Y111.335 E0.1669
G1 X80.615 Y111.347 E0.1778
G1 X80.950 Y111.295 E0.1882
G1 X81.271 Y111.183 E0.1986
G1 X81.581 Y111.002 E0.2096
G1 X81.861 Y110.755 E0.2210
G1 X82.089 Y110.450 E0.2327
G1 X82.249 Y110.105 E0.2444
G1 X82.335 Y109.742 E0.2558
G1 X82.347 Y109.385 E0.2667
G1 X82.295 Y109.050 E0.2771
G1 X82.183 Y108.729 E0.2875
G1 X82.002 Y108.419 E0.2985
G1 X81.755 Y108.139 E0.3100
G1 X81.450 Y107.911 E0.3216
G1 X81.105 Y107.751 E0.3333
G1 X80.742 Y107.665 E0.3447
G1 X80.385 Y107.653 E0.3557
; solid layer
G1 X81.173 Y107.458 F4800
G92 E0
G1 X107.000 Y81.631 E1.1188 F1200
G1 X107.000 Y82.197 E1.1361
G1 X81.564 Y107.633 E2.2379
G1 X81.605 Y107.653 E2.2393
G1 X81.894 Y107.869 E2.2504
G1 X107.000 Y82.763 E3.3379
G1 X107.000 Y83.328 E3.3552
G1 X82.171 Y108.157 E4.4308
G1 X82.247 Y108.242 E4.4343
G1 X82.396 Y108.498 E4.4433
G1 X107.000 Y83.894 E5.5091
G1 X107.000 Y84.460 E5.5265
G1 X82.560 Y108.899 E6.5851
G1 X82.588 Y108.977 E6.5876
G1 X82.648 Y109.367 E6.5997
G1 X82.648 Y109.378 E6.6001
G1 X107.000 Y85.026 E7.6549
G1 X107.000 Y85.591 E7.6723
G1 X82.580 Y110.011 E8.7301
G1 X103.785 Y107.474 F4800
G92 E0
G1 X107.000 Y104.259 E0.1393 F1200
G1 X107.000 Y104.825 E0.1566
G1 X104.467 Y107.357 E0.2663
G1 X104.604 Y107.350 E0.2705
G1 X104.983 Y107.408 E0.2822
G1 X107.000 Y105.390 E0.3696
G1 X107.000 Y105.956 E0.3870
G1 X105.405 Y107.551 E0.4561
G1 X105.448 Y107.567 E0.4575
G1 X105.761 Y107.761 E0.4688
G1 X107.000 Y106.522 E0.5224
G1 X107.000 Y107.087 E0.5398
G1 X106.062 Y108.025 E0.5804
G1 X106.095 Y108.055 E0.5817
G1 X106.311 Y108.342 E0.5927
G1 X107.000 Y107.653 E0.6226
G1 X107.000 Y108.219 E0.6399
G1 X106.502 Y108.717 E0.6615
G1 X106.515 Y108.743 E0.6624
G1 X106.625 Y109.159 E0.6756
G1 X107.000 Y108.784 E0.6918
G1 X107.000 Y109.350 E0.7092
G1 X106.633 Y109.717 E0.7251
G1 X107.000 Y123.492 F4800
G92 E0
G1 X106.492 Y124.000 E0.0220 F1200
G1 X105.926 Y124.000 E0.0393
G1 X107.000 Y122.926 E0.0858
G1 X107.000 Y122.361 E0.1032
G1 X105.361 Y124.000 E0.1742
G1 X104.795 Y124.000 E0.1915
G1 X107.000 Y121.795 E0.2870
G1 X107.000 Y121.229 E0.3043
G1 X104.229 Y124.000 E0.4243
G1 X103.664 Y124.000 E0.4417
G1 X107.000 Y120.664 E0.5862
G1 X107.000 Y120.098 E0.6035
G1 X103.098 Y124.000 E0.7725
G1 X102.532 Y124.000 E0.7899
G1 X107.000 Y119.532 E0.9834
G1 X107.000 Y118.967 E1.0007
G1 X101.967 Y124.000 E1.2188
G1 X101.401 Y124.000 E1.2361
G1 X107.000 Y118.401 E1.4786
G1 X107.000 Y117.835 E1.4960
G1 X100.835 Y124.000 E1.7630
G1 X100.270 Y124.000 E1.7803
G1 X107.000 Y117.270 E2.0719
G1 X107.000 Y116.704 E2.0892
G1 X99.704 Y124.000 E2.4052
G1 X99.138 Y124.000 E2.4226
G1 X107.000 Y116.138 E2.7631
G1 X107.000 Y115.573 E2.7805
G1 X98.573 Y124.000 E3.1455
G1 X98.007 Y124.000 E3.1628
G1 X107.000 Y115.007 E3.5524
G1 X107.000 Y114.441 E3.5697
G1 X97.441 Y124.000 E3.9838
G1 X96.875 Y124.000 E4.0011
G1 X107.000 Y113.875 E4.4397
G1 X107.000 Y113.310 E4.4570
G1 X96.310 Y124.000 E4.9201
G1 X95.744 Y124.000 E4.9374
G1 X107.000 Y112.744 E5.4250
G1 X107.000 Y112.178 E5.4423
G1 X95.178 Y124.000 E5.9544
G1 X94.613 Y124.000 E5.9717
G1 X107.000 Y111.613 E6.5083
G1 X107.000 Y111.047 E6.5257
G1 X94.047 Y124.000 E7.0868
G1 X93.481 Y124.000 E7.1041
G1 X107.000 Y110.481 E7.6897
G1 X107.000 Y109.916 E7.7070
G1 X106.375 Y110.540 E7.7341
G1 X106.213 Y110.803 E7.7435
G1 X105.945 Y111.095 E7.7556
G1 X105.630 Y111.332 E7.7677
G1 X105.540 Y111.376 E7.7708
G1 X92.916 Y124.000 E8.3177
G1 X92.350 Y124.000 E8.3350
G1 X104.717 Y111.633 E8.8707
G1 X104.396 Y111.650 E8.8806
G1 X104.169 Y111.615 E8.8876
G1 X91.784 Y124.000 E9.4241
G1 X91.219 Y124.000 E9.4414
G1 X103.723 Y111.496 E9.9831
G1 X103.552 Y111.433 E9.9886
G1 X103.347 Y111.306 E9.9960
G1 X90.653 Y124.000 E10.5459
G1 X90.087 Y124.000 E10.5632
G1 X103.029 Y111.059 E11.1238
G1 X102.906 Y110.945 E11.1289
G1 X102.764 Y110.757 E11.1361
G1 X89.522 Y124.000 E11.7098
G1 X88.956 Y124.000 E11.7271
G1 X102.556 Y110.400 E12.3162
G1 X102.485 Y110.257 E12.3211
G1 X102.411 Y109.979 E12.3299
G1 X88.390 Y124.000 E12.9373
G1 X87.825 Y124.000 E12.9546
G1 X102.354 Y109.471 E13.5840
G1 X102.350 Y109.396 E13.5863
G1 X102.417 Y108.959 E13.5998
G1 X102.485 Y108.774 E13.6059
G1 X87.259 Y124.000 E14.2655
G1 X86.693 Y124.000 E14.2828
G1 X107.000 Y103.693 E15.1624
G1 X107.000 Y103.127 E15.1798
G1 X86.127 Y124.000 E16.0839
G1 X85.562 Y124.000 E16.1012
G1 X107.000 Y102.562 E17.0299
G1 X107.000 Y101.996 E17.0472
G1 X84.996 Y124.000 E18.0004
G1 X84.430 Y124.000 E18.0177
G1 X107.000 Y101.430 E18.9954
G1 X107.000 Y100.865 E19.0127
G1 X83.865 Y124.000 E20.0149
G1 X83.299 Y124.000 E20.0322
G1 X107.000 Y100.299 E21.0589
G1 X107.000 Y99.733 E21.0762
G1 X82.733 Y124.000 E22.1274
G1 X82.168 Y124.000 E22.1447
G1 X107.000 Y99.168 E23.2204
G1 X107.000 Y98.602 E23.2377
G1 X81.602 Y124.000 E24.3379
G1 X81.036 Y124.000 E24.3552
G1 X107.000 Y98.036 E25.4799
G1 X107.000 Y97.471 E25.4972
G1 X80.471 Y124.000 E26.6464
G1 X79.905 Y124.000 E26.6638
G1 X107.000 Y96.905 E27.8374
G1 X107.000 Y96.339 E27.8548
G1 X79.339 Y124.000 E29.0530
G1 X78.774 Y124.000 E29.0703
G1 X107.000 Y95.774 E30.2930
G1 X107.000 Y95.208 E30.3103
G1 X78.208 Y124.000 E31.5575
G1 X78.000 Y124.000 E31.5639
G1 X78.000 Y123.642 E31.5749
G1 X107.000 Y94.642 E32.8311
G1 X107.000 Y94.076 E32.8484
G1 X78.000 Y123.076 E34.1046
G1 X78.000 Y122.511 E34.1220
G1 X107.000 Y93.511 E35.3782
G1 X107.000 Y92.945 E35.3955
G1 X78.000 Y121.945 E36.6517
G1 X78.000 Y121.379 E36.6690
G1 X107.000 Y92.379 E37.9252
G1 X107.000 Y91.814 E37.9426
G1 X78.000 Y120.814 E39.1988
G1 X78.000 Y120.248 E39.2161
G1 X107.000 Y91.248 E40.4723
G1 X107.000 Y90.682 E40.4897
G1 X78.000 Y119.682 E41.7459
G1 X78.000 Y119.117 E41.7632
G1 X107.000 Y90.117 E43.0194
G1 X107.000 Y89.551 E43.0367
G1 X78.000 Y118.551 E44.2929
G1 X78.000 Y117.985 E44.3103
G1 X107.000 Y88.985 E45.5665
G1 X107.000 Y88.420 E45.5838
G1 X78.000 Y117.420 E46.8400
G1 X78.000 Y116.854 E46.8574
G1 X107.000 Y87.854 E48.1136
G1 X107.000 Y87.288 E48.1309
G1 X78.000 Y116.288 E49.3871
G1 X78.000 Y115.723 E49.4044
G1 X107.000 Y86.723 E50.6607
G1 X107.000 Y86.157 E50.6780
G1 X78.000 Y115.157 E51.9342
G1 X78.000 Y114.591 E51.9515
G1 X81.000 Y111.591 E52.0815
G1 X80.633 Y111.648 E52.0928
G1 X80.386 Y111.640 E52.1004
G1 X78.000 Y114.026 E52.2038
G1 X78.000 Y113.460 E52.2211
