; G-Code generated by Simplify3D(R) Version 3.0.2
; 11月 14, 2017 at 6:50:22 下午
; Settings Summary
;   processName,Process1
;   applyToModels,Z直线轴承固定盖件1
;   profileName,I3
;   profileVersion,2017-07-16 15:44:41
;   baseProfile,Default
;   printMaterial,PLA
;   printQuality,Medium
;   printExtruders,
;   extruderName,Extruder 1,Primary Extruder
;   extruderToolheadNumber,0,0
;   extruderDiameter,0.4,0.4
;   extruderAutoWidth,0,0
;   extruderWidth,0.4,0.4
;   extrusionMultiplier,0.9,0.9
;   extruderUseRetract,1,1
;   extruderRetractionDistance,3,3
;   extruderExtraRestartDistance,0,0
;   extruderRetractionZLift,0,0
;   extruderRetractionSpeed,1800,1800
;   extruderUseCoasting,0,0
;   extruderCoastingDistance,0.2,0.2
;   extruderUseWipe,0,0
;   extruderWipeDistance,5,5
;   primaryExtruder,0
;   layerHeight,0.2
;   topSolidLayers,3
;   bottomSolidLayers,3
;   perimeterOutlines,1
;   printPerimetersInsideOut,1
;   startPointOption,2
;   startPointOriginX,0
;   startPointOriginY,0
;   startPointOriginZ,300
;   sequentialIslands,0
;   spiralVaseMode,0
;   firstLayerHeightPercentage,80
;   firstLayerWidthPercentage,100
;   firstLayerUnderspeed,0.5
;   useRaft,0
;   raftExtruder,0
;   raftLayers,3
;   raftOffset,3
;   raftSeparationDistance,0.14
;   raftInfill,85
;   disableRaftBaseLayers,0
;   useSkirt,1
;   skirtExtruder,0
;   skirtLayers,1
;   skirtOutlines,2
;   skirtOffset,2
;   usePrimePillar,0
;   primePillarExtruder,999
;   primePillarWidth,12
;   primePillarLocation,7
;   primePillarSpeedMultiplier,1
;   useOozeShield,0
;   oozeShieldExtruder,999
;   oozeShieldOffset,2
;   oozeShieldOutlines,1
;   oozeShieldSidewallShape,1
;   oozeShieldSidewallAngle,30
;   oozeShieldSpeedMultiplier,1
;   infillExtruder,0
;   internalInfillPattern,Rectilinear
;   externalInfillPattern,Rectilinear
;   infillPercentage,90
;   outlineOverlapPercentage,25
;   infillExtrusionWidthPercentage,125
;   minInfillLength,5
;   infillLayerInterval,1
;   infillAngles,45,-45
;   overlapInfillAngles,0
;   generateSupport,1
;   supportExtruder,0
;   supportInfillPercentage,30
;   supportExtraInflation,0
;   denseSupportLayers,0
;   denseSupportInfillPercentage,70
;   supportLayerInterval,1
;   supportHorizontalPartOffset,0.3
;   supportUpperSeparationLayers,1
;   supportLowerSeparationLayers,1
;   supportType,0
;   supportGridSpacing,4
;   maxOverhangAngle,45
;   supportAngles,0
;   temperatureName,Extruder 1 Temperature,Heated Bed
;   temperatureNumber,0,0
;   temperatureSetpointCount,1,1
;   temperatureSetpointLayers,1,1
;   temperatureSetpointTemperatures,200,70
;   temperatureStabilizeAtStartup,1,1
;   temperatureHeatedBed,0,1
;   temperatureRelayBetweenLayers,0,0
;   temperatureRelayBetweenLoops,0,0
;   fanLayers,1,2
;   fanSpeeds,0,100
;   blipFanToFullPower,0
;   adjustSpeedForCooling,1
;   minSpeedLayerTime,15
;   minCoolingSpeedSlowdown,20
;   increaseFanForCooling,0
;   minFanLayerTime,45
;   maxCoolingFanSpeed,100
;   increaseFanForBridging,0
;   bridgingFanSpeed,100
;   use5D,1
;   relativeEdistances,0
;   allowEaxisZeroing,1
;   independentExtruderAxes,0
;   includeM10123,0
;   stickySupport,1
;   applyToolheadOffsets,0
;   gcodeXoffset,0
;   gcodeYoffset,0
;   gcodeZoffset,0
;   overrideMachineDefinition,1
;   machineTypeOverride,0
;   strokeXoverride,185
;   strokeYoverride,190
;   strokeZoverride,300
;   originOffsetXoverride,0
;   originOffsetYoverride,0
;   originOffsetZoverride,0
;   homeXdirOverride,-1
;   homeYdirOverride,-1
;   homeZdirOverride,-1
;   flipXoverride,1
;   flipYoverride,-1
;   flipZoverride,1
;   toolheadOffsets,0,0|0,0|0,0|0,0|0,0|0,0
;   overrideFirmwareConfiguration,1
;   firmwareTypeOverride,RepRap (Marlin/Repetier/Sprinter)
;   GPXconfigOverride,r2
;   baudRateOverride,250000
;   overridePrinterModels,0
;   printerModelsOverride
;   startingGcode,G28 ; home all axes
;   layerChangeGcode,
;   retractionGcode,
;   toolChangeGcode,
;   endingGcode,M104 S0 ; turn off extruder,M140 S0 ; turn off bed,M84 ; disable motors
;   createX3G,0
;   celebration,0
;   celebrationSong,Random Song
;   createMB5G,0
;   postProcessing,
;   defaultSpeed,3000
;   outlineUnderspeed,0.5
;   solidInfillUnderspeed,0.8
;   supportUnderspeed,0.8
;   rapidXYspeed,4800
;   rapidZspeed,1000
;   minBridgingArea,50
;   bridgingExtraInflation,0
;   bridgingExtrusionMultiplier,1
;   bridgingSpeedMultiplier,1
;   filamentDiameter,1.73
;   filamentPricePerKg,46
;   filamentDensity,1.25
;   useMinPrintHeight,0
;   minPrintHeight,0
;   useMaxPrintHeight,0
;   maxPrintHeight,0
;   useDiaphragm,0
;   diaphragmLayerInterval,20
;   robustSlicing,1
;   mergeAllIntoSolid,0
;   onlyRetractWhenCrossingOutline,1
;   retractBetweenLayers,1
;   useRetractionMinTravel,0
;   retractionMinTravel,3
;   retractWhileWiping,0
;   onlyWipeOutlines,1
;   avoidCrossingOutline,0
;   maxMovementDetourFactor,3
;   toolChangeRetractionDistance,12
;   toolChangeExtraRestartDistance,-0.5
;   toolChangeRetractionSpeed,600
;   allowThinWallGapFill,1
;   thinWallAllowedOverlapPercentage,10
;   horizontalSizeCompensation,0
G90
M82
M106 S0
M140 S70
M190 S70
M104 S200 T0
M109 S200 T0
G28 ; home all axes
G92 E0
G1 E-3.0000 F1800
G1 Z0.160 F1000
; layer 1, Z = 0.16
T0
; tool H0.200 W0.400
; skirt
G1 X76.332 Y87.241 F4800
G1 E0.0000 F540
G92 E0
G1 X76.552 Y87.150 E0.0073 F1500
G1 X85.915 Y87.150 E0.2941
G1 X86.130 Y87.236 E0.3012
G1 X87.456 Y88.498 E0.3573
G1 X87.552 Y88.708 E0.3643
G1 X87.626 Y90.214 E0.4105
G1 X87.729 Y90.854 E0.4304
G1 X87.800 Y91.126 E0.4390
G1 X88.088 Y91.872 E0.4635
G1 X88.300 Y92.268 E0.4772
G1 X88.576 Y92.680 E0.4924
G1 X88.761 Y92.912 E0.5015
G1 X89.315 Y93.466 E0.5255
G1 X89.793 Y93.830 E0.5439
G1 X90.164 Y94.052 E0.5572
G1 X90.866 Y94.363 E0.5807
G1 X91.458 Y94.535 E0.5996
G1 X91.766 Y94.592 E0.6091
G1 X92.260 Y94.641 E0.6243
G1 X92.724 Y94.641 E0.6386
G1 X93.369 Y94.570 E0.6584
G1 X93.674 Y94.505 E0.6680
G1 X94.150 Y94.361 E0.6832
G1 X94.608 Y94.171 E0.6984
G1 X94.914 Y94.012 E0.7090
G1 X95.208 Y93.831 E0.7195
G1 X95.619 Y93.526 E0.7352
G1 X95.866 Y93.308 E0.7453
G1 X96.219 Y92.937 E0.7610
G1 X96.424 Y92.680 E0.7711
G1 X96.700 Y92.268 E0.7863
G1 X96.927 Y91.844 E0.8010
G1 X97.111 Y91.400 E0.8157
G1 X97.255 Y90.924 E0.8309
G1 X97.326 Y90.587 E0.8415
G1 X97.373 Y90.246 E0.8520
G1 X97.448 Y88.708 E0.8992
G1 X97.544 Y88.498 E0.9063
G1 X98.870 Y87.236 E0.9623
G1 X99.085 Y87.150 E0.9694
G1 X108.448 Y87.150 E1.2562
G1 X108.668 Y87.241 E1.2635
G1 X110.009 Y88.582 E1.3216
G1 X110.100 Y88.802 E1.3289
G1 X110.100 Y95.698 E1.5401
G1 X110.009 Y95.918 E1.5474
G1 X109.292 Y96.635 E1.5785
G1 X109.175 Y96.811 E1.5850
G1 X109.038 Y96.924 E1.5904
G1 X108.977 Y96.950 E1.5924
G1 X108.668 Y97.259 E1.6058
G1 X108.448 Y97.350 E1.6131
G1 X108.023 Y97.350 E1.6261
G1 X98.900 Y101.176 E1.9291
G1 X98.365 Y101.464 E1.9477
G1 X98.355 Y101.469 E1.9481
G1 X98.278 Y101.507 E1.9507
G1 X98.268 Y101.511 E1.9510
G1 X97.406 Y101.896 E1.9800
G1 X97.397 Y101.900 E1.9803
G1 X97.327 Y101.929 E1.9826
G1 X97.317 Y101.932 E1.9829
G1 X96.763 Y102.137 E2.0010
G1 X96.755 Y102.140 E2.0013
G1 X96.692 Y102.161 E2.0033
G1 X96.684 Y102.164 E2.0035
G1 X95.947 Y102.389 E2.0271
G1 X95.935 Y102.392 E2.0275
G1 X95.844 Y102.416 E2.0304
G1 X95.832 Y102.419 E2.0308
G1 X94.726 Y102.659 E2.0654
G1 X94.714 Y102.661 E2.0658
G1 X94.621 Y102.677 E2.0687
G1 X94.609 Y102.679 E2.0691
G1 X93.825 Y102.783 E2.0933
G1 X93.812 Y102.785 E2.0937
G1 X93.708 Y102.794 E2.0969
G1 X93.694 Y102.794 E2.0973
G1 X92.382 Y102.849 E2.1376
G1 X92.369 Y102.849 E2.1380
G1 X92.264 Y102.848 E2.1412
G1 X92.251 Y102.848 E2.1416
G1 X91.456 Y102.809 E2.1660
G1 X91.443 Y102.808 E2.1664
G1 X91.339 Y102.798 E2.1696
G1 X91.326 Y102.796 E2.1700
G1 X90.024 Y102.613 E2.2102
G1 X90.011 Y102.611 E2.2107
G1 X89.908 Y102.592 E2.2138
G1 X89.895 Y102.589 E2.2143
G1 X89.126 Y102.408 E2.2384
G1 X89.115 Y102.405 E2.2388
G1 X89.023 Y102.380 E2.2417
G1 X89.012 Y102.376 E2.2421
G1 X87.940 Y102.030 E2.2766
G1 X87.929 Y102.026 E2.2769
G1 X87.849 Y101.997 E2.2795
G1 X87.839 Y101.993 E2.2799
G1 X87.274 Y101.763 E2.2986
G1 X87.263 Y101.758 E2.2989
G1 X87.177 Y101.719 E2.3018
G1 X87.166 Y101.713 E2.3022
G1 X86.130 Y101.188 E2.3378
G1 X76.977 Y97.350 E2.6418
G1 X76.552 Y97.350 E2.6548
G1 X76.332 Y97.259 E2.6621
G1 X76.023 Y96.950 E2.6755
G1 X75.962 Y96.924 E2.6775
G1 X75.825 Y96.812 E2.6829
G1 X75.708 Y96.635 E2.6894
G1 X74.991 Y95.918 E2.7205
G1 X74.900 Y95.698 E2.7278
G1 X74.900 Y88.802 E2.9390
G1 X74.991 Y88.582 E2.9463
G1 X76.332 Y87.241 E3.0044
G1 X76.558 Y87.580 F4800
G92 E0
G1 X76.632 Y87.550 E0.0024 F1500
G1 X85.838 Y87.550 E0.2844
G1 X85.910 Y87.579 E0.2868
G1 X87.124 Y88.735 E0.3382
G1 X87.156 Y88.805 E0.3405
G1 X87.228 Y90.256 E0.3850
G1 X87.337 Y90.937 E0.4061
G1 X87.419 Y91.249 E0.4160
G1 X87.724 Y92.039 E0.4420
G1 X87.956 Y92.473 E0.4571
G1 X88.253 Y92.917 E0.4734
G1 X88.463 Y93.179 E0.4837
G1 X89.052 Y93.768 E0.5092
G1 X89.569 Y94.162 E0.5291
G1 X89.980 Y94.408 E0.5438
G1 X90.729 Y94.740 E0.5689
G1 X91.366 Y94.925 E0.5892
G1 X91.709 Y94.989 E0.5999
G1 X92.240 Y95.041 E0.6162
G1 X92.746 Y95.041 E0.6317
G1 X93.432 Y94.965 E0.6529
G1 X93.774 Y94.893 E0.6636
G1 X94.285 Y94.738 E0.6799
G1 X94.777 Y94.534 E0.6963
G1 X95.112 Y94.360 E0.7078
G1 X95.432 Y94.163 E0.7193
G1 X95.871 Y93.837 E0.7361
G1 X96.143 Y93.596 E0.7472
G1 X96.521 Y93.200 E0.7639
G1 X96.747 Y92.917 E0.7751
G1 X97.044 Y92.473 E0.7914
G1 X97.289 Y92.015 E0.8073
G1 X97.488 Y91.535 E0.8232
G1 X97.643 Y91.024 E0.8396
G1 X97.720 Y90.656 E0.8511
G1 X97.771 Y90.283 E0.8626
G1 X97.844 Y88.805 E0.9080
G1 X97.876 Y88.735 E0.9103
G1 X99.090 Y87.579 E0.9617
G1 X99.162 Y87.550 E0.9640
G1 X108.368 Y87.550 E1.2460
G1 X108.442 Y87.580 E1.2485
G1 X109.670 Y88.808 E1.3017
G1 X109.700 Y88.882 E1.3041
G1 X109.700 Y95.618 E1.5104
G1 X109.670 Y95.692 E1.5129
G1 X108.981 Y96.380 E1.5427
G1 X108.874 Y96.541 E1.5486
G1 X108.829 Y96.578 E1.5504
G1 X108.750 Y96.612 E1.5530
G1 X108.442 Y96.920 E1.5664
G1 X108.368 Y96.950 E1.5688
G1 X107.943 Y96.950 E1.5819
G1 X98.728 Y100.814 E1.8879
G1 X98.178 Y101.110 E1.9070
G1 X98.175 Y101.112 E1.9072
G1 X98.105 Y101.146 E1.9095
G1 X98.102 Y101.148 E1.9096
G1 X97.246 Y101.530 E1.9384
G1 X97.243 Y101.531 E1.9385
G1 X97.179 Y101.557 E1.9406
G1 X97.176 Y101.558 E1.9407
G1 X96.627 Y101.761 E1.9586
G1 X96.625 Y101.762 E1.9587
G1 X96.567 Y101.781 E1.9605
G1 X96.565 Y101.782 E1.9606
G1 X95.834 Y102.005 E1.9840
G1 X95.830 Y102.006 E1.9841
G1 X95.747 Y102.028 E1.9868
G1 X95.743 Y102.029 E1.9869
G1 X94.645 Y102.267 E2.0213
G1 X94.641 Y102.268 E2.0214
G1 X94.556 Y102.283 E2.0241
G1 X94.552 Y102.283 E2.0242
G1 X93.777 Y102.386 E2.0481
G1 X93.773 Y102.387 E2.0483
G1 X93.678 Y102.395 E2.0512
G1 X93.673 Y102.395 E2.0513
G1 X92.370 Y102.449 E2.0913
G1 X92.366 Y102.449 E2.0914
G1 X92.271 Y102.448 E2.0943
G1 X92.266 Y102.448 E2.0945
G1 X91.481 Y102.409 E2.1186
G1 X91.476 Y102.409 E2.1187
G1 X91.381 Y102.400 E2.1216
G1 X91.377 Y102.400 E2.1218
G1 X90.084 Y102.217 E2.1617
G1 X90.080 Y102.217 E2.1619
G1 X89.986 Y102.199 E2.1648
G1 X89.982 Y102.198 E2.1649
G1 X89.222 Y102.020 E2.1888
G1 X89.218 Y102.019 E2.1890
G1 X89.135 Y101.996 E2.1916
G1 X89.131 Y101.995 E2.1917
G1 X88.066 Y101.650 E2.2260
G1 X88.063 Y101.649 E2.2261
G1 X87.990 Y101.622 E2.2285
G1 X87.986 Y101.621 E2.2286
G1 X87.429 Y101.394 E2.2470
G1 X87.425 Y101.392 E2.2472
G1 X87.347 Y101.357 E2.2498
G1 X87.343 Y101.355 E2.2499
G1 X86.298 Y100.825 E2.2858
G1 X77.057 Y96.950 E2.5928
G1 X76.632 Y96.950 E2.6058
G1 X76.558 Y96.920 E2.6082
G1 X76.250 Y96.612 E2.6216
G1 X76.171 Y96.578 E2.6242
G1 X76.126 Y96.541 E2.6260
G1 X76.019 Y96.380 E2.6319
G1 X75.330 Y95.692 E2.6617
G1 X75.300 Y95.618 E2.6642
G1 X75.300 Y88.882 E2.8705
G1 X75.330 Y88.808 E2.8729
G1 X76.558 Y87.580 E2.9261
G92 E0
G1 E-3.0000 F1800
; outer perimeter
G1 X77.700 Y89.950 F4800
G1 E0.0000 F1800
G92 E0
G1 X84.810 Y89.950 E0.2178 F750
G1 X84.837 Y90.502 E0.2347
G1 X84.883 Y90.881 E0.2464
G1 X84.987 Y91.437 E0.2637
G1 X85.131 Y91.984 E0.2810
G1 X85.251 Y92.346 E0.2927
G1 X85.539 Y93.042 E0.3158
G1 X85.895 Y93.709 E0.3390
G1 X86.314 Y94.336 E0.3621
G1 X86.669 Y94.779 E0.3794
G1 X86.925 Y95.061 E0.3911
G1 X87.470 Y95.580 E0.4141
G1 X87.912 Y95.934 E0.4315
G1 X88.224 Y96.154 E0.4432
G1 X88.870 Y96.541 E0.4663
G1 X89.551 Y96.863 E0.4893
G1 X89.907 Y97.000 E0.5010
G1 X90.445 Y97.171 E0.5183
G1 X90.814 Y97.263 E0.5300
G1 X91.371 Y97.367 E0.5473
G1 X92.122 Y97.441 E0.5704
G1 X92.875 Y97.441 E0.5935
G1 X93.256 Y97.413 E0.6052
G1 X93.816 Y97.337 E0.6225
G1 X94.372 Y97.219 E0.6399
G1 X95.094 Y97.000 E0.6630
G1 X95.791 Y96.711 E0.6861
G1 X96.295 Y96.450 E0.7035
G1 X96.779 Y96.152 E0.7209
G1 X97.384 Y95.703 E0.7440
G1 X97.810 Y95.326 E0.7614
G1 X98.330 Y94.780 E0.7845
G1 X98.686 Y94.336 E0.8020
G1 X99.105 Y93.709 E0.8251
G1 X99.461 Y93.042 E0.8482
G1 X99.750 Y92.344 E0.8714
G1 X99.969 Y91.622 E0.8945
G1 X100.087 Y91.066 E0.9119
G1 X100.163 Y90.504 E0.9293
G1 X100.190 Y89.950 E0.9462
G1 X107.300 Y89.950 E1.1640
G1 X107.300 Y94.550 E1.3049
G1 X107.193 Y94.550 E1.3082
G1 X107.193 Y94.662 E1.3116
G1 X97.692 Y98.646 E1.6272
G1 X97.081 Y98.975 E1.6484
G1 X96.305 Y99.321 E1.6744
G1 X95.830 Y99.497 E1.6900
G1 X95.180 Y99.695 E1.7108
G1 X94.686 Y99.815 E1.7264
G1 X94.189 Y99.911 E1.7419
G1 X93.515 Y100.000 E1.7627
G1 X93.009 Y100.037 E1.7782
G1 X92.331 Y100.049 E1.7990
G1 X91.653 Y100.015 E1.8198
G1 X90.979 Y99.937 E1.8406
G1 X90.478 Y99.850 E1.8561
G1 X89.818 Y99.695 E1.8769
G1 X89.330 Y99.550 E1.8925
G1 X88.851 Y99.382 E1.9081
G1 X88.380 Y99.190 E1.9236
G1 X87.767 Y98.898 E1.9444
G1 X87.309 Y98.646 E1.9604
G1 X77.807 Y94.662 E2.2761
G1 X77.807 Y94.550 E2.2795
G1 X77.700 Y94.550 E2.2827
G1 X77.700 Y89.950 E2.4236
; solid layer
G1 X78.000 Y90.267 F4800
G92 E0
G1 X78.017 Y90.250 E0.0007 F1200
G1 X78.582 Y90.250 E0.0181
G1 X78.000 Y90.832 E0.0433
G1 X78.000 Y91.398 E0.0606
G1 X79.148 Y90.250 E0.1103
G1 X79.714 Y90.250 E0.1277
G1 X78.000 Y91.964 E0.2019
G1 X78.000 Y92.529 E0.2192
G1 X80.279 Y90.250 E0.3180
G1 X80.845 Y90.250 E0.3353
G1 X78.000 Y93.095 E0.4585
G1 X78.000 Y93.661 E0.4759
G1 X81.411 Y90.250 E0.6236
G1 X81.977 Y90.250 E0.6409
G1 X78.000 Y94.227 E0.8132
G1 X78.000 Y94.250 E0.8139
G1 X78.107 Y94.250 E0.8172
G1 X78.107 Y94.462 E0.8237
G1 X78.264 Y94.528 E0.8289
G1 X82.542 Y90.250 E1.0142
G1 X83.108 Y90.250 E1.0316
G1 X78.663 Y94.695 E1.2241
G1 X79.061 Y94.862 E1.2374
G1 X83.674 Y90.250 E1.4372
G1 X84.239 Y90.250 E1.4545
G1 X79.460 Y95.030 E1.6615
G1 X79.858 Y95.197 E1.6748
G1 X84.537 Y90.518 E1.8774
G1 X84.538 Y90.528 E1.8778
G1 X84.587 Y90.927 E1.8901
G1 X84.604 Y91.017 E1.8929
G1 X80.257 Y95.364 E2.0812
G1 X80.655 Y95.531 E2.0944
G1 X84.692 Y91.494 E2.2693
G1 X84.694 Y91.503 E2.2696
G1 X84.810 Y91.942 E2.2835
G1 X81.054 Y95.698 E2.4462
G1 X81.452 Y95.865 E2.4594
G1 X84.944 Y92.374 E2.6107
G1 X84.969 Y92.451 E2.6132
G1 X85.105 Y92.778 E2.6240
G1 X81.851 Y96.032 E2.7650
G1 X82.250 Y96.200 E2.7782
G1 X85.271 Y93.178 E2.9091
G1 X85.468 Y93.546 E2.9219
G1 X82.648 Y96.367 E3.0441
G1 X83.047 Y96.534 E3.0573
G1 X85.670 Y93.911 E3.1709
G1 X85.896 Y94.250 E3.1834
G1 X83.445 Y96.701 E3.2896
G1 X83.844 Y96.868 E3.3028
G1 X86.128 Y94.584 E3.4018
G1 X86.380 Y94.898 E3.4141
G1 X84.242 Y97.035 E3.5067
G1 X84.641 Y97.202 E3.5199
G1 X86.645 Y95.199 E3.6067
G1 X86.710 Y95.271 E3.6097
G1 X86.929 Y95.480 E3.6190
G1 X85.039 Y97.369 E3.7009
G1 X85.438 Y97.537 E3.7141
G1 X87.219 Y95.756 E3.7913
G1 X87.272 Y95.806 E3.7935
G1 X87.529 Y96.011 E3.8036
G1 X85.836 Y97.704 E3.8769
G1 X86.235 Y97.871 E3.8901
G1 X87.849 Y96.257 E3.9600
G1 X88.060 Y96.405 E3.9679
G1 X88.189 Y96.483 E3.9725
G1 X86.634 Y98.038 E4.0399
G1 X87.032 Y98.205 E4.0532
G1 X88.543 Y96.695 E4.1186
G1 X88.729 Y96.806 E4.1252
G1 X88.911 Y96.892 E4.1314
G1 X87.431 Y98.372 E4.1955
G1 X87.439 Y98.376 E4.1958
G1 X87.797 Y98.572 E4.2083
G1 X89.295 Y97.074 E4.2732
G1 X89.433 Y97.139 E4.2779
G1 X89.694 Y97.240 E4.2865
G1 X88.175 Y98.760 E4.3523
G1 X88.501 Y98.915 E4.3634
G1 X88.560 Y98.940 E4.3653
G1 X90.118 Y97.382 E4.4328
G1 X90.363 Y97.460 E4.4407
G1 X90.557 Y97.508 E4.4468
G1 X88.963 Y99.103 E4.5159
G1 X89.381 Y99.250 E4.5295
