; G-Code generated by Simplify3D(R) Version 3.0.2
; 11月 14, 2017 at 6:50:09 下午
; Settings Summary
;   processName,Process1
;   applyToModels,Z限位开关件
;   profileName,I3
;   profileVersion,2017-07-16 15:44:41
;   baseProfile,Default
;   printMaterial,PLA
;   printQuality,Medium
;   printExtruders,
;   extruderName,Extruder 1,Primary Extruder
;   extruderToolheadNumber,0,0
;   extruderDiameter,0.4,0.4
;   extruderAutoWidth,0,0
;   extruderWidth,0.4,0.4
;   extrusionMultiplier,0.9,0.9
;   extruderUseRetract,1,1
;   extruderRetractionDistance,3,3
;   extruderExtraRestartDistance,0,0
;   extruderRetractionZLift,0,0
;   extruderRetractionSpeed,1800,1800
;   extruderUseCoasting,0,0
;   extruderCoastingDistance,0.2,0.2
;   extruderUseWipe,0,0
;   extruderWipeDistance,5,5
;   primaryExtruder,0
;   layerHeight,0.2
;   topSolidLayers,3
;   bottomSolidLayers,3
;   perimeterOutlines,1
;   printPerimetersInsideOut,1
;   startPointOption,2
;   startPointOriginX,0
;   startPointOriginY,0
;   startPointOriginZ,300
;   sequentialIslands,0
;   spiralVaseMode,0
;   firstLayerHeightPercentage,80
;   firstLayerWidthPercentage,100
;   firstLayerUnderspeed,0.5
;   useRaft,0
;   raftExtruder,0
;   raftLayers,3
;   raftOffset,3
;   raftSeparationDistance,0.14
;   raftInfill,85
;   disableRaftBaseLayers,0
;   useSkirt,1
;   skirtExtruder,0
;   skirtLayers,1
;   skirtOutlines,2
;   skirtOffset,2
;   usePrimePillar,0
;   primePillarExtruder,999
;   primePillarWidth,12
;   primePillarLocation,7
;   primePillarSpeedMultiplier,1
;   useOozeShield,0
;   oozeShieldExtruder,999
;   oozeShieldOffset,2
;   oozeShieldOutlines,1
;   oozeShieldSidewallShape,1
;   oozeShieldSidewallAngle,30
;   oozeShieldSpeedMultiplier,1
;   infillExtruder,0
;   internalInfillPattern,Rectilinear
;   externalInfillPattern,Rectilinear
;   infillPercentage,90
;   outlineOverlapPercentage,25
;   infillExtrusionWidthPercentage,125
;   minInfillLength,5
;   infillLayerInterval,1
;   infillAngles,45,-45
;   overlapInfillAngles,0
;   generateSupport,1
;   supportExtruder,0
;   supportInfillPercentage,30
;   supportExtraInflation,0
;   denseSupportLayers,0
;   denseSupportInfillPercentage,70
;   supportLayerInterval,1
;   supportHorizontalPartOffset,0.3
;   supportUpperSeparationLayers,1
;   supportLowerSeparationLayers,1
;   supportType,0
;   supportGridSpacing,4
;   maxOverhangAngle,45
;   supportAngles,0
;   temperatureName,Extruder 1 Temperature,Heated Bed
;   temperatureNumber,0,0
;   temperatureSetpointCount,1,1
;   temperatureSetpointLayers,1,1
;   temperatureSetpointTemperatures,200,70
;   temperatureStabilizeAtStartup,1,1
;   temperatureHeatedBed,0,1
;   temperatureRelayBetweenLayers,0,0
;   temperatureRelayBetweenLoops,0,0
;   fanLayers,1,2
;   fanSpeeds,0,100
;   blipFanToFullPower,0
;   adjustSpeedForCooling,1
;   minSpeedLayerTime,15
;   minCoolingSpeedSlowdown,20
;   increaseFanForCooling,0
;   minFanLayerTime,45
;   maxCoolingFanSpeed,100
;   increaseFanForBridging,0
;   bridgingFanSpeed,100
;   use5D,1
;   relativeEdistances,0
;   allowEaxisZeroing,1
;   independentExtruderAxes,0
;   includeM10123,0
;   stickySupport,1
;   applyToolheadOffsets,0
;   gcodeXoffset,0
;   gcodeYoffset,0
;   gcodeZoffset,0
;   overrideMachineDefinition,1
;   machineTypeOverride,0
;   strokeXoverride,185
;   strokeYoverride,190
;   strokeZoverride,300
;   originOffsetXoverride,0
;   originOffsetYoverride,0
;   originOffsetZoverride,0
;   homeXdirOverride,-1
;   homeYdirOverride,-1
;   homeZdirOverride,-1
;   flipXoverride,1
;   flipYoverride,-1
;   flipZoverride,1
;   toolheadOffsets,0,0|0,0|0,0|0,0|0,0|0,0
;   overrideFirmwareConfiguration,1
;   firmwareTypeOverride,RepRap (Marlin/Repetier/Sprinter)
;   GPXconfigOverride,r2
;   baudRateOverride,250000
;   overridePrinterModels,0
;   printerModelsOverride
;   startingGcode,G28 ; home all axes
;   layerChangeGcode,
;   retractionGcode,
;   toolChangeGcode,
;   endingGcode,M104 S0 ; turn off extruder,M140 S0 ; turn off bed,M84 ; disable motors
;   createX3G,0
;   celebration,0
;   celebrationSong,Random Song
;   createMB5G,0
;   postProcessing,
;   defaultSpeed,3000
;   outlineUnderspeed,0.5
;   solidInfillUnderspeed,0.8
;   supportUnderspeed,0.8
;   rapidXYspeed,4800
;   rapidZspeed,1000
;   minBridgingArea,50
;   bridgingExtraInflation,0
;   bridgingExtrusionMultiplier,1
;   bridgingSpeedMultiplier,1
;   filamentDiameter,1.73
;   filamentPricePerKg,46
;   filamentDensity,1.25
;   useMinPrintHeight,0
;   minPrintHeight,0
;   useMaxPrintHeight,0
;   maxPrintHeight,0
;   useDiaphragm,0
;   diaphragmLayerInterval,20
;   robustSlicing,1
;   mergeAllIntoSolid,0
;   onlyRetractWhenCrossingOutline,1
;   retractBetweenLayers,1
;   useRetractionMinTravel,0
;   retractionMinTravel,3
;   retractWhileWiping,0
;   onlyWipeOutlines,1
;   avoidCrossingOutline,0
;   maxMovementDetourFactor,3
;   toolChangeRetractionDistance,12
;   toolChangeExtraRestartDistance,-0.5
;   toolChangeRetractionSpeed,600
;   allowThinWallGapFill,1
;   thinWallAllowedOverlapPercentage,10
;   horizontalSizeCompensation,0
G90
M82
M106 S0
M140 S70
M190 S70
M104 S200 T0
M109 S200 T0
G28 ; home all axes
G92 E0
G1 E-3.0000 F1800
G1 Z0.160 F1000
; layer 1, Z = 0.16
T0
; tool H0.200 W0.400
; skirt
G1 X75.684 Y83.043 F4800
G1 E0.0000 F540
G92 E0
G1 X76.173 Y82.609 E0.0200 F1500
G1 X76.182 Y82.601 E0.0204
G1 X76.253 Y82.543 E0.0232
G1 X76.263 Y82.535 E0.0236
G1 X76.780 Y82.145 E0.0434
G1 X76.789 Y82.138 E0.0438
G1 X76.864 Y82.087 E0.0466
G1 X76.874 Y82.080 E0.0469
G1 X77.412 Y81.737 E0.0665
G1 X77.422 Y81.731 E0.0668
G1 X77.500 Y81.685 E0.0696
G1 X77.510 Y81.680 E0.0699
G1 X78.082 Y81.375 E0.0898
G1 X78.097 Y81.367 E0.0903
G1 X78.213 Y81.313 E0.0942
G1 X78.229 Y81.307 E0.0947
G1 X79.297 Y80.882 E0.1300
G1 X79.314 Y80.876 E0.1305
G1 X79.439 Y80.834 E0.1346
G1 X79.456 Y80.829 E0.1351
G1 X80.124 Y80.649 E0.1563
G1 X80.136 Y80.646 E0.1567
G1 X80.226 Y80.626 E0.1595
G1 X80.237 Y80.624 E0.1598
G1 X80.858 Y80.508 E0.1792
G1 X80.870 Y80.506 E0.1796
G1 X80.959 Y80.493 E0.1823
G1 X80.970 Y80.492 E0.1827
G1 X81.608 Y80.425 E0.2023
G1 X81.619 Y80.424 E0.2026
G1 X81.709 Y80.418 E0.2054
G1 X81.720 Y80.417 E0.2058
G1 X82.358 Y80.399 E0.2253
G1 X82.370 Y80.399 E0.2257
G1 X82.464 Y80.401 E0.2285
G1 X82.476 Y80.401 E0.2289
G1 X83.148 Y80.437 E0.2495
G1 X83.160 Y80.438 E0.2499
G1 X83.253 Y80.447 E0.2527
G1 X83.265 Y80.448 E0.2531
G1 X83.914 Y80.536 E0.2732
G1 X83.926 Y80.538 E0.2735
G1 X84.015 Y80.554 E0.2763
G1 X84.027 Y80.556 E0.2767
G1 X84.657 Y80.694 E0.2965
G1 X84.669 Y80.696 E0.2968
G1 X84.761 Y80.720 E0.2997
G1 X84.772 Y80.724 E0.3001
G1 X85.419 Y80.921 E0.3208
G1 X85.431 Y80.925 E0.3212
G1 X85.519 Y80.956 E0.3241
G1 X85.531 Y80.960 E0.3244
G1 X86.145 Y81.204 E0.3447
G1 X86.157 Y81.209 E0.3451
G1 X86.242 Y81.246 E0.3479
G1 X86.253 Y81.252 E0.3483
G1 X86.843 Y81.543 E0.3685
G1 X86.854 Y81.549 E0.3688
G1 X86.935 Y81.593 E0.3717
G1 X86.946 Y81.599 E0.3720
G1 X87.507 Y81.935 E0.3921
G1 X87.517 Y81.942 E0.3924
G1 X87.594 Y81.992 E0.3952
G1 X87.604 Y81.999 E0.3956
G1 X88.131 Y82.375 E0.4154
G1 X88.141 Y82.382 E0.4158
G1 X88.213 Y82.437 E0.4186
G1 X88.222 Y82.445 E0.4190
G1 X88.711 Y82.855 E0.4385
G1 X88.720 Y82.863 E0.4389
G1 X88.786 Y82.923 E0.4416
G1 X88.795 Y82.931 E0.4420
G1 X89.258 Y83.386 E0.4619
G1 X89.270 Y83.399 E0.4624
G1 X89.272 Y83.400 E0.4625
G1 X110.648 Y83.400 E1.1172
G1 X110.868 Y83.492 E1.1245
G1 X112.209 Y84.832 E1.1826
G1 X112.300 Y85.052 E1.1899
G1 X112.300 Y89.948 E1.3399
G1 X112.209 Y90.169 E1.3472
G1 X110.877 Y91.500 E1.4049
G1 X112.209 Y92.832 E1.4626
G1 X112.300 Y93.052 E1.4699
G1 X112.300 Y97.948 E1.6198
G1 X112.209 Y98.169 E1.6271
G1 X110.868 Y99.509 E1.6852
G1 X110.648 Y99.600 E1.6925
G1 X104.300 Y99.600 E1.8869
G1 X104.300 Y107.948 E2.1426
G1 X104.209 Y108.169 E2.1500
G1 X102.868 Y109.509 E2.2080
G1 X102.648 Y109.600 E2.2153
G1 X74.352 Y109.600 E3.0820
G1 X74.132 Y109.509 E3.0893
G1 X72.791 Y108.168 E3.1474
G1 X72.700 Y107.948 E3.1547
G1 X72.701 Y89.930 E3.7066
G1 X72.701 Y89.924 E3.7068
G1 X72.702 Y89.874 E3.7083
G1 X72.702 Y89.868 E3.7085
G1 X72.729 Y89.260 E3.7271
G1 X72.729 Y89.249 E3.7275
G1 X72.737 Y89.159 E3.7303
G1 X72.738 Y89.147 E3.7306
G1 X72.815 Y88.521 E3.7499
G1 X72.816 Y88.509 E3.7503
G1 X72.831 Y88.421 E3.7530
G1 X72.833 Y88.409 E3.7534
G1 X72.960 Y87.781 E3.7730
G1 X72.962 Y87.770 E3.7734
G1 X72.984 Y87.683 E3.7761
G1 X72.987 Y87.671 E3.7765
G1 X73.161 Y87.058 E3.7960
G1 X73.165 Y87.047 E3.7964
G1 X73.194 Y86.958 E3.7993
G1 X73.198 Y86.946 E3.7996
G1 X73.434 Y86.317 E3.8202
G1 X73.439 Y86.306 E3.8206
G1 X73.474 Y86.222 E3.8234
G1 X73.479 Y86.211 E3.8238
G1 X73.751 Y85.630 E3.8434
G1 X73.757 Y85.620 E3.8438
G1 X73.799 Y85.538 E3.8466
G1 X73.805 Y85.527 E3.8469
G1 X74.132 Y84.954 E3.8672
G1 X74.139 Y84.944 E3.8675
G1 X74.189 Y84.863 E3.8704
G1 X74.196 Y84.853 E3.8708
G1 X74.578 Y84.295 E3.8915
G1 X74.586 Y84.285 E3.8919
G1 X74.642 Y84.210 E3.8948
G1 X74.649 Y84.200 E3.8952
G1 X75.067 Y83.687 E3.9154
G1 X75.075 Y83.678 E3.9158
G1 X75.136 Y83.608 E3.9187
G1 X75.145 Y83.599 E3.9190
G1 X75.600 Y83.124 E3.9392
G1 X75.609 Y83.115 E3.9396
G1 X75.675 Y83.051 E3.9424
G1 X75.684 Y83.043 E3.9428
G92 E0
G1 E-3.0000 F1800
G1 X81.213 Y88.972 F4800
G1 E0.0000 F1800
G92 E0
G1 X81.100 Y89.107 E0.0054 F1500
G1 X80.999 Y89.262 E0.0111
G1 X80.917 Y89.430 E0.0168
G1 X80.857 Y89.608 E0.0225
G1 X80.819 Y89.793 E0.0283
G1 X80.804 Y89.981 E0.0341
G1 X80.814 Y90.169 E0.0398
G1 X80.846 Y90.350 E0.0455
G1 X80.897 Y90.519 E0.0509
G1 X80.972 Y90.688 E0.0566
G1 X81.068 Y90.848 E0.0623
G1 X81.184 Y90.996 E0.0680
G1 X81.318 Y91.128 E0.0738
G1 X81.469 Y91.243 E0.0796
G1 X81.631 Y91.337 E0.0853
G1 X81.779 Y91.400 E0.0903
G1 X86.330 Y91.400 E0.2297
G1 X86.012 Y91.314 E0.2398
G1 X85.974 Y91.301 E0.2410
G1 X85.690 Y91.182 E0.2504
G1 X85.654 Y91.164 E0.2516
G1 X84.927 Y90.737 E0.2775
G1 X84.894 Y90.714 E0.2787
G1 X84.653 Y90.526 E0.2881
G1 X84.623 Y90.499 E0.2893
G1 X84.069 Y89.932 E0.3136
G1 X84.050 Y89.909 E0.3145
G1 X83.908 Y89.733 E0.3214
G1 X83.891 Y89.709 E0.3223
G1 X83.501 Y89.110 E0.3442
G1 X83.381 Y88.967 E0.3499
G1 X83.242 Y88.840 E0.3557
G1 X83.089 Y88.730 E0.3615
G1 X82.922 Y88.641 E0.3673
G1 X82.747 Y88.573 E0.3730
G1 X82.568 Y88.529 E0.3787
G1 X82.393 Y88.507 E0.3841
G1 X82.208 Y88.507 E0.3897
G1 X82.024 Y88.530 E0.3954
G1 X81.841 Y88.577 E0.4012
G1 X81.665 Y88.646 E0.4070
G1 X81.500 Y88.736 E0.4128
G1 X81.348 Y88.846 E0.4185
G1 X81.213 Y88.972 E0.4242
G1 X80.922 Y88.696 F4800
G92 E0
G1 X80.778 Y88.869 E0.0069 F1500
G1 X80.650 Y89.065 E0.0141
G1 X80.547 Y89.277 E0.0213
G1 X80.470 Y89.503 E0.0286
G1 X80.422 Y89.737 E0.0359
G1 X80.404 Y89.976 E0.0433
G1 X80.415 Y90.213 E0.0505
G1 X80.456 Y90.443 E0.0577
G1 X80.521 Y90.659 E0.0646
G1 X80.616 Y90.873 E0.0718
G1 X80.738 Y91.075 E0.0790
G1 X80.885 Y91.263 E0.0863
G1 X81.055 Y91.431 E0.0936
G1 X81.246 Y91.576 E0.1010
G1 X81.451 Y91.695 E0.1082
G1 X81.666 Y91.787 E0.1154
G1 X81.712 Y91.800 E0.1168
G1 X110.568 Y91.800 E1.0007
G1 X110.642 Y91.831 E1.0032
G1 X111.870 Y93.058 E1.0563
G1 X111.900 Y93.132 E1.0588
G1 X111.900 Y97.868 E1.2039
G1 X111.870 Y97.942 E1.2063
G1 X110.642 Y99.170 E1.2595
G1 X110.568 Y99.200 E1.2619
G1 X103.900 Y99.200 E1.4662
G1 X103.900 Y107.868 E1.7317
G1 X103.870 Y107.942 E1.7341
G1 X102.642 Y109.170 E1.7873
G1 X102.568 Y109.200 E1.7897
G1 X74.432 Y109.200 E2.6516
G1 X74.358 Y109.170 E2.6540
G1 X73.130 Y107.942 E2.7072
G1 X73.100 Y107.868 E2.7096
G1 X73.101 Y89.932 E3.2590
G1 X73.101 Y89.930 E3.2591
G1 X73.102 Y89.885 E3.2605
G1 X73.102 Y89.883 E3.2605
G1 X73.128 Y89.282 E3.2790
G1 X73.128 Y89.278 E3.2791
G1 X73.135 Y89.196 E3.2816
G1 X73.136 Y89.192 E3.2817
G1 X73.211 Y88.573 E3.3008
G1 X73.212 Y88.569 E3.3009
G1 X73.225 Y88.488 E3.3034
G1 X73.226 Y88.485 E3.3036
G1 X73.351 Y87.864 E3.3230
G1 X73.352 Y87.861 E3.3231
G1 X73.371 Y87.781 E3.3256
G1 X73.372 Y87.777 E3.3257
G1 X73.545 Y87.172 E3.3450
G1 X73.546 Y87.168 E3.3451
G1 X73.573 Y87.087 E3.3477
G1 X73.574 Y87.083 E3.3478
G1 X73.807 Y86.461 E3.3682
G1 X73.809 Y86.458 E3.3683
G1 X73.841 Y86.381 E3.3709
G1 X73.843 Y86.377 E3.3710
G1 X74.112 Y85.804 E3.3904
G1 X74.114 Y85.800 E3.3905
G1 X74.152 Y85.726 E3.3931
G1 X74.154 Y85.722 E3.3932
G1 X74.478 Y85.156 E3.4132
G1 X74.480 Y85.153 E3.4133
G1 X74.526 Y85.079 E3.4159
G1 X74.528 Y85.076 E3.4161
G1 X74.906 Y84.525 E3.4365
G1 X74.908 Y84.521 E3.4367
G1 X74.960 Y84.453 E3.4393
G1 X74.962 Y84.449 E3.4394
G1 X75.375 Y83.943 E3.4594
G1 X75.377 Y83.940 E3.4595
G1 X75.433 Y83.876 E3.4621
G1 X75.436 Y83.873 E3.4623
G1 X75.886 Y83.403 E3.4822
G1 X75.889 Y83.401 E3.4823
G1 X75.950 Y83.342 E3.4849
G1 X75.953 Y83.339 E3.4850
G1 X76.436 Y82.910 E3.5048
G1 X76.439 Y82.908 E3.5049
G1 X76.504 Y82.855 E3.5075
G1 X76.507 Y82.852 E3.5076
G1 X77.017 Y82.467 E3.5272
G1 X77.021 Y82.465 E3.5273
G1 X77.089 Y82.417 E3.5299
G1 X77.092 Y82.415 E3.5300
G1 X77.624 Y82.076 E3.5493
G1 X77.627 Y82.074 E3.5494
G1 X77.698 Y82.033 E3.5519
G1 X77.701 Y82.031 E3.5521
G1 X78.265 Y81.730 E3.5716
G1 X78.270 Y81.728 E3.5718
G1 X78.376 Y81.679 E3.5754
G1 X78.382 Y81.677 E3.5756
G1 X79.440 Y81.256 E3.6104
G1 X79.445 Y81.254 E3.6106
G1 X79.560 Y81.216 E3.6143
G1 X79.565 Y81.214 E3.6145
G1 X80.225 Y81.036 E3.6354
G1 X80.229 Y81.035 E3.6355
G1 X80.310 Y81.017 E3.6381
G1 X80.314 Y81.016 E3.6382
G1 X80.928 Y80.902 E3.6573
G1 X80.931 Y80.902 E3.6575
G1 X81.012 Y80.890 E3.6600
G1 X81.016 Y80.889 E3.6601
G1 X81.646 Y80.823 E3.6795
G1 X81.650 Y80.822 E3.6796
G1 X81.731 Y80.817 E3.6821
G1 X81.735 Y80.817 E3.6822
G1 X82.365 Y80.799 E3.7015
G1 X82.369 Y80.799 E3.7016
G1 X82.454 Y80.801 E3.7043
G1 X82.458 Y80.801 E3.7044
G1 X83.122 Y80.836 E3.7247
G1 X83.126 Y80.837 E3.7249
G1 X83.211 Y80.845 E3.7275
G1 X83.215 Y80.845 E3.7276
G1 X83.856 Y80.932 E3.7474
G1 X83.860 Y80.933 E3.7475
G1 X83.942 Y80.947 E3.7501
G1 X83.946 Y80.948 E3.7502
G1 X84.568 Y81.083 E3.7697
G1 X84.572 Y81.084 E3.7698
G1 X84.656 Y81.106 E3.7725
G1 X84.660 Y81.107 E3.7726
G1 X85.298 Y81.302 E3.7931
G1 X85.302 Y81.303 E3.7932
G1 X85.383 Y81.332 E3.7958
G1 X85.387 Y81.333 E3.7959
G1 X85.994 Y81.574 E3.8159
G1 X85.998 Y81.576 E3.8161
G1 X86.076 Y81.610 E3.8187
G1 X86.079 Y81.612 E3.8188
G1 X86.662 Y81.900 E3.8387
G1 X86.666 Y81.902 E3.8388
G1 X86.740 Y81.943 E3.8414
G1 X86.744 Y81.945 E3.8416
G1 X87.298 Y82.276 E3.8613
G1 X87.302 Y82.279 E3.8615
G1 X87.372 Y82.324 E3.8640
G1 X87.375 Y82.327 E3.8642
G1 X87.896 Y82.698 E3.8838
G1 X87.899 Y82.700 E3.8839
G1 X87.965 Y82.751 E3.8864
G1 X87.968 Y82.754 E3.8865
G1 X88.451 Y83.159 E3.9059
G1 X88.454 Y83.162 E3.9060
G1 X88.515 Y83.217 E3.9085
G1 X88.517 Y83.219 E3.9086
G1 X88.974 Y83.668 E3.9282
G1 X88.978 Y83.672 E3.9284
G1 X89.058 Y83.759 E3.9320
G1 X89.061 Y83.763 E3.9322
G1 X89.091 Y83.800 E3.9336
G1 X110.568 Y83.800 E4.5915
G1 X110.642 Y83.831 E4.5939
G1 X111.870 Y85.058 E4.6471
G1 X111.900 Y85.132 E4.6495
G1 X111.900 Y89.869 E4.7946
G1 X111.870 Y89.942 E4.7971
G1 X110.641 Y91.170 E4.8503
G1 X110.567 Y91.201 E4.8527
G1 X87.212 Y91.183 E5.5681
G1 X87.199 Y91.182 E5.5685
G1 X86.924 Y91.146 E5.5770
G1 X86.911 Y91.143 E5.5774
G1 X86.129 Y90.932 E5.6022
G1 X86.116 Y90.927 E5.6026
G1 X85.857 Y90.818 E5.6112
G1 X85.845 Y90.812 E5.6116
G1 X85.141 Y90.399 E5.6366
G1 X85.130 Y90.391 E5.6371
G1 X84.910 Y90.219 E5.6456
G1 X84.900 Y90.210 E5.6460
G1 X84.362 Y89.659 E5.6696
G1 X84.356 Y89.652 E5.6699
G1 X84.226 Y89.490 E5.6762
G1 X84.221 Y89.483 E5.6765
G1 X83.823 Y88.871 E5.6989
G1 X83.670 Y88.690 E5.7061
G1 X83.495 Y88.529 E5.7134
G1 X83.300 Y88.390 E5.7208
G1 X83.089 Y88.276 E5.7281
G1 X82.868 Y88.191 E5.7354
G1 X82.641 Y88.135 E5.7425
G1 X82.418 Y88.107 E5.7494
G1 X82.183 Y88.107 E5.7566
G1 X81.949 Y88.136 E5.7638
G1 X81.718 Y88.195 E5.7711
G1 X81.495 Y88.283 E5.7785
G1 X81.286 Y88.398 E5.7858
G1 X81.093 Y88.537 E5.7931
G1 X80.922 Y88.696 E5.8002
G92 E0
G1 E-3.0000 F1800
; outer perimeter
G1 X79.178 Y87.041 F4800
G1 E0.0000 F1800
G92 E0
G1 X78.846 Y87.437 E0.0158 F750
G1 X78.557 Y87.881 E0.0321
G1 X78.323 Y88.362 E0.0485
G1 X78.149 Y88.873 E0.0650
G1 X78.040 Y89.404 E0.0816
G1 X77.999 Y89.945 E0.0982
G1 X78.026 Y90.481 E0.1147
G1 X78.117 Y91.003 E0.1309
