; G-Code generated by Simplify3D(R) Version 3.0.2
; 11月 14, 2017 at 7:00:32 下午
; Settings Summary
;   processName,Process1
;   applyToModels,主板固定件2
;   profileName,I3
;   profileVersion,2017-07-16 15:44:41
;   baseProfile,Default
;   printMaterial,PLA
;   printQuality,Medium
;   printExtruders,
;   extruderName,Extruder 1,Primary Extruder
;   extruderToolheadNumber,0,0
;   extruderDiameter,0.4,0.4
;   extruderAutoWidth,0,0
;   extruderWidth,0.4,0.4
;   extrusionMultiplier,0.9,0.9
;   extruderUseRetract,1,1
;   extruderRetractionDistance,3,3
;   extruderExtraRestartDistance,0,0
;   extruderRetractionZLift,0,0
;   extruderRetractionSpeed,1800,1800
;   extruderUseCoasting,0,0
;   extruderCoastingDistance,0.2,0.2
;   extruderUseWipe,0,0
;   extruderWipeDistance,5,5
;   primaryExtruder,0
;   layerHeight,0.2
;   topSolidLayers,3
;   bottomSolidLayers,3
;   perimeterOutlines,1
;   printPerimetersInsideOut,1
;   startPointOption,2
;   startPointOriginX,0
;   startPointOriginY,0
;   startPointOriginZ,300
;   sequentialIslands,0
;   spiralVaseMode,0
;   firstLayerHeightPercentage,80
;   firstLayerWidthPercentage,100
;   firstLayerUnderspeed,0.5
;   useRaft,0
;   raftExtruder,0
;   raftLayers,3
;   raftOffset,3
;   raftSeparationDistance,0.14
;   raftInfill,85
;   disableRaftBaseLayers,0
;   useSkirt,1
;   skirtExtruder,0
;   skirtLayers,1
;   skirtOutlines,2
;   skirtOffset,2
;   usePrimePillar,0
;   primePillarExtruder,999
;   primePillarWidth,12
;   primePillarLocation,7
;   primePillarSpeedMultiplier,1
;   useOozeShield,0
;   oozeShieldExtruder,999
;   oozeShieldOffset,2
;   oozeShieldOutlines,1
;   oozeShieldSidewallShape,1
;   oozeShieldSidewallAngle,30
;   oozeShieldSpeedMultiplier,1
;   infillExtruder,0
;   internalInfillPattern,Rectilinear
;   externalInfillPattern,Rectilinear
;   infillPercentage,90
;   outlineOverlapPercentage,25
;   infillExtrusionWidthPercentage,125
;   minInfillLength,5
;   infillLayerInterval,1
;   infillAngles,45,-45
;   overlapInfillAngles,0
;   generateSupport,1
;   supportExtruder,0
;   supportInfillPercentage,30
;   supportExtraInflation,0
;   denseSupportLayers,0
;   denseSupportInfillPercentage,70
;   supportLayerInterval,1
;   supportHorizontalPartOffset,0.3
;   supportUpperSeparationLayers,1
;   supportLowerSeparationLayers,1
;   supportType,0
;   supportGridSpacing,4
;   maxOverhangAngle,45
;   supportAngles,0
;   temperatureName,Extruder 1 Temperature,Heated Bed
;   temperatureNumber,0,0
;   temperatureSetpointCount,1,1
;   temperatureSetpointLayers,1,1
;   temperatureSetpointTemperatures,200,70
;   temperatureStabilizeAtStartup,1,1
;   temperatureHeatedBed,0,1
;   temperatureRelayBetweenLayers,0,0
;   temperatureRelayBetweenLoops,0,0
;   fanLayers,1,2
;   fanSpeeds,0,100
;   blipFanToFullPower,0
;   adjustSpeedForCooling,1
;   minSpeedLayerTime,15
;   minCoolingSpeedSlowdown,20
;   increaseFanForCooling,0
;   minFanLayerTime,45
;   maxCoolingFanSpeed,100
;   increaseFanForBridging,0
;   bridgingFanSpeed,100
;   use5D,1
;   relativeEdistances,0
;   allowEaxisZeroing,1
;   independentExtruderAxes,0
;   includeM10123,0
;   stickySupport,1
;   applyToolheadOffsets,0
;   gcodeXoffset,0
;   gcodeYoffset,0
;   gcodeZoffset,0
;   overrideMachineDefinition,1
;   machineTypeOverride,0
;   strokeXoverride,185
;   strokeYoverride,190
;   strokeZoverride,300
;   originOffsetXoverride,0
;   originOffsetYoverride,0
;   originOffsetZoverride,0
;   homeXdirOverride,-1
;   homeYdirOverride,-1
;   homeZdirOverride,-1
;   flipXoverride,1
;   flipYoverride,-1
;   flipZoverride,1
;   toolheadOffsets,0,0|0,0|0,0|0,0|0,0|0,0
;   overrideFirmwareConfiguration,1
;   firmwareTypeOverride,RepRap (Marlin/Repetier/Sprinter)
;   GPXconfigOverride,r2
;   baudRateOverride,250000
;   overridePrinterModels,0
;   printerModelsOverride
;   startingGcode,G28 ; home all axes
;   layerChangeGcode,
;   retractionGcode,
;   toolChangeGcode,
;   endingGcode,M104 S0 ; turn off extruder,M140 S0 ; turn off bed,M84 ; disable motors
;   createX3G,0
;   celebration,0
;   celebrationSong,Random Song
;   createMB5G,0
;   postProcessing,
;   defaultSpeed,3000
;   outlineUnderspeed,0.5
;   solidInfillUnderspeed,0.8
;   supportUnderspeed,0.8
;   rapidXYspeed,4800
;   rapidZspeed,1000
;   minBridgingArea,50
;   bridgingExtraInflation,0
;   bridgingExtrusionMultiplier,1
;   bridgingSpeedMultiplier,1
;   filamentDiameter,1.73
;   filamentPricePerKg,46
;   filamentDensity,1.25
;   useMinPrintHeight,0
;   minPrintHeight,0
;   useMaxPrintHeight,0
;   maxPrintHeight,0
;   useDiaphragm,0
;   diaphragmLayerInterval,20
;   robustSlicing,1
;   mergeAllIntoSolid,0
;   onlyRetractWhenCrossingOutline,1
;   retractBetweenLayers,1
;   useRetractionMinTravel,0
;   retractionMinTravel,3
;   retractWhileWiping,0
;   onlyWipeOutlines,1
;   avoidCrossingOutline,0
;   maxMovementDetourFactor,3
;   toolChangeRetractionDistance,12
;   toolChangeExtraRestartDistance,-0.5
;   toolChangeRetractionSpeed,600
;   allowThinWallGapFill,1
;   thinWallAllowedOverlapPercentage,10
;   horizontalSizeCompensation,0
G90
M82
M106 S0
M140 S70
M190 S70
M104 S200 T0
M109 S200 T0
G28 ; home all axes
G92 E0
G1 E-3.0000 F1800
G1 Z0.160 F1000
; layer 1, Z = 0.16
T0
; tool H0.200 W0.400
; skirt
G1 X63.832 Y81.672 F4800
G1 E0.0000 F540
G92 E0
G1 X64.052 Y81.580 E0.0073 F1500
G1 X120.948 Y81.580 E1.7500
G1 X121.168 Y81.672 E1.7573
G1 X122.509 Y83.012 E1.8154
G1 X122.600 Y83.233 E1.8227
G1 X122.600 Y106.767 E2.5436
G1 X122.509 Y106.988 E2.5509
G1 X121.168 Y108.328 E2.6090
G1 X120.948 Y108.420 E2.6163
G1 X114.052 Y108.420 E2.8275
G1 X113.832 Y108.328 E2.8348
G1 X112.491 Y106.988 E2.8929
G1 X112.400 Y106.767 E2.9002
G1 X112.400 Y91.780 E3.3592
G1 X64.052 Y91.780 E4.8401
G1 X63.832 Y91.689 E4.8474
G1 X62.491 Y90.349 E4.9055
G1 X62.400 Y90.128 E4.9128
G1 X62.400 Y83.233 E5.1240
G1 X62.491 Y83.012 E5.1313
G1 X63.832 Y81.672 E5.1894
G1 X64.058 Y82.011 F4800
G92 E0
G1 X64.132 Y81.980 E0.0024 F1500
G1 X120.868 Y81.980 E1.7403
G1 X120.942 Y82.011 E1.7427
G1 X122.170 Y83.239 E1.7959
G1 X122.200 Y83.312 E1.7983
G1 X122.200 Y106.688 E2.5143
G1 X122.170 Y106.761 E2.5168
G1 X120.942 Y107.989 E2.5700
G1 X120.868 Y108.020 E2.5724
G1 X114.132 Y108.020 E2.7787
G1 X114.058 Y107.989 E2.7812
G1 X112.830 Y106.761 E2.8344
G1 X112.800 Y106.688 E2.8368
G1 X112.800 Y91.380 E3.3057
G1 X64.132 Y91.380 E4.7964
G1 X64.058 Y91.350 E4.7988
G1 X62.830 Y90.122 E4.8520
G1 X62.800 Y90.049 E4.8544
G1 X62.800 Y83.312 E5.0608
G1 X62.830 Y83.239 E5.0632
G1 X64.058 Y82.011 E5.1164
G92 E0
G1 E-3.0000 F1800
; outer perimeter
G1 X65.200 Y84.380 F4800
G1 E0.0000 F1800
G92 E0
G1 X119.800 Y84.380 E1.6724 F750
G1 X119.800 Y105.620 E2.3230
G1 X115.200 Y105.620 E2.4639
G1 X115.200 Y88.980 E2.9735
G1 X65.200 Y88.980 E4.5050
G1 X65.200 Y84.380 E4.6459
; solid layer
G1 X65.500 Y85.230 F4800
G92 E0
G1 X66.050 Y84.680 E0.0238 F1200
G1 X66.616 Y84.680 E0.0412
G1 X65.500 Y85.796 E0.0895
G1 X65.500 Y86.362 E0.1068
G1 X67.181 Y84.680 E0.1796
G1 X67.747 Y84.680 E0.1970
G1 X65.500 Y86.928 E0.2943
G1 X65.500 Y87.493 E0.3116
G1 X68.313 Y84.680 E0.4335
G1 X68.878 Y84.680 E0.4508
G1 X65.500 Y88.059 E0.5971
G1 X65.500 Y88.625 E0.6145
G1 X69.444 Y84.680 E0.7853
G1 X70.010 Y84.680 E0.8027
G1 X66.010 Y88.680 E0.9759
G1 X66.575 Y88.680 E0.9933
G1 X70.575 Y84.680 E1.1665
G1 X71.141 Y84.680 E1.1838
G1 X67.141 Y88.680 E1.3571
G1 X67.707 Y88.680 E1.3744
G1 X71.707 Y84.680 E1.5477
G1 X72.273 Y84.680 E1.5650
G1 X68.273 Y88.680 E1.7383
G1 X68.838 Y88.680 E1.7556
G1 X72.838 Y84.680 E1.9289
G1 X73.404 Y84.680 E1.9462
G1 X69.404 Y88.680 E2.1195
G1 X69.970 Y88.680 E2.1368
G1 X73.970 Y84.680 E2.3101
G1 X74.535 Y84.680 E2.3274
G1 X70.535 Y88.680 E2.5007
G1 X71.101 Y88.680 E2.5180
G1 X75.101 Y84.680 E2.6913
G1 X75.667 Y84.680 E2.7086
G1 X71.667 Y88.680 E2.8819
G1 X72.232 Y88.680 E2.8992
G1 X76.232 Y84.680 E3.0725
G1 X76.798 Y84.680 E3.0898
G1 X72.798 Y88.680 E3.2631
G1 X73.364 Y88.680 E3.2804
G1 X77.364 Y84.680 E3.4537
G1 X77.929 Y84.680 E3.4710
G1 X73.929 Y88.680 E3.6443
G1 X74.495 Y88.680 E3.6616
G1 X78.495 Y84.680 E3.8349
G1 X79.061 Y84.680 E3.8522
G1 X75.061 Y88.680 E4.0255
G1 X75.626 Y88.680 E4.0428
G1 X79.626 Y84.680 E4.2161
G1 X80.192 Y84.680 E4.2334
G1 X76.192 Y88.680 E4.4067
G1 X76.758 Y88.680 E4.4240
G1 X80.758 Y84.680 E4.5973
G1 X81.324 Y84.680 E4.6146
G1 X77.324 Y88.680 E4.7879
G1 X77.889 Y88.680 E4.8052
G1 X81.889 Y84.680 E4.9785
G1 X82.455 Y84.680 E4.9958
G1 X78.455 Y88.680 E5.1691
G1 X79.021 Y88.680 E5.1864
G1 X83.021 Y84.680 E5.3597
G1 X83.586 Y84.680 E5.3770
G1 X79.586 Y88.680 E5.5503
G1 X80.152 Y88.680 E5.5676
G1 X84.152 Y84.680 E5.7409
G1 X84.718 Y84.680 E5.7582
G1 X80.718 Y88.680 E5.9315
G1 X81.283 Y88.680 E5.9488
G1 X85.283 Y84.680 E6.1221
G1 X85.849 Y84.680 E6.1394
G1 X81.849 Y88.680 E6.3127
G1 X82.415 Y88.680 E6.3300
G1 X86.415 Y84.680 E6.5033
G1 X86.980 Y84.680 E6.5206
G1 X82.980 Y88.680 E6.6939
G1 X83.546 Y88.680 E6.7112
G1 X87.546 Y84.680 E6.8845
G1 X88.112 Y84.680 E6.9018
G1 X84.112 Y88.680 E7.0751
G1 X84.677 Y88.680 E7.0924
G1 X88.677 Y84.680 E7.2657
G1 X89.243 Y84.680 E7.2830
G1 X85.243 Y88.680 E7.4563
G1 X85.809 Y88.680 E7.4736
G1 X89.809 Y84.680 E7.6468
G1 X90.374 Y84.680 E7.6642
G1 X86.374 Y88.680 E7.8374
G1 X86.940 Y88.680 E7.8548
G1 X90.940 Y84.680 E8.0280
G1 X91.506 Y84.680 E8.0454
G1 X87.506 Y88.680 E8.2186
G1 X88.072 Y88.680 E8.2360
G1 X92.072 Y84.680 E8.4092
G1 X92.637 Y84.680 E8.4266
G1 X88.637 Y88.680 E8.5998
G1 X89.203 Y88.680 E8.6172
G1 X93.203 Y84.680 E8.7904
G1 X93.769 Y84.680 E8.8078
G1 X89.769 Y88.680 E8.9810
G1 X90.334 Y88.680 E8.9984
G1 X94.334 Y84.680 E9.1716
G1 X94.900 Y84.680 E9.1890
G1 X90.900 Y88.680 E9.3622
G1 X91.466 Y88.680 E9.3796
G1 X95.466 Y84.680 E9.5528
G1 X96.031 Y84.680 E9.5702
G1 X92.031 Y88.680 E9.7434
G1 X92.597 Y88.680 E9.7608
G1 X96.597 Y84.680 E9.9340
G1 X97.163 Y84.680 E9.9514
G1 X93.163 Y88.680 E10.1246
G1 X93.728 Y88.680 E10.1419
G1 X97.728 Y84.680 E10.3152
G1 X98.294 Y84.680 E10.3325
G1 X94.294 Y88.680 E10.5058
G1 X94.860 Y88.680 E10.5231
G1 X98.860 Y84.680 E10.6964
G1 X99.425 Y84.680 E10.7137
G1 X95.425 Y88.680 E10.8870
G1 X95.991 Y88.680 E10.9043
G1 X99.991 Y84.680 E11.0776
G1 X100.557 Y84.680 E11.0949
G1 X96.557 Y88.680 E11.2682
G1 X97.123 Y88.680 E11.2855
G1 X101.123 Y84.680 E11.4588
G1 X101.688 Y84.680 E11.4761
G1 X97.688 Y88.680 E11.6494
G1 X98.254 Y88.680 E11.6667
G1 X102.254 Y84.680 E11.8400
G1 X102.820 Y84.680 E11.8573
G1 X98.820 Y88.680 E12.0306
G1 X99.385 Y88.680 E12.0479
G1 X103.385 Y84.680 E12.2212
G1 X103.951 Y84.680 E12.2385
G1 X99.951 Y88.680 E12.4118
G1 X100.517 Y88.680 E12.4291
G1 X104.517 Y84.680 E12.6024
G1 X105.082 Y84.680 E12.6197
G1 X101.082 Y88.680 E12.7930
G1 X101.648 Y88.680 E12.8103
G1 X105.648 Y84.680 E12.9836
G1 X106.214 Y84.680 E13.0009
G1 X102.214 Y88.680 E13.1742
G1 X102.779 Y88.680 E13.1915
G1 X106.779 Y84.680 E13.3648
G1 X107.345 Y84.680 E13.3821
G1 X103.345 Y88.680 E13.5554
G1 X103.911 Y88.680 E13.5727
G1 X107.911 Y84.680 E13.7460
G1 X108.476 Y84.680 E13.7633
G1 X104.476 Y88.680 E13.9366
G1 X105.042 Y88.680 E13.9539
G1 X109.042 Y84.680 E14.1272
G1 X109.608 Y84.680 E14.1445
G1 X105.608 Y88.680 E14.3178
G1 X106.173 Y88.680 E14.3351
G1 X110.173 Y84.680 E14.5084
G1 X110.739 Y84.680 E14.5257
G1 X106.739 Y88.680 E14.6990
G1 X107.305 Y88.680 E14.7163
G1 X111.305 Y84.680 E14.8896
G1 X111.871 Y84.680 E14.9069
G1 X107.871 Y88.680 E15.0802
G1 X108.436 Y88.680 E15.0975
G1 X112.436 Y84.680 E15.2708
G1 X113.002 Y84.680 E15.2881
G1 X109.002 Y88.680 E15.4614
G1 X109.568 Y88.680 E15.4787
G1 X113.568 Y84.680 E15.6520
G1 X114.133 Y84.680 E15.6693
G1 X110.133 Y88.680 E15.8426
G1 X110.699 Y88.680 E15.8599
G1 X114.699 Y84.680 E16.0332
G1 X115.265 Y84.680 E16.0505
G1 X111.265 Y88.680 E16.2238
G1 X111.830 Y88.680 E16.2411
G1 X115.830 Y84.680 E16.4144
G1 X116.396 Y84.680 E16.4317
G1 X112.396 Y88.680 E16.6049
G1 X112.962 Y88.680 E16.6223
G1 X116.962 Y84.680 E16.7955
G1 X117.527 Y84.680 E16.8129
G1 X113.527 Y88.680 E16.9861
G1 X114.093 Y88.680 E17.0035
G1 X118.093 Y84.680 E17.1767
G1 X118.659 Y84.680 E17.1941
G1 X114.659 Y88.680 E17.3673
G1 X115.224 Y88.680 E17.3847
G1 X119.224 Y84.680 E17.5579
G1 X119.500 Y84.680 E17.5664
G1 X119.500 Y84.971 E17.5753
G1 X115.500 Y88.971 E17.7485
G1 X115.500 Y89.536 E17.7659
G1 X119.500 Y85.536 E17.9391
G1 X119.500 Y86.102 E17.9565
G1 X115.500 Y90.102 E18.1297
G1 X115.500 Y90.668 E18.1471
G1 X119.500 Y86.668 E18.3203
G1 X119.500 Y87.233 E18.3377
G1 X115.500 Y91.233 E18.5109
G1 X115.500 Y91.799 E18.5283
G1 X119.500 Y87.799 E18.7015
G1 X119.500 Y88.365 E18.7189
G1 X115.500 Y92.365 E18.8921
G1 X115.500 Y92.930 E18.9095
G1 X119.500 Y88.930 E19.0827
G1 X119.500 Y89.496 E19.1000
G1 X115.500 Y93.496 E19.2733
G1 X115.500 Y94.062 E19.2906
G1 X119.500 Y90.062 E19.4639
G1 X119.500 Y90.627 E19.4812
G1 X115.500 Y94.627 E19.6545
G1 X115.500 Y95.193 E19.6718
G1 X119.500 Y91.193 E19.8451
G1 X119.500 Y91.759 E19.8624
G1 X115.500 Y95.759 E20.0357
G1 X115.500 Y96.325 E20.0530
G1 X119.500 Y92.325 E20.2263
G1 X119.500 Y92.890 E20.2436
G1 X115.500 Y96.890 E20.4169
G1 X115.500 Y97.456 E20.4342
G1 X119.500 Y93.456 E20.6075
G1 X119.500 Y94.022 E20.6248
G1 X115.500 Y98.022 E20.7981
G1 X115.500 Y98.587 E20.8154
G1 X119.500 Y94.587 E20.9887
G1 X119.500 Y95.153 E21.0060
G1 X115.500 Y99.153 E21.1793
G1 X115.500 Y99.719 E21.1966
G1 X119.500 Y95.719 E21.3699
G1 X119.500 Y96.284 E21.3872
G1 X115.500 Y100.284 E21.5605
G1 X115.500 Y100.850 E21.5778
G1 X119.500 Y96.850 E21.7511
G1 X119.500 Y97.416 E21.7684
G1 X115.500 Y101.416 E21.9417
G1 X115.500 Y101.981 E21.9590
G1 X119.500 Y97.981 E22.1323
G1 X119.500 Y98.547 E22.1496
G1 X115.500 Y102.547 E22.3229
G1 X115.500 Y103.113 E22.3402
G1 X119.500 Y99.113 E22.5135
G1 X119.500 Y99.678 E22.5308
G1 X115.500 Y103.678 E22.7041
G1 X115.500 Y104.244 E22.7214
G1 X119.500 Y100.244 E22.8947
G1 X119.500 Y100.810 E22.9120
G1 X115.500 Y104.810 E23.0853
G1 X115.500 Y105.320 E23.1009
G1 X115.556 Y105.320 E23.1026
G1 X119.500 Y101.375 E23.2735
G1 X119.500 Y101.941 E23.2908
G1 X116.122 Y105.320 E23.4371
G1 X116.687 Y105.320 E23.4544
G1 X119.500 Y102.507 E23.5763
G1 X119.500 Y103.073 E23.5936
G1 X117.253 Y105.320 E23.6909
G1 X117.819 Y105.320 E23.7083
G1 X119.500 Y103.638 E23.7811
G1 X119.500 Y104.204 E23.7984
G1 X118.384 Y105.320 E23.8468
G1 X118.950 Y105.320 E23.8641
G1 X119.500 Y104.770 E23.8879
G92 E0
G1 E-3.0000 F1800
; layer 2, Z = 0.36
M106 S255
; outer perimeter
G1 X119.800 Y105.620 F4800
G1 Z0.360 F1000
G1 E0.0000 F1800
G92 E0
G1 X115.200 Y105.620 E0.1409 F1500
G1 X115.200 Y88.980 E0.6506
G1 X65.200 Y88.980 E2.1821
G1 X65.200 Y84.380 E2.3230
G1 X119.800 Y84.380 E3.9954
G1 X119.800 Y105.620 E4.6459
; solid layer
G1 X115.830 Y105.320 F4800
G92 E0
G1 X115.500 Y104.989 E0.0143 F2400
G1 X115.500 Y104.424 E0.0316
G1 X116.396 Y105.320 E0.0704
G1 X116.962 Y105.320 E0.0878
G1 X115.500 Y103.858 E0.1511
G1 X115.500 Y103.292 E0.1684
G1 X117.527 Y105.320 E0.2562
G1 X118.093 Y105.320 E0.2736
G1 X115.500 Y102.726 E0.3859
G1 X115.500 Y102.161 E0.4032
G1 X118.659 Y105.320 E0.5400
G1 X119.224 Y105.320 E0.5574
G1 X115.500 Y101.595 E0.7187
G1 X115.500 Y101.029 E0.7360
G1 X119.500 Y105.029 E0.9093
G1 X119.500 Y104.464 E0.9266
G1 X115.500 Y100.464 E1.0999
G1 X115.500 Y99.898 E1.1172
G1 X119.500 Y103.898 E1.2905
G1 X119.500 Y103.332 E1.3078
G1 X115.500 Y99.332 E1.4811
G1 X115.500 Y98.767 E1.4984
G1 X119.500 Y102.767 E1.6717
G1 X119.500 Y102.201 E1.6890
G1 X115.500 Y98.201 E1.8623
G1 X115.500 Y97.635 E1.8796
G1 X119.500 Y101.635 E2.0529
G1 X119.500 Y101.070 E2.0702
G1 X115.500 Y97.070 E2.2435
G1 X115.500 Y96.504 E2.2608
G1 X119.500 Y100.504 E2.4341
G1 X119.500 Y99.938 E2.4514
G1 X115.500 Y95.938 E2.6247
G1 X115.500 Y95.373 E2.6420
G1 X119.500 Y99.373 E2.8153
G1 X119.500 Y98.807 E2.8326
G1 X115.500 Y94.807 E3.0059
G1 X115.500 Y94.241 E3.0232
G1 X119.500 Y98.241 E3.1965
G1 X119.500 Y97.676 E3.2138
G1 X115.500 Y93.676 E3.3871
G1 X115.500 Y93.110 E3.4044
G1 X119.500 Y97.110 E3.5777
G1 X119.500 Y96.544 E3.5950
G1 X115.500 Y92.544 E3.7683
G1 X115.500 Y91.978 E3.7856
G1 X119.500 Y95.978 E3.9589
G1 X119.500 Y95.413 E3.9762
G1 X115.500 Y91.413 E4.1495
