; G-Code generated by Simplify3D(R) Version 3.0.2
; 11月 14, 2017 at 6:59:27 下午
; Settings Summary
;   processName,Process1
;   applyToModels,挤出机平台件
;   profileName,I3
;   profileVersion,2017-07-16 15:44:41
;   baseProfile,Default
;   printMaterial,PLA
;   printQuality,Medium
;   printExtruders,
;   extruderName,Extruder 1,Primary Extruder
;   extruderToolheadNumber,0,0
;   extruderDiameter,0.4,0.4
;   extruderAutoWidth,0,0
;   extruderWidth,0.4,0.4
;   extrusionMultiplier,0.9,0.9
;   extruderUseRetract,1,1
;   extruderRetractionDistance,3,3
;   extruderExtraRestartDistance,0,0
;   extruderRetractionZLift,0,0
;   extruderRetractionSpeed,1800,1800
;   extruderUseCoasting,0,0
;   extruderCoastingDistance,0.2,0.2
;   extruderUseWipe,0,0
;   extruderWipeDistance,5,5
;   primaryExtruder,0
;   layerHeight,0.2
;   topSolidLayers,3
;   bottomSolidLayers,3
;   perimeterOutlines,1
;   printPerimetersInsideOut,1
;   startPointOption,2
;   startPointOriginX,0
;   startPointOriginY,0
;   startPointOriginZ,300
;   sequentialIslands,0
;   spiralVaseMode,0
;   firstLayerHeightPercentage,80
;   firstLayerWidthPercentage,100
;   firstLayerUnderspeed,0.5
;   useRaft,0
;   raftExtruder,0
;   raftLayers,3
;   raftOffset,3
;   raftSeparationDistance,0.14
;   raftInfill,85
;   disableRaftBaseLayers,0
;   useSkirt,1
;   skirtExtruder,0
;   skirtLayers,1
;   skirtOutlines,2
;   skirtOffset,2
;   usePrimePillar,0
;   primePillarExtruder,999
;   primePillarWidth,12
;   primePillarLocation,7
;   primePillarSpeedMultiplier,1
;   useOozeShield,0
;   oozeShieldExtruder,999
;   oozeShieldOffset,2
;   oozeShieldOutlines,1
;   oozeShieldSidewallShape,1
;   oozeShieldSidewallAngle,30
;   oozeShieldSpeedMultiplier,1
;   infillExtruder,0
;   internalInfillPattern,Rectilinear
;   externalInfillPattern,Rectilinear
;   infillPercentage,90
;   outlineOverlapPercentage,25
;   infillExtrusionWidthPercentage,125
;   minInfillLength,5
;   infillLayerInterval,1
;   infillAngles,45,-45
;   overlapInfillAngles,0
;   generateSupport,1
;   supportExtruder,0
;   supportInfillPercentage,30
;   supportExtraInflation,0
;   denseSupportLayers,0
;   denseSupportInfillPercentage,70
;   supportLayerInterval,1
;   supportHorizontalPartOffset,0.3
;   supportUpperSeparationLayers,1
;   supportLowerSeparationLayers,1
;   supportType,0
;   supportGridSpacing,4
;   maxOverhangAngle,45
;   supportAngles,0
;   temperatureName,Extruder 1 Temperature,Heated Bed
;   temperatureNumber,0,0
;   temperatureSetpointCount,1,1
;   temperatureSetpointLayers,1,1
;   temperatureSetpointTemperatures,200,70
;   temperatureStabilizeAtStartup,1,1
;   temperatureHeatedBed,0,1
;   temperatureRelayBetweenLayers,0,0
;   temperatureRelayBetweenLoops,0,0
;   fanLayers,1,2
;   fanSpeeds,0,100
;   blipFanToFullPower,0
;   adjustSpeedForCooling,1
;   minSpeedLayerTime,15
;   minCoolingSpeedSlowdown,20
;   increaseFanForCooling,0
;   minFanLayerTime,45
;   maxCoolingFanSpeed,100
;   increaseFanForBridging,0
;   bridgingFanSpeed,100
;   use5D,1
;   relativeEdistances,0
;   allowEaxisZeroing,1
;   independentExtruderAxes,0
;   includeM10123,0
;   stickySupport,1
;   applyToolheadOffsets,0
;   gcodeXoffset,0
;   gcodeYoffset,0
;   gcodeZoffset,0
;   overrideMachineDefinition,1
;   machineTypeOverride,0
;   strokeXoverride,185
;   strokeYoverride,190
;   strokeZoverride,300
;   originOffsetXoverride,0
;   originOffsetYoverride,0
;   originOffsetZoverride,0
;   homeXdirOverride,-1
;   homeYdirOverride,-1
;   homeZdirOverride,-1
;   flipXoverride,1
;   flipYoverride,-1
;   flipZoverride,1
;   toolheadOffsets,0,0|0,0|0,0|0,0|0,0|0,0
;   overrideFirmwareConfiguration,1
;   firmwareTypeOverride,RepRap (Marlin/Repetier/Sprinter)
;   GPXconfigOverride,r2
;   baudRateOverride,250000
;   overridePrinterModels,0
;   printerModelsOverride
;   startingGcode,G28 ; home all axes
;   layerChangeGcode,
;   retractionGcode,
;   toolChangeGcode,
;   endingGcode,M104 S0 ; turn off extruder,M140 S0 ; turn off bed,M84 ; disable motors
;   createX3G,0
;   celebration,0
;   celebrationSong,Random Song
;   createMB5G,0
;   postProcessing,
;   defaultSpeed,3000
;   outlineUnderspeed,0.5
;   solidInfillUnderspeed,0.8
;   supportUnderspeed,0.8
;   rapidXYspeed,4800
;   rapidZspeed,1000
;   minBridgingArea,50
;   bridgingExtraInflation,0
;   bridgingExtrusionMultiplier,1
;   bridgingSpeedMultiplier,1
;   filamentDiameter,1.73
;   filamentPricePerKg,46
;   filamentDensity,1.25
;   useMinPrintHeight,0
;   minPrintHeight,0
;   useMaxPrintHeight,0
;   maxPrintHeight,0
;   useDiaphragm,0
;   diaphragmLayerInterval,20
;   robustSlicing,1
;   mergeAllIntoSolid,0
;   onlyRetractWhenCrossingOutline,1
;   retractBetweenLayers,1
;   useRetractionMinTravel,0
;   retractionMinTravel,3
;   retractWhileWiping,0
;   onlyWipeOutlines,1
;   avoidCrossingOutline,0
;   maxMovementDetourFactor,3
;   toolChangeRetractionDistance,12
;   toolChangeExtraRestartDistance,-0.5
;   toolChangeRetractionSpeed,600
;   allowThinWallGapFill,1
;   thinWallAllowedOverlapPercentage,10
;   horizontalSizeCompensation,0
G90
M82
M106 S0
M140 S70
M190 S70
M104 S200 T0
M109 S200 T0
G28 ; home all axes
G92 E0
G1 E-3.0000 F1800
G1 Z0.160 F1000
; layer 1, Z = 0.16
T0
; tool H0.200 W0.400
; skirt
G1 X54.113 Y62.224 F4800
G1 E0.0000 F540
G92 E0
G1 X54.130 Y62.208 E0.0007 F1500
G1 X54.734 Y61.706 E0.0248
G1 X54.752 Y61.692 E0.0255
G1 X54.895 Y61.590 E0.0309
G1 X54.914 Y61.578 E0.0316
G1 X55.323 Y61.332 E0.0462
G1 X55.343 Y61.321 E0.0468
G1 X55.498 Y61.243 E0.0522
G1 X55.519 Y61.233 E0.0529
G1 X56.262 Y60.928 E0.0775
G1 X56.289 Y60.918 E0.0784
G1 X56.506 Y60.853 E0.0853
G1 X56.535 Y60.845 E0.0862
G1 X57.293 Y60.697 E0.1099
G1 X57.314 Y60.693 E0.1105
G1 X57.480 Y60.673 E0.1157
G1 X57.502 Y60.671 E0.1163
G1 X57.905 Y60.652 E0.1287
G1 X57.912 Y60.651 E0.1289
G1 X57.968 Y60.650 E0.1306
G1 X57.976 Y60.650 E0.1309
G1 X127.066 Y60.650 E2.2471
G1 X127.080 Y60.651 E2.2475
G1 X127.186 Y60.655 E2.2508
G1 X127.199 Y60.656 E2.2512
G1 X127.883 Y60.720 E2.2722
G1 X127.911 Y60.723 E2.2731
G1 X128.119 Y60.762 E2.2796
G1 X128.146 Y60.768 E2.2804
G1 X128.908 Y60.984 E2.3047
G1 X128.936 Y60.994 E2.3056
G1 X129.145 Y61.076 E2.3125
G1 X129.171 Y61.088 E2.3134
G1 X129.881 Y61.450 E2.3377
G1 X129.900 Y61.461 E2.3384
G1 X130.048 Y61.551 E2.3437
G1 X130.067 Y61.563 E2.3444
G1 X130.432 Y61.825 E2.3582
G1 X130.444 Y61.834 E2.3587
G1 X130.536 Y61.907 E2.3622
G1 X130.548 Y61.917 E2.3627
G1 X130.887 Y62.217 E2.3766
G1 X130.904 Y62.233 E2.3773
G1 X131.026 Y62.359 E2.3827
G1 X131.042 Y62.376 E2.3834
G1 X131.544 Y62.981 E2.4075
G1 X131.558 Y62.999 E2.4082
G1 X131.660 Y63.142 E2.4135
G1 X131.673 Y63.161 E2.4142
G1 X131.918 Y63.569 E2.4288
G1 X131.929 Y63.589 E2.4295
G1 X132.007 Y63.744 E2.4349
G1 X132.017 Y63.765 E2.4355
G1 X132.312 Y64.483 E2.4593
G1 X132.320 Y64.504 E2.4600
G1 X132.373 Y64.667 E2.4653
G1 X132.379 Y64.689 E2.4660
G1 X132.489 Y65.137 E2.4801
G1 X132.494 Y65.159 E2.4808
G1 X132.522 Y65.323 E2.4859
G1 X132.525 Y65.344 E2.4865
G1 X132.593 Y66.055 E2.5084
G1 X132.594 Y66.070 E2.5089
G1 X132.600 Y66.180 E2.5123
G1 X132.600 Y66.195 E2.5127
G1 X132.600 Y69.400 E2.6109
G1 X133.448 Y69.400 E2.6368
G1 X133.668 Y69.491 E2.6442
G1 X135.009 Y70.832 E2.7022
G1 X135.100 Y71.052 E2.7095
G1 X135.100 Y80.948 E3.0126
G1 X135.009 Y81.168 E3.0199
G1 X133.668 Y82.509 E3.0780
G1 X133.448 Y82.600 E3.0853
G1 X132.600 Y82.600 E3.1113
G1 X132.600 Y99.900 E3.6412
G1 X133.448 Y99.900 E3.6672
G1 X133.668 Y99.991 E3.6745
G1 X135.009 Y101.332 E3.7325
G1 X135.100 Y101.552 E3.7398
G1 X135.100 Y111.448 E4.0429
G1 X135.009 Y111.668 E4.0503
G1 X133.668 Y113.009 E4.1083
G1 X133.448 Y113.100 E4.1156
G1 X132.595 Y113.100 E4.1417
G1 X132.589 Y116.579 E4.2483
G1 X132.589 Y116.599 E4.2489
G1 X132.579 Y116.748 E4.2535
G1 X132.577 Y116.767 E4.2541
G1 X132.518 Y117.213 E4.2679
G1 X132.514 Y117.235 E4.2685
G1 X132.480 Y117.397 E4.2736
G1 X132.475 Y117.418 E4.2743
G1 X132.266 Y118.158 E4.2978
G1 X132.256 Y118.186 E4.2987
G1 X132.174 Y118.395 E4.3056
G1 X132.162 Y118.422 E4.3065
G1 X131.787 Y119.157 E4.3318
G1 X131.772 Y119.183 E4.3327
G1 X131.646 Y119.378 E4.3398
G1 X131.629 Y119.402 E4.3407
G1 X131.103 Y120.062 E4.3666
G1 X131.083 Y120.085 E4.3675
G1 X130.919 Y120.252 E4.3747
G1 X130.896 Y120.273 E4.3756
G1 X130.269 Y120.794 E4.4006
G1 X130.251 Y120.808 E4.4013
G1 X130.108 Y120.910 E4.4067
G1 X130.089 Y120.922 E4.4074
G1 X129.681 Y121.168 E4.4220
G1 X129.661 Y121.179 E4.4226
G1 X129.506 Y121.257 E4.4280
G1 X129.485 Y121.267 E4.4287
G1 X128.742 Y121.572 E4.4533
G1 X128.714 Y121.582 E4.4542
G1 X128.497 Y121.647 E4.4611
G1 X128.469 Y121.655 E4.4620
G1 X127.711 Y121.803 E4.4857
G1 X127.689 Y121.807 E4.4863
G1 X127.524 Y121.827 E4.4915
G1 X127.502 Y121.829 E4.4921
G1 X127.099 Y121.848 E4.5045
G1 X127.091 Y121.849 E4.5047
G1 X127.035 Y121.850 E4.5064
G1 X127.028 Y121.850 E4.5067
G1 X113.621 Y121.850 E4.9173
G1 X110.617 Y126.570 E5.0887
G1 X110.612 Y126.578 E5.0890
G1 X110.570 Y126.639 E5.0912
G1 X110.565 Y126.647 E5.0915
G1 X110.253 Y127.074 E5.1077
G1 X110.241 Y127.089 E5.1083
G1 X110.150 Y127.199 E5.1127
G1 X110.137 Y127.213 E5.1133
G1 X109.737 Y127.638 E5.1312
G1 X109.724 Y127.652 E5.1317
G1 X109.617 Y127.752 E5.1362
G1 X109.603 Y127.764 E5.1368
G1 X109.143 Y128.143 E5.1551
G1 X109.127 Y128.155 E5.1556
G1 X109.009 Y128.240 E5.1601
G1 X108.993 Y128.251 E5.1607
G1 X108.497 Y128.563 E5.1787
G1 X108.481 Y128.573 E5.1792
G1 X108.351 Y128.643 E5.1838
G1 X108.334 Y128.652 E5.1843
G1 X107.784 Y128.906 E5.2029
G1 X107.767 Y128.914 E5.2035
G1 X107.628 Y128.967 E5.2080
G1 X107.610 Y128.974 E5.2086
G1 X107.046 Y129.151 E5.2267
G1 X107.028 Y129.156 E5.2273
G1 X106.888 Y129.190 E5.2317
G1 X106.870 Y129.194 E5.2323
G1 X106.307 Y129.296 E5.2498
G1 X106.290 Y129.299 E5.2504
G1 X106.152 Y129.315 E5.2546
G1 X106.134 Y129.317 E5.2551
G1 X105.619 Y129.347 E5.2709
G1 X105.611 Y129.348 E5.2712
G1 X105.543 Y129.350 E5.2733
G1 X105.534 Y129.350 E5.2736
G1 X95.947 Y129.349 E5.5672
G1 X95.937 Y129.349 E5.5675
G1 X95.865 Y129.347 E5.5697
G1 X95.855 Y129.347 E5.5700
G1 X95.334 Y129.314 E5.5860
G1 X95.315 Y129.312 E5.5866
G1 X95.174 Y129.294 E5.5910
G1 X95.156 Y129.291 E5.5915
G1 X94.582 Y129.183 E5.6094
G1 X94.563 Y129.179 E5.6100
G1 X94.424 Y129.143 E5.6144
G1 X94.406 Y129.138 E5.6150
G1 X93.858 Y128.962 E5.6326
G1 X93.840 Y128.955 E5.6332
G1 X93.708 Y128.903 E5.6375
G1 X93.691 Y128.896 E5.6381
G1 X93.169 Y128.654 E5.6557
G1 X93.153 Y128.645 E5.6563
G1 X93.027 Y128.577 E5.6607
G1 X93.011 Y128.567 E5.6613
G1 X92.515 Y128.257 E5.6792
G1 X92.500 Y128.246 E5.6797
G1 X92.381 Y128.161 E5.6842
G1 X92.366 Y128.150 E5.6848
G1 X91.910 Y127.775 E5.7029
G1 X91.895 Y127.763 E5.7035
G1 X91.788 Y127.663 E5.7079
G1 X91.775 Y127.650 E5.7085
G1 X91.368 Y127.219 E5.7267
G1 X91.355 Y127.205 E5.7272
G1 X91.262 Y127.093 E5.7317
G1 X91.250 Y127.078 E5.7323
G1 X90.925 Y126.631 E5.7492
G1 X90.919 Y126.624 E5.7495
G1 X90.878 Y126.563 E5.7517
G1 X90.873 Y126.555 E5.7520
G1 X87.879 Y121.850 E5.9229
G1 X57.937 Y121.850 E6.8400
G1 X57.924 Y121.849 E6.8404
G1 X57.818 Y121.845 E6.8436
G1 X57.804 Y121.844 E6.8441
G1 X57.148 Y121.783 E6.8643
G1 X57.128 Y121.780 E6.8649
G1 X56.973 Y121.756 E6.8697
G1 X56.953 Y121.752 E6.8703
G1 X56.520 Y121.651 E6.8839
G1 X56.499 Y121.645 E6.8846
G1 X56.340 Y121.596 E6.8897
G1 X56.319 Y121.589 E6.8904
G1 X55.589 Y121.303 E6.9144
G1 X55.562 Y121.291 E6.9153
G1 X55.358 Y121.187 E6.9223
G1 X55.332 Y121.172 E6.9232
G1 X54.653 Y120.735 E6.9479
G1 X54.635 Y120.722 E6.9486
G1 X54.495 Y120.616 E6.9540
G1 X54.477 Y120.602 E6.9547
G1 X54.116 Y120.283 E6.9695
G1 X54.100 Y120.267 E6.9702
G1 X53.977 Y120.141 E6.9755
G1 X53.962 Y120.124 E6.9762
G1 X53.440 Y119.497 E7.0012
G1 X53.422 Y119.472 E7.0022
G1 X53.292 Y119.278 E7.0093
G1 X53.276 Y119.252 E7.0103
G1 X52.894 Y118.539 E7.0350
G1 X52.885 Y118.518 E7.0357
G1 X52.814 Y118.359 E7.0411
G1 X52.806 Y118.338 E7.0418
G1 X52.649 Y117.894 E7.0562
G1 X52.643 Y117.873 E7.0568
G1 X52.598 Y117.711 E7.0620
G1 X52.593 Y117.690 E7.0627
G1 X52.445 Y116.935 E7.0862
G1 X52.441 Y116.906 E7.0871
G1 X52.420 Y116.687 E7.0939
G1 X52.418 Y116.658 E7.0947
G1 X52.410 Y113.100 E7.2037
G1 X51.552 Y113.100 E7.2300
G1 X51.332 Y113.009 E7.2373
G1 X49.991 Y111.668 E7.2954
G1 X49.900 Y111.448 E7.3027
G1 X49.900 Y101.552 E7.6058
G1 X49.991 Y101.332 E7.6131
G1 X51.332 Y99.991 E7.6712
G1 X51.552 Y99.900 E7.6785
G1 X52.404 Y99.900 E7.7046
G1 X52.404 Y82.600 E8.2345
G1 X51.552 Y82.600 E8.2605
G1 X51.332 Y82.509 E8.2678
G1 X49.991 Y81.168 E8.3259
G1 X49.900 Y80.948 E8.3332
G1 X49.900 Y71.052 E8.6363
G1 X49.991 Y70.832 E8.6436
G1 X51.332 Y69.491 E8.7017
G1 X51.552 Y69.400 E8.7090
G1 X52.408 Y69.400 E8.7352
G1 X52.414 Y65.921 E8.8418
G1 X52.415 Y65.901 E8.8424
G1 X52.425 Y65.752 E8.8470
G1 X52.427 Y65.732 E8.8476
G1 X52.486 Y65.287 E8.8613
G1 X52.490 Y65.265 E8.8620
G1 X52.523 Y65.103 E8.8671
G1 X52.528 Y65.082 E8.8678
G1 X52.738 Y64.342 E8.8913
G1 X52.747 Y64.314 E8.8922
G1 X52.830 Y64.105 E8.8991
G1 X52.842 Y64.079 E8.9000
G1 X53.203 Y63.369 E8.9244
G1 X53.214 Y63.350 E8.9251
G1 X53.304 Y63.202 E8.9304
G1 X53.317 Y63.183 E8.9310
G1 X53.579 Y62.818 E8.9448
G1 X53.588 Y62.805 E8.9453
G1 X53.661 Y62.714 E8.9489
G1 X53.671 Y62.702 E8.9493
G1 X53.971 Y62.363 E8.9632
G1 X53.987 Y62.346 E8.9639
G1 X54.113 Y62.224 E8.9693
G1 X54.386 Y62.516 F4800
G92 E0
G1 X54.392 Y62.511 E0.0002 F1500
G1 X54.984 Y62.018 E0.0239
G1 X54.990 Y62.013 E0.0241
G1 X55.121 Y61.921 E0.0290
G1 X55.127 Y61.916 E0.0292
G1 X55.523 Y61.679 E0.0434
G1 X55.529 Y61.675 E0.0436
G1 X55.671 Y61.604 E0.0484
G1 X55.678 Y61.600 E0.0487
G1 X56.405 Y61.301 E0.0728
G1 X56.414 Y61.298 E0.0731
G1 X56.612 Y61.238 E0.0794
G1 X56.622 Y61.236 E0.0797
G1 X57.363 Y61.091 E0.1028
G1 X57.370 Y61.090 E0.1030
G1 X57.521 Y61.071 E0.1077
G1 X57.528 Y61.071 E0.1079
G1 X57.922 Y61.051 E0.1200
G1 X57.924 Y61.051 E0.1201
G1 X57.976 Y61.050 E0.1216
G1 X57.978 Y61.050 E0.1217
G1 X127.062 Y61.050 E2.2378
G1 X127.066 Y61.050 E2.2379
G1 X127.163 Y61.055 E2.2409
G1 X127.167 Y61.055 E2.2410
G1 X127.837 Y61.117 E2.2616
G1 X127.847 Y61.118 E2.2619
G1 X128.037 Y61.154 E2.2678
G1 X128.046 Y61.156 E2.2681
G1 X128.789 Y61.367 E2.2918
G1 X128.798 Y61.370 E2.2921
G1 X128.990 Y61.445 E2.2984
G1 X128.998 Y61.449 E2.2987
G1 X129.692 Y61.802 E2.3225
G1 X129.699 Y61.806 E2.3228
G1 X129.834 Y61.888 E2.3276
G1 X129.840 Y61.892 E2.3278
G1 X130.195 Y62.147 E2.3412
G1 X130.199 Y62.150 E2.3414
G1 X130.283 Y62.217 E2.3446
G1 X130.287 Y62.220 E2.3448
G1 X130.616 Y62.512 E2.3583
G1 X130.622 Y62.517 E2.3585
G1 X130.734 Y62.632 E2.3634
G1 X130.739 Y62.638 E2.3637
G1 X131.232 Y63.231 E2.3873
G1 X131.237 Y63.237 E2.3875
G1 X131.329 Y63.367 E2.3924
G1 X131.334 Y63.374 E2.3927
G1 X131.571 Y63.769 E2.4068
G1 X131.575 Y63.776 E2.4070
G1 X131.646 Y63.917 E2.4119
G1 X131.649 Y63.924 E2.4121
G1 X131.939 Y64.628 E2.4354
G1 X131.942 Y64.635 E2.4357
G1 X131.991 Y64.784 E2.4405
G1 X131.993 Y64.792 E2.4407
G1 X132.099 Y65.226 E2.4544
G1 X132.101 Y65.233 E2.4546
G1 X132.126 Y65.383 E2.4593
G1 X132.127 Y65.390 E2.4595
G1 X132.195 Y66.089 E2.4810
G1 X132.195 Y66.094 E2.4812
G1 X132.200 Y66.195 E2.4842
G1 X132.200 Y66.200 E2.4844
G1 X132.200 Y69.800 E2.5947
G1 X133.368 Y69.800 E2.6305
G1 X133.442 Y69.830 E2.6329
G1 X134.670 Y71.058 E2.6861
G1 X134.700 Y71.132 E2.6885
G1 X134.700 Y80.868 E2.9867
G1 X134.670 Y80.942 E2.9892
G1 X133.442 Y82.170 E3.0424
G1 X133.368 Y82.200 E3.0448
G1 X132.200 Y82.200 E3.0806
G1 X132.200 Y100.300 E3.6350
G1 X133.368 Y100.300 E3.6708
G1 X133.442 Y100.330 E3.6732
G1 X134.670 Y101.558 E3.7264
G1 X134.700 Y101.632 E3.7288
G1 X134.700 Y111.368 E4.0271
G1 X134.670 Y111.442 E4.0295
G1 X133.442 Y112.670 E4.0827
G1 X133.368 Y112.700 E4.0851
G1 X132.196 Y112.700 E4.1210
G1 X132.189 Y116.572 E4.2396
G1 X132.189 Y116.578 E4.2398
G1 X132.180 Y116.715 E4.2440
G1 X132.179 Y116.721 E4.2442
G1 X132.122 Y117.153 E4.2576
G1 X132.121 Y117.161 E4.2578
G1 X132.090 Y117.309 E4.2624
G1 X132.088 Y117.316 E4.2627
G1 X131.883 Y118.039 E4.2857
G1 X131.880 Y118.048 E4.2860
G1 X131.805 Y118.240 E4.2923
G1 X131.801 Y118.248 E4.2926
G1 X131.435 Y118.966 E4.3172
