; G-Code generated by Simplify3D(R) Version 3.0.2
; 11月 14, 2017 at 6:59:38 下午
; Settings Summary
;   processName,Process1
;   applyToModels,挤出机直线轴承固定件1
;   profileName,I3
;   profileVersion,2017-07-16 15:44:41
;   baseProfile,Default
;   printMaterial,PLA
;   printQuality,Medium
;   printExtruders,
;   extruderName,Extruder 1,Primary Extruder
;   extruderToolheadNumber,0,0
;   extruderDiameter,0.4,0.4
;   extruderAutoWidth,0,0
;   extruderWidth,0.4,0.4
;   extrusionMultiplier,0.9,0.9
;   extruderUseRetract,1,1
;   extruderRetractionDistance,3,3
;   extruderExtraRestartDistance,0,0
;   extruderRetractionZLift,0,0
;   extruderRetractionSpeed,1800,1800
;   extruderUseCoasting,0,0
;   extruderCoastingDistance,0.2,0.2
;   extruderUseWipe,0,0
;   extruderWipeDistance,5,5
;   primaryExtruder,0
;   layerHeight,0.2
;   topSolidLayers,3
;   bottomSolidLayers,3
;   perimeterOutlines,1
;   printPerimetersInsideOut,1
;   startPointOption,2
;   startPointOriginX,0
;   startPointOriginY,0
;   startPointOriginZ,300
;   sequentialIslands,0
;   spiralVaseMode,0
;   firstLayerHeightPercentage,80
;   firstLayerWidthPercentage,100
;   firstLayerUnderspeed,0.5
;   useRaft,0
;   raftExtruder,0
;   raftLayers,3
;   raftOffset,3
;   raftSeparationDistance,0.14
;   raftInfill,85
;   disableRaftBaseLayers,0
;   useSkirt,1
;   skirtExtruder,0
;   skirtLayers,1
;   skirtOutlines,2
;   skirtOffset,2
;   usePrimePillar,0
;   primePillarExtruder,999
;   primePillarWidth,12
;   primePillarLocation,7
;   primePillarSpeedMultiplier,1
;   useOozeShield,0
;   oozeShieldExtruder,999
;   oozeShieldOffset,2
;   oozeShieldOutlines,1
;   oozeShieldSidewallShape,1
;   oozeShieldSidewallAngle,30
;   oozeShieldSpeedMultiplier,1
;   infillExtruder,0
;   internalInfillPattern,Rectilinear
;   externalInfillPattern,Rectilinear
;   infillPercentage,90
;   outlineOverlapPercentage,25
;   infillExtrusionWidthPercentage,125
;   minInfillLength,5
;   infillLayerInterval,1
;   infillAngles,45,-45
;   overlapInfillAngles,0
;   generateSupport,1
;   supportExtruder,0
;   supportInfillPercentage,30
;   supportExtraInflation,0
;   denseSupportLayers,0
;   denseSupportInfillPercentage,70
;   supportLayerInterval,1
;   supportHorizontalPartOffset,0.3
;   supportUpperSeparationLayers,1
;   supportLowerSeparationLayers,1
;   supportType,0
;   supportGridSpacing,4
;   maxOverhangAngle,45
;   supportAngles,0
;   temperatureName,Extruder 1 Temperature,Heated Bed
;   temperatureNumber,0,0
;   temperatureSetpointCount,1,1
;   temperatureSetpointLayers,1,1
;   temperatureSetpointTemperatures,200,70
;   temperatureStabilizeAtStartup,1,1
;   temperatureHeatedBed,0,1
;   temperatureRelayBetweenLayers,0,0
;   temperatureRelayBetweenLoops,0,0
;   fanLayers,1,2
;   fanSpeeds,0,100
;   blipFanToFullPower,0
;   adjustSpeedForCooling,1
;   minSpeedLayerTime,15
;   minCoolingSpeedSlowdown,20
;   increaseFanForCooling,0
;   minFanLayerTime,45
;   maxCoolingFanSpeed,100
;   increaseFanForBridging,0
;   bridgingFanSpeed,100
;   use5D,1
;   relativeEdistances,0
;   allowEaxisZeroing,1
;   independentExtruderAxes,0
;   includeM10123,0
;   stickySupport,1
;   applyToolheadOffsets,0
;   gcodeXoffset,0
;   gcodeYoffset,0
;   gcodeZoffset,0
;   overrideMachineDefinition,1
;   machineTypeOverride,0
;   strokeXoverride,185
;   strokeYoverride,190
;   strokeZoverride,300
;   originOffsetXoverride,0
;   originOffsetYoverride,0
;   originOffsetZoverride,0
;   homeXdirOverride,-1
;   homeYdirOverride,-1
;   homeZdirOverride,-1
;   flipXoverride,1
;   flipYoverride,-1
;   flipZoverride,1
;   toolheadOffsets,0,0|0,0|0,0|0,0|0,0|0,0
;   overrideFirmwareConfiguration,1
;   firmwareTypeOverride,RepRap (Marlin/Repetier/Sprinter)
;   GPXconfigOverride,r2
;   baudRateOverride,250000
;   overridePrinterModels,0
;   printerModelsOverride
;   startingGcode,G28 ; home all axes
;   layerChangeGcode,
;   retractionGcode,
;   toolChangeGcode,
;   endingGcode,M104 S0 ; turn off extruder,M140 S0 ; turn off bed,M84 ; disable motors
;   createX3G,0
;   celebration,0
;   celebrationSong,Random Song
;   createMB5G,0
;   postProcessing,
;   defaultSpeed,3000
;   outlineUnderspeed,0.5
;   solidInfillUnderspeed,0.8
;   supportUnderspeed,0.8
;   rapidXYspeed,4800
;   rapidZspeed,1000
;   minBridgingArea,50
;   bridgingExtraInflation,0
;   bridgingExtrusionMultiplier,1
;   bridgingSpeedMultiplier,1
;   filamentDiameter,1.73
;   filamentPricePerKg,46
;   filamentDensity,1.25
;   useMinPrintHeight,0
;   minPrintHeight,0
;   useMaxPrintHeight,0
;   maxPrintHeight,0
;   useDiaphragm,0
;   diaphragmLayerInterval,20
;   robustSlicing,1
;   mergeAllIntoSolid,0
;   onlyRetractWhenCrossingOutline,1
;   retractBetweenLayers,1
;   useRetractionMinTravel,0
;   retractionMinTravel,3
;   retractWhileWiping,0
;   onlyWipeOutlines,1
;   avoidCrossingOutline,0
;   maxMovementDetourFactor,3
;   toolChangeRetractionDistance,12
;   toolChangeExtraRestartDistance,-0.5
;   toolChangeRetractionSpeed,600
;   allowThinWallGapFill,1
;   thinWallAllowedOverlapPercentage,10
;   horizontalSizeCompensation,0
G90
M82
M106 S0
M140 S70
M190 S70
M104 S200 T0
M109 S200 T0
G28 ; home all axes
G92 E0
G1 E-3.0000 F1800
G1 Z0.160 F1000
; layer 1, Z = 0.16
T0
; tool H0.200 W0.400
; skirt
G1 X82.583 Y87.561 F4800
G1 E0.0000 F540
G92 E0
G1 X82.797 Y87.476 E0.0070 F1059
G1 X86.078 Y87.476 E0.1075
G1 X86.310 Y87.579 E0.1153
G1 X87.670 Y89.074 E0.1772
G1 X87.751 Y89.314 E0.1850
G1 X87.610 Y90.802 E0.2308
G1 X87.604 Y91.205 E0.2431
G1 X87.628 Y91.574 E0.2544
G1 X87.681 Y91.949 E0.2660
G1 X87.763 Y92.321 E0.2777
G1 X87.866 Y92.663 E0.2887
G1 X87.995 Y92.995 E0.2996
G1 X88.345 Y93.666 E0.3227
G1 X88.533 Y93.948 E0.3331
G1 X88.781 Y94.264 E0.3454
G1 X89.027 Y94.530 E0.3565
G1 X89.311 Y94.793 E0.3684
G1 X89.618 Y95.036 E0.3804
G1 X89.948 Y95.256 E0.3925
G1 X90.298 Y95.451 E0.4048
G1 X90.666 Y95.617 E0.4172
G1 X91.047 Y95.753 E0.4295
G1 X91.451 Y95.860 E0.4424
G1 X91.834 Y95.928 E0.4543
G1 X92.235 Y95.966 E0.4666
G1 X92.633 Y95.972 E0.4788
G1 X93.048 Y95.943 E0.4915
G1 X93.426 Y95.885 E0.5033
G1 X93.806 Y95.797 E0.5152
G1 X94.166 Y95.682 E0.5268
G1 X94.518 Y95.539 E0.5384
G1 X94.839 Y95.379 E0.5494
G1 X95.181 Y95.175 E0.5616
G1 X95.474 Y94.967 E0.5726
G1 X95.772 Y94.721 E0.5844
G1 X96.053 Y94.447 E0.5965
G1 X96.316 Y94.145 E0.6087
G1 X96.566 Y93.807 E0.6216
G1 X96.777 Y93.463 E0.6340
G1 X96.946 Y93.130 E0.6454
G1 X97.101 Y92.756 E0.6578
G1 X97.204 Y92.434 E0.6682
G1 X97.355 Y91.707 E0.6909
G1 X97.392 Y91.299 E0.7035
G1 X97.393 Y90.872 E0.7165
G1 X97.255 Y89.301 E0.7649
G1 X97.336 Y89.062 E0.7726
G1 X98.696 Y87.578 E0.8342
G1 X98.927 Y87.476 E0.8420
G1 X107.948 Y87.476 E1.1183
G1 X108.168 Y87.567 E1.1256
G1 X109.509 Y88.908 E1.1837
G1 X109.600 Y89.128 E1.1910
G1 X109.600 Y92.653 E1.2989
G1 X109.564 Y92.797 E1.3035
G1 X109.018 Y93.814 E1.3388
G1 X108.918 Y93.924 E1.3434
G1 X98.803 Y100.634 E1.7152
G1 X98.796 Y100.638 E1.7154
G1 X98.744 Y100.671 E1.7173
G1 X98.737 Y100.675 E1.7176
G1 X97.838 Y101.204 E1.7495
G1 X97.823 Y101.212 E1.7500
G1 X97.707 Y101.272 E1.7540
G1 X97.692 Y101.279 E1.7546
G1 X96.604 Y101.763 E1.7910
G1 X96.588 Y101.770 E1.7915
G1 X96.468 Y101.816 E1.7955
G1 X96.452 Y101.821 E1.7960
G1 X95.467 Y102.133 E1.8276
G1 X95.455 Y102.136 E1.8280
G1 X95.364 Y102.161 E1.8309
G1 X95.352 Y102.164 E1.8313
G1 X94.752 Y102.301 E1.8501
G1 X94.743 Y102.303 E1.8504
G1 X94.674 Y102.316 E1.8526
G1 X94.665 Y102.318 E1.8528
G1 X94.035 Y102.422 E1.8724
G1 X94.021 Y102.424 E1.8728
G1 X93.918 Y102.436 E1.8760
G1 X93.905 Y102.437 E1.8764
G1 X92.750 Y102.522 E1.9119
G1 X92.732 Y102.522 E1.9124
G1 X92.594 Y102.524 E1.9167
G1 X92.576 Y102.524 E1.9172
G1 X91.358 Y102.467 E1.9546
G1 X91.339 Y102.466 E1.9552
G1 X91.198 Y102.450 E1.9595
G1 X91.180 Y102.448 E1.9601
G1 X89.951 Y102.237 E1.9982
G1 X89.933 Y102.233 E1.9988
G1 X89.792 Y102.200 E2.0032
G1 X89.774 Y102.195 E2.0038
G1 X88.583 Y101.832 E2.0419
G1 X88.570 Y101.828 E2.0424
G1 X88.467 Y101.791 E2.0457
G1 X88.454 Y101.786 E2.0462
G1 X87.833 Y101.530 E2.0667
G1 X87.820 Y101.525 E2.0672
G1 X87.720 Y101.478 E2.0705
G1 X87.708 Y101.472 E2.0710
G1 X86.617 Y100.896 E2.1087
G1 X86.605 Y100.889 E2.1092
G1 X86.511 Y100.833 E2.1125
G1 X86.499 Y100.826 E2.1130
G1 X85.940 Y100.459 E2.1334
G1 X85.928 Y100.451 E2.1339
G1 X85.840 Y100.387 E2.1372
G1 X85.829 Y100.378 E2.1376
G1 X84.865 Y99.606 E2.1755
G1 X84.850 Y99.594 E2.1760
G1 X84.743 Y99.497 E2.1805
G1 X84.730 Y99.483 E2.1811
G1 X83.854 Y98.580 E2.2196
G1 X83.841 Y98.566 E2.2202
G1 X83.748 Y98.457 E2.2246
G1 X83.737 Y98.442 E2.2251
G1 X82.996 Y97.459 E2.2628
G1 X82.986 Y97.444 E2.2634
G1 X82.909 Y97.328 E2.2677
G1 X82.899 Y97.312 E2.2682
G1 X82.312 Y96.296 E2.3042
G1 X82.305 Y96.284 E2.3046
G1 X82.258 Y96.193 E2.3078
G1 X82.252 Y96.181 E2.3082
G1 X81.987 Y95.610 E2.3274
G1 X81.982 Y95.598 E2.3278
G1 X81.944 Y95.505 E2.3309
G1 X81.939 Y95.493 E2.3313
G1 X81.553 Y94.425 E2.3661
G1 X81.547 Y94.409 E2.3666
G1 X81.510 Y94.284 E2.3706
G1 X81.505 Y94.267 E2.3711
G1 X81.249 Y93.188 E2.4051
G1 X81.246 Y93.175 E2.4055
G1 X81.228 Y93.079 E2.4085
G1 X81.226 Y93.067 E2.4089
G1 X81.135 Y92.462 E2.4276
G1 X81.134 Y92.449 E2.4280
G1 X81.123 Y92.350 E2.4311
G1 X81.122 Y92.337 E2.4315
G1 X81.052 Y91.191 E2.4666
G1 X81.052 Y91.174 E2.4672
G1 X81.052 Y91.040 E2.4713
G1 X81.052 Y91.023 E2.4718
G1 X81.162 Y89.023 E2.5332
G1 X81.259 Y88.814 E2.5402
G1 X82.583 Y87.561 E2.5960
G1 X82.802 Y87.904 F4800
G92 E0
G1 X82.873 Y87.876 E0.0023 F1059
G1 X85.993 Y87.876 E0.0979
G1 X86.071 Y87.910 E0.1005
G1 X87.318 Y89.281 E0.1573
G1 X87.344 Y89.361 E0.1598
G1 X87.210 Y90.780 E0.2035
G1 X87.204 Y91.214 E0.2168
G1 X87.229 Y91.615 E0.2291
G1 X87.287 Y92.020 E0.2416
G1 X87.375 Y92.422 E0.2543
G1 X87.488 Y92.794 E0.2661
G1 X87.630 Y93.160 E0.2782
G1 X88.000 Y93.870 E0.3027
G1 X88.209 Y94.183 E0.3142
G1 X88.477 Y94.524 E0.3275
G1 X88.744 Y94.813 E0.3396
G1 X89.050 Y95.097 E0.3523
G1 X89.382 Y95.360 E0.3653
G1 X89.739 Y95.598 E0.3785
G1 X90.118 Y95.808 E0.3918
G1 X90.516 Y95.988 E0.4051
G1 X90.928 Y96.135 E0.4185
G1 X91.364 Y96.251 E0.4323
G1 X91.780 Y96.325 E0.4453
G1 X92.214 Y96.366 E0.4586
G1 X92.644 Y96.372 E0.4718
G1 X93.092 Y96.341 E0.4856
G1 X93.502 Y96.279 E0.4983
G1 X93.912 Y96.182 E0.5112
G1 X94.302 Y96.058 E0.5237
G1 X94.683 Y95.904 E0.5363
G1 X95.031 Y95.731 E0.5482
G1 X95.399 Y95.511 E0.5613
G1 X95.718 Y95.285 E0.5733
G1 X96.039 Y95.018 E0.5861
G1 X96.344 Y94.722 E0.5991
G1 X96.629 Y94.396 E0.6124
G1 X96.898 Y94.030 E0.6263
G1 X97.126 Y93.659 E0.6396
G1 X97.310 Y93.297 E0.6520
G1 X97.477 Y92.894 E0.6654
G1 X97.592 Y92.536 E0.6769
G1 X97.751 Y91.765 E0.7010
G1 X97.792 Y91.318 E0.7148
G1 X97.793 Y90.855 E0.7290
G1 X97.661 Y89.350 E0.7753
G1 X97.688 Y89.270 E0.7779
G1 X98.934 Y87.910 E0.8343
G1 X99.011 Y87.876 E0.8369
G1 X107.868 Y87.876 E1.1082
G1 X107.942 Y87.907 E1.1107
G1 X109.170 Y89.134 E1.1638
G1 X109.200 Y89.208 E1.1663
G1 X109.200 Y92.604 E1.2703
G1 X109.188 Y92.652 E1.2718
G1 X108.689 Y93.581 E1.3041
G1 X108.656 Y93.618 E1.3056
G1 X98.584 Y100.299 E1.6758
G1 X98.582 Y100.300 E1.6759
G1 X98.534 Y100.330 E1.6776
G1 X98.532 Y100.331 E1.6777
G1 X97.640 Y100.856 E1.7094
G1 X97.635 Y100.859 E1.7096
G1 X97.529 Y100.914 E1.7133
G1 X97.524 Y100.916 E1.7134
G1 X96.446 Y101.396 E1.7496
G1 X96.441 Y101.398 E1.7497
G1 X96.331 Y101.440 E1.7533
G1 X96.326 Y101.441 E1.7535
G1 X95.350 Y101.750 E1.7848
G1 X95.346 Y101.751 E1.7850
G1 X95.263 Y101.774 E1.7876
G1 X95.259 Y101.775 E1.7877
G1 X94.666 Y101.910 E1.8064
G1 X94.663 Y101.911 E1.8065
G1 X94.600 Y101.923 E1.8084
G1 X94.597 Y101.924 E1.8085
G1 X93.974 Y102.026 E1.8279
G1 X93.970 Y102.027 E1.8280
G1 X93.876 Y102.038 E1.8309
G1 X93.871 Y102.039 E1.8310
G1 X92.727 Y102.122 E1.8662
G1 X92.721 Y102.122 E1.8664
G1 X92.595 Y102.124 E1.8702
G1 X92.589 Y102.124 E1.8704
G1 X91.382 Y102.068 E1.9074
G1 X91.376 Y102.067 E1.9076
G1 X91.247 Y102.053 E1.9116
G1 X91.241 Y102.052 E1.9118
G1 X90.025 Y101.844 E1.9495
G1 X90.019 Y101.842 E1.9497
G1 X89.891 Y101.812 E1.9538
G1 X89.885 Y101.810 E1.9540
G1 X88.704 Y101.451 E1.9918
G1 X88.700 Y101.450 E1.9919
G1 X88.606 Y101.416 E1.9950
G1 X88.602 Y101.414 E1.9951
G1 X87.989 Y101.162 E2.0154
G1 X87.985 Y101.160 E2.0155
G1 X87.894 Y101.118 E2.0186
G1 X87.890 Y101.116 E2.0187
G1 X86.808 Y100.545 E2.0562
G1 X86.804 Y100.542 E2.0564
G1 X86.718 Y100.491 E2.0594
G1 X86.714 Y100.489 E2.0596
G1 X86.163 Y100.127 E2.0798
G1 X86.159 Y100.124 E2.0799
G1 X86.079 Y100.066 E2.0829
G1 X86.075 Y100.063 E2.0831
G1 X85.120 Y99.298 E2.1206
G1 X85.115 Y99.294 E2.1208
G1 X85.017 Y99.205 E2.1248
G1 X85.013 Y99.201 E2.1250
G1 X84.146 Y98.306 E2.1632
G1 X84.141 Y98.301 E2.1634
G1 X84.056 Y98.202 E2.1674
G1 X84.052 Y98.197 E2.1676
G1 X83.320 Y97.223 E2.2049
G1 X83.316 Y97.218 E2.2051
G1 X83.246 Y97.112 E2.2090
G1 X83.243 Y97.107 E2.2092
G1 X82.660 Y96.099 E2.2448
G1 X82.658 Y96.095 E2.2449
G1 X82.615 Y96.012 E2.2478
G1 X82.613 Y96.008 E2.2480
G1 X82.352 Y95.446 E2.2669
G1 X82.350 Y95.442 E2.2671
G1 X82.315 Y95.357 E2.2699
G1 X82.314 Y95.353 E2.2700
G1 X81.931 Y94.295 E2.3045
G1 X81.929 Y94.289 E2.3047
G1 X81.895 Y94.175 E2.3083
G1 X81.893 Y94.169 E2.3085
G1 X81.639 Y93.100 E2.3422
G1 X81.638 Y93.095 E2.3423
G1 X81.621 Y93.008 E2.3450
G1 X81.621 Y93.003 E2.3452
G1 X81.532 Y92.408 E2.3636
G1 X81.531 Y92.403 E2.3638
G1 X81.522 Y92.312 E2.3666
G1 X81.521 Y92.308 E2.3667
G1 X81.452 Y91.172 E2.4015
G1 X81.452 Y91.167 E2.4017
G1 X81.452 Y91.045 E2.4055
G1 X81.452 Y91.039 E2.4056
G1 X81.557 Y89.121 E2.4645
G1 X81.590 Y89.052 E2.4668
G1 X82.802 Y87.904 E2.5179
G92 E0
G1 E-3.0000 F1800
; outer perimeter
G1 X83.892 Y90.276 F4800
G1 E0.0000 F1800
G92 E0
G1 X84.847 Y90.276 E0.0293 F530
G1 X84.812 Y90.648 E0.0407
G1 X84.802 Y91.273 E0.0598
G1 X84.840 Y91.860 E0.0779
G1 X84.923 Y92.448 E0.0960
G1 X85.052 Y93.030 E0.1143
G1 X85.218 Y93.577 E0.1318
G1 X85.439 Y94.148 E0.1506
G1 X85.689 Y94.668 E0.1683
G1 X85.933 Y95.097 E0.1834
G1 X86.265 Y95.594 E0.2017
G1 X86.650 Y96.083 E0.2207
G1 X87.044 Y96.509 E0.2385
G1 X87.487 Y96.921 E0.2570
G1 X87.970 Y97.302 E0.2759
G1 X88.488 Y97.648 E0.2950
G1 X89.039 Y97.954 E0.3143
G1 X89.617 Y98.216 E0.3337
G1 X90.216 Y98.430 E0.3532
G1 X90.846 Y98.597 E0.3731
G1 X91.456 Y98.705 E0.3921
G1 X92.083 Y98.765 E0.4114
G1 X92.711 Y98.773 E0.4306
G1 X93.356 Y98.728 E0.4505
G1 X93.957 Y98.637 E0.4691
G1 X94.551 Y98.498 E0.4878
G1 X95.119 Y98.317 E0.5060
G1 X95.670 Y98.093 E0.5242
G1 X96.182 Y97.838 E0.5418
G1 X96.710 Y97.524 E0.5606
G1 X97.180 Y97.191 E0.5782
G1 X97.645 Y96.805 E0.5967
G1 X98.088 Y96.374 E0.6157
G1 X98.502 Y95.900 E0.6349
G1 X98.890 Y95.372 E0.6550
G1 X99.222 Y94.832 E0.6744
G1 X99.492 Y94.301 E0.6927
G1 X99.732 Y93.721 E0.7119
G1 X99.915 Y93.152 E0.7302
G1 X100.040 Y92.637 E0.7464
G1 X100.129 Y92.115 E0.7626
G1 X100.192 Y91.429 E0.7838
G1 X100.193 Y90.751 E0.8045
G1 X100.151 Y90.276 E0.8191
G1 X106.800 Y90.276 E1.0228
G1 X106.800 Y91.969 E1.0746
G1 X97.285 Y98.280 E1.4244
G1 X96.481 Y98.754 E1.4530
G1 X96.032 Y98.970 E1.4682
G1 X95.535 Y99.175 E1.4847
G1 X95.160 Y99.305 E1.4968
G1 X94.677 Y99.446 E1.5122
G1 X94.169 Y99.562 E1.5282
G1 X93.637 Y99.650 E1.5447
G1 X93.130 Y99.702 E1.5603
G1 X92.626 Y99.723 E1.5758
G1 X92.101 Y99.715 E1.5919
G1 X91.571 Y99.674 E1.6081
G1 X91.039 Y99.600 E1.6246
G1 X90.508 Y99.492 E1.6412
G1 X89.982 Y99.350 E1.6579
G1 X89.463 Y99.174 E1.6747
G1 X88.955 Y98.965 E1.6915
G1 X88.449 Y98.717 E1.7088
G1 X87.984 Y98.452 E1.7251
G1 X87.527 Y98.152 E1.7419
G1 X87.092 Y97.825 E1.7586
G1 X86.681 Y97.474 E1.7751
G1 X86.279 Y97.084 E1.7923
G1 X85.923 Y96.692 E1.8085
G1 X85.587 Y96.273 E1.8249
G1 X85.283 Y95.841 E1.8411
G1 X85.010 Y95.399 E1.8570
G1 X84.768 Y94.950 E1.8727
G1 X84.551 Y94.482 E1.8884
G1 X84.359 Y93.993 E1.9045
G1 X84.212 Y93.545 E1.9190
G1 X84.087 Y93.080 E1.9337
G1 X83.987 Y92.599 E1.9488
G1 X83.913 Y92.105 E1.9641
G1 X83.866 Y91.583 E1.9801
G1 X83.852 Y91.099 E1.9950
G1 X83.865 Y90.606 E2.0101
G1 X83.892 Y90.276 E2.0202
; solid layer
G1 X84.157 Y90.898 F4800
G92 E0
G1 X84.479 Y90.576 E0.0139 F847
G1 X84.517 Y90.576 E0.0151
G1 X84.512 Y90.632 E0.0168
G1 X84.505 Y91.116 E0.0317
G1 X84.163 Y91.458 E0.0465
